Luts/Hasselblad/Hasselblad_Nature_Phocus_X2D_VLog_sRGB.cube
TITLE "Hasselblad Nature Phocus X2D ColorCorrect from V-Log to sRGB"
#LUMIXPHOTOSTYLE VLOG
# INPUT_COLORSPACE Panasonic V-Log / V-Gamut
# OUTPUT_COLORSPACE sRGB primaries / D65 / sRGB transfer function
LUT_3D_SIZE 33
0 0 0
0 0 0
0 0 0
0 0 0
0.00532127846 0 0.000194342503
0.0271100913 0 0.000629511563
0.0624726112 0 0.000969849369
0.105948773 0 0.00123785364
0.161922188 0 0.00128291763
0.232425263 0 0.000781056182
0.321709131 0 0
0.431521515 0 0
0.556994349 0 0
0.693258456 0 0
0.837064993 0 0
0.967290859 0 0
1 0 0.0195924334
1 0 0.0986534403
1 0 0.178097134
1 0 0.265615517
1 0 0.362978765
1 0 0.468791736
1 0 0.58166766
1 0 0.701220263
1 0 0.813238295
1 0 0.905938802
1 0 0.971000296
1 0 1
1 0 1
1 0 1
1 0 1
1 0 1
1 0 1
0 0 0
0 0 0
0 0 0
0 0 0
0.00450286512 0 0.000172786733
0.0254391499 0 0.000593795283
0.060361911 0 0.000954973014
0.10391538 0 0.00123567466
0.160027917 0 0.00128597175
0.230681238 0 0.000790957764
0.320047297 0 0
0.430091728 0 0
0.555802114 0 0
0.692255557 0 0
0.836388842 0 0
0.966839781 0 0
1 0 0.019471494
1 0 0.0984641688
1 0 0.178032206
1 0 0.26547992
1 0 0.362942935
1 0 0.4687576
1 0 0.581585097
1 0 0.701204152
1 0 0.813190804
1 0 0.90590752
1 0 0.971000296
1 0 1
1 0 1
1 0 1
1 0 1
1 0 1
1 0 1
0 0 0
0 0 0
0 0 0
0 0 0
0.00370242501 0 0.000152075716
0.0237842271 0 0.000572383883
0.0583083872 0 0.000941417964
0.101883553 0 0.00123009629
0.158113941 0 0.00129071414
0.228836425 0 0.000813680931
0.31834684 0 0
0.428545729 0 0
0.55457219 0 0
0.691289895 0 0
0.835657849 0 0
0.966388852 0 0
1 0 0.0192125051
1 0 0.0983625981
1 0 0.177857825
1 0 0.265404757
1 0 0.36283625
1 0 0.468638715
1 0 0.581568584
1 0 0.701139706
1 0 0.813174974
1 0 0.905891879
1 0 0.971000296
1 0 1
1 0 1
1 0 1
1 0 1
1 0 1
1 0 1
0 0 0
0 0 0
0 0 0
0 0 0
0.00297117181 0 0.00011508331
0.0221469088 0 0.000552838032
0.0561684531 0 0.000926729102
0.0999314227 0 0.00121708777
0.156216557 0 0.00129323141
0.227110621 0 0.000829175736
0.316624481 0 0
0.427095797 0 0
0.553380162 0 0
0.690342192 0 0
0.834926901 0 0
0.965937906 0 0
1 0 0.0191227987
1 0 0.0981468571
1 0 0.177705636
1 0 0.265288506
1 0 0.362728749
1 0 0.46857044
1 0 0.581486018
1 0 0.701091372
1 0 0.813143313
1 0 0.905891879
1 0 0.970984772
1 0 1
1 0 1
1 0 1
1 0 1
1 0 1
1 0 1
0 0.01134124 0
0 0.00952543274 0
0 0.0078571599 0
0 0.00632727178 0
0.00111415052 0.00459931951 0
0.0238045138 0.00249043659 0
0.0659343957 0 7.43113312e-05
0.111062874 0 0.000673979662
0.15511159 0 0.00124425949
0.225343181 0 0.000846225036
0.315000532 0 0
0.425606952 0 0
0.55214979 0 0
0.689376102 0 0
0.834232368 0 0
0.965486717 0 0
1 0 0.0189065219
1 0 0.0980451369
1 0 0.177620186
1 0 0.265212163
1 0 0.362657078
1 0 0.468519233
1 0 0.581419964
1 0 0.70107526
1 0 0.813111652
1 0 0.905860597
1 0 0.970984772
1 0 1
1 0 1
1 0 1
1 0 1
1 0 1
1 0 1
0 0.0499154704 0
0 0.0462552411 0
0 0.0426966319 0
0 0.0389838228 0
0 0.034470072 0
0.0150766617 0.0284697688 0
0.0586600629 0.0235658801 0
0.109602256 0.0167447725 0
0.174116899 0.00382648665 0
0.257144499 0 0
0.35163633 0 0
0.444856389 0 0
0.550918798 0 0
0.688391242 0 0
0.833501364 0 0
0.965053847 0 0
1 0 0.0187805075
1 0 0.0978259383
1 0 0.177490188
1 0 0.265076507
1 0 0.362549566
1 0 0.468433885
1 0 0.581386937
1 0 0.701010813
1 0 0.813095822
1 0 0.905860597
1 0 0.970969247
1 0 1
1 0 1
1 0 1
1 0 1
1 0 1
1 0 1
0 0.0964153349 0
0 0.0929691497 0
0 0.0895150456 0
0 0.0860355874 0
0 0.0815994185 0
0 0.0757010745 0
0.042485017 0.0682554361 0
0.102986638 0.0609732465 0
0.169507971 0.0485332302 0
0.247620895 0.0254513976 0
0.35329214 0 0
0.474468826 0 0
0.598401179 0 0
0.702195361 0 0
0.832788391 0 0
0.964602567 0 0
1 0 0.0185225376
1 0 0.0976390248
1 0 0.177382427
1 0 0.264941997
1 0 0.362496617
1 0 0.468399745
1 0 0.581321334
1 0 0.700994701
1 0 0.813064161
1 0 0.905829315
1 0 0.970969247
1 0 1
1 0 1
1 0 1
1 0 1
1 0 1
1 0 1
0 0.150536749 0
0 0.147274556 0
0 0.144007893 0
0 0.140807487 0
0 0.137144051 0
0 0.131040547 0
0 0.124569021 0
0.0825895422 0.116003508 0
0.160129042 0.106444695 0
0.244535626 0.0903969153 0
0.343978906 0.0606865219 0
0.469762614 0 0
0.607559377 0 0
0.742467277 0 0
0.858467883 0 0
0.96402519 0 0
1 0 0.0182875474
1 0 0.0974550747
1 0 0.177252361
1 0 0.264806301
1 0 0.362389095
1 0 0.468314394
1 0 0.581238764
1 0 0.700946365
1 0 0.8130325
1 0 0.905813674
1 0 0.970953722
1 0 1
1 0 1
1 0 1
1 0 1
1 0 1
1 0 1
0 0.218182447 0
0 0.215194908 0
0 0.212204338 0
0 0.209141447 0
0 0.206127287 0
0 0.199378379 0
0 0.194577962 0
0 0.186493799 0
0.133531662 0.175677878 0
0.231156794 0.163261981 0
0.338589013 0.142660424 0
0.458732745 0.107529147 0
0.597314341 0 0
0.748081439 0 0
0.88664918 0 0
0.992667043 0 0
1 0 0.0165070021
1 0 0.0972183303
1 0 0.177010811
1 0 0.264692309
1 0 0.362227798
1 0 0.468177826
1 0 0.58118922
1 0 0.700865804
1 0 0.812985008
1 0 0.905782392
1 0 0.970938197
1 0 1
1 0 1
1 0 1
1 0 1
1 0 1
1 0 1
0 0.303285218 0
0 0.300506212 0
0 0.297775802 0
0 0.294975971 0
0 0.292190979 0
0 0.285173786 0
0 0.280983923 0
0 0.274723437 0
0.0092820239 0.263859709 0
0.19619868 0.249913915 0
0.319883283 0.233778062 0
0.449133934 0.207936366 0
0.58377621 0.168011539 0
0.731883025 0.0635137492 0
0.88631098 0 0
1 0 0
1 0 0
1 0 0.090295402
1 0 0.176661199
1 0 0.264421991
1 0 0.361995599
1 0 0.4680077
1 0 0.581040587
1 0 0.70076913
1 0 0.812921685
1 0 0.90575111
1 0 0.970938197
1 0 1
1 0 1
1 0 1
1 0 1
1 0 1
1 0 1
0 0.403770961 0
0 0.40144946 0
0 0.399110405 0
0 0.396753765 0
0 0.394396003 0
0 0.388625293 0
0 0.383495444 0
0 0.378933311 0
0 0.371078599 0
0.0532383735 0.357595289 0
0.275174305 0.340524035 0
0.422556019 0.320855503 0
0.56717417 0.290922508 0
0.713663214 0.247486234 0
0.866143496 0.155046185 0
1 0 0
1 0 0
1 0 0.0324457033
1 0 0.166465728
1 0 0.26409456
1 0 0.361781296
1 0 0.467836971
1 0 0.580858918
1 0 0.700656341
1 0 0.81284253
1 0 0.905704186
1 0 0.970907147
1 0 1
1 0 1
1 0 1
1 0 1
1 0 1
1 0 1
0 0.513497638 0
0 0.511705663 0
0 0.509880868 0
0 0.508023223 0
0 0.506213501 0
0 0.502523325 0
0 0.49679294 0
0 0.492437171 0
0 0.486884119 0
0 0.477685728 0
0.138460481 0.462030423 0
0.370491368 0.442701383 0
0.533019839 0.42091619 0
0.690838396 0.388586754 0
0.844412384 0.343660304 0
0.982087495 0.261385096 0
1 0 0
1 0 0
1 0 0.120540245
1 0 0.249968574
1 0 0.361405591
1 0 0.467529631
1 0 0.580660723
1 0 0.700462983
1 0 0.812731712
1 0 0.905641621
1 0 0.970891623
1 0 1
1 0 1
1 0 1
1 0 1
1 0 1
1 0 1
0 0.630282194 0
0 0.628838012 0
0 0.627393552 0
0 0.625917057 0
0 0.624472032 0
0 0.622709038 0
0 0.617570408 0
0 0.612527175 0
0 0.608107554 0
0 0.601691378 0
0 0.591296696 0
0.242905932 0.573778586 0
0.476705863 0.552641049 0
0.651650139 0.529286515 0
0.816401423 0.495623893 0
0.955852043 0.452458141 0
1 0.378981677 0
1 0.214971866 0
1 0 0
1 0 0.200979561
1 0 0.34347273
1 0 0.467137465
1 0 0.580347349
1 0 0.700237747
1 0 0.812589229
1 0 0.905563413
1 0 0.970860573
1 0 1
1 0 1
1 0 1
1 0 1
1 0 1
1 0 1
0 0.75016354 0
0 0.749147093 0
0 0.748099247 0
0 0.747082562 0
0 0.746003182 0
0 0.744970607 0
0 0.742214565 0
0 0.737744753 0
0 0.733264712 0
0 0.728911951 0
0 0.722069373 0
0 0.71098365 0
0.353855941 0.692604004 0
0.591173868 0.670536662 0
0.771840272 0.646282222 0
0.92147922 0.612933831 0
1 0.571524998 0
1 0.504662877 0
1 0.361102811 0
1 0 0
1 0 0.28929595
1 0 0.445932433
1 0 0.579950902
1 0 0.699963802
1 0 0.812383415
1 0 0.90543828
1 0 0.970813997
1 0 1
1 0 1
1 0 1
1 0 1
1 0 1
1 0 1
0 0.855991757 0
0 0.85537328 0
0 0.854723837 0
0 0.854074353 0
0 0.853455756 0
0 0.852806189 0
0 0.852032839 0
0 0.849230451 0
0 0.845617415 0
0 0.841848493 0
0 0.837879521 0
0 0.831268547 0
0 0.820747545 0
0.483599455 0.803509205 0
0.713599774 0.78303287 0
0.873910272 0.761486067 0
0.995700499 0.732689151 0
1 0.697527107 0
1 0.63725818 0
1 0.496707408 0
1 0.201849869 0.060409241
1 0 0.385603701
1 0 0.555586659
1 0 0.6995448
1 0 0.812114265
1 0 0.905281861
1 0 0.97075213
1 0 1
1 0 1
1 0 1
1 0 1
1 0 1
1 0 1
0 0.939330358 0
0 0.938977569 0
0 0.938624769 0
0 0.938271958 0
0 0.937919135 0
0 0.937581642 0
0 0.937228797 0
0 0.936338962 0
0 0.934217444 0
0 0.931429876 0
0 0.928374962 0
0 0.924650918 0
0 0.918424251 0
0.292043956 0.908809581 0
0.631610551 0.893577554 0
0.824801695 0.876518336 0
0.951450318 0.859449832 0
1 0.837874627 0
1 0.811019507 0
1 0.761650592 0
1 0.632091514 0
1 0.355254125 0.144791834
1 0 0.489979388
1 0 0.673354895
1 0 0.811765938
1 0 0.905078511
1 0 0.970658978
1 0 1
1 0 1
1 0 1
1 0 1
1 0 1
1 0 1
0 0.98751054 0
0 0.987418906 0
0 0.987296726 0
0 0.987189818 0
0 0.987082908 0
0 0.986975998 0
0 0.986869087 0
0 0.986716354 0
0 0.986212324 0
0 0.985206669 0
0 0.983597649 0
0 0.981388152 0
0 0.978183665 0
0 0.973020952 0
0.525500978 0.965324875 0
0.770465549 0.954629308 0
0.915480984 0.943609553 0
0.989932434 0.933544812 0
1 0.920117243 0
1 0.900950756 0
1 0.863877072 0
1 0.757831431 0
1 0.491455097 0.229761158
1 0 0.602171947
1 0 0.787735148
1 0 0.904796942
1 0 0.9705503
1 0 1
1 0 1
1 0 1
1 0 1
1 0 1
1 0 1
0 1 0
0 1 0
0 1 0
0 1 0
0 1 0
0 1 0
0 1 0
0 1 0
0 1 0
0 1 0
0 1 0
0 1 0
0 1 0
0 0.999265253 0
0.436083692 0.993844843 0
0.71622648 0.987005216 0
0.889398482 0.979545166 0
0.972537226 0.973798609 0
1 0.969530721 0
1 0.963976685 0
1 0.955859619 0
1 0.937283752 0
1 0.861070315 0
1 0.626327283 0.32239128
1 0 0.719917255
1 0 0.885171525
1 0 0.97041057
1 0 1
1 0 1
1 0 1
1 0 1
1 0 1
1 0 1
0 1 0
0 1 0
0 1 0
0 1 0
0 1 0
0 1 0
0 1 0
0 1 0
0 1 0
0 1 0
0 1 0
0 1 0
0 1 0
0 1 0
0.325317238 1 0
0.668004955 1 0
0.857863194 0.995052784 0
0.961383349 0.990266277 0
0.996299465 0.987592395 0
1 0.985532261 0
1 0.982843834 0
1 0.979056731 0
1 0.970939092 0
1 0.935629577 0
1 0.751875794 0.424288648
1 0 0.828048736
1 0 0.958758078
1 0 1
1 0 1
1 0 1
1 0 1
1 0 1
1 0 1
0 1 0
0 1 0
0 1 0
0 1 0
0 1 0
0 1 0
0 1 0
0 1 0
0 1 0
0 1 0
0 1 0
0 1 0
0 1 0
0 1 0
0.0978667107 1 0
0.609574604 1 0
0.82698267 1 0
0.947044064 0.998392945 0
0.990829049 0.996105041 0
1 0.99472637 0
1 0.993609163 0
1 0.99216817 0
1 0.990184099 0
1 0.98612273 0
1 0.970152363 0
1 0.855219354 0.536340011
1 0 0.916455895
1 0 0.994934098
1 0 1
1 0 1
1 0 1
1 0 1
1 0 1
0 1 0
0 1 0
0 1 0
0 1 0
0 1 0
0 1 0
0 1 0
0 1 0
0 1 0
0 1 0
0 1 0
0 1 0
0 1 0
0 1 0
0 1 0
0.531041408 1 0
0.788132195 1 0
0.931628976 1 0
0.984078504 1 0
1 0.999534901 0
1 0.998747548 0
1 0.998098178 0
1 0.997252422 0
1 0.996116336 0
1 0.993886182 0
1 0.985658896 0
1 0.930383911 0.657690662
1 0 0.97533864
1 0 1
1 0 1
1 0 1
1 0 1
1 0 1
0 1 0
0 1 0
0 1 0
0 1 0
0 1 0
0 1 0
0 1 0
0 1 0
0 1 0
0 1 0
0 1 0
0 1 0
0 1 0
0 1 0
0 1 0
0.363691392 1 0
0.736352359 1 0
0.909620001 1 0
0.977159603 1 0
1 1 0
1 1 0
1 1 0
1 1 0
1 1 0
1 0.999564968 0
1 0.998235029 0
1 0.993544604 0
1 0.965297481 0.773407884
1 0 1
1 0 1
1 0 1
1 0 1
1 0 1
0 1 0
0 1 0
0 1 0
0 1 0
0 1 0
0 1 0
0 1 0
0 1 0
0 1 0
0 1 0
0 1 0
0 1 0
0 1 0
0 1 0
0 1 0
0 1 0
0.635509062 1 0
0.875611219 1 0
0.967910733 1 0
0.997479907 1 0
1 1 0
1 1 0
1 1 0
1 1 0
1 1 0
1 1 0
1 1 0
1 0.997893959 0
1 0.980435354 0.869404046
1 0.246981927 1
1 0 1
1 0 1
1 0 1
0 1 0
0 1 0
0 1 0
0 1 0
0 1 0
0 1 0
0 1 0
0 1 0
0 1 0
0 1 0
0 1 0
0 1 0
0 1 0
0 1 0
0 1 0
0 1 0
0.288307984 1 0
0.80725766 1 0
0.954103878 1 0
0.992908404 1 0
1 1 0
1 1 0
1 1 0
1 1 0
1 1 0
1 1 0
1 1 0
1 1 0
1 1 0
1 0.98786695 0.936492318
1 0.403255113 1
1 0 1
1 0 1
0 1 0
0 1 0
0 1 0
0 1 0
0 1 0
0 1 0
0 1 0
0 1 0
0 1 0
0 1 0
0 1 0
0 1 0
0 1 0
0 1 0
0 1 0
0 1 0
0 1 0
0.599551079 1 0
0.920962074 1 0
0.986472642 1 0
1 1 0
1 1 0
1 1 0
1 1 0
1 1 0
1 1 0
1 1 0
1 1 0
1 1 0
1 1 0.111925793
1 0.99208101 0.966572443
1 0.544345368 1
1 0 1
0 1 0
0 1 0
0 1 0
0 1 0
0 1 0
0 1 0
0 1 0
0 1 0
0 1 0
0 1 0
0 1 0
0 1 0
0 1 0
0 1 0
0 1 0
0 1 0
0 1 0
0 1 0
0.78374033 1 0
0.972154864 1 0
1 1 0
1 1 0
1 1 0
1 1 0
1 1 0
1 1 0
1 1 0
1 1 0
1 1 0
1 1 0
1 1 0.309173466
1 0.994678913 0.980587305
1 0.680541089 1
0 1 0
0 1 0
0 1 0
0 1 0
0 1 0
0 1 0
0 1 0
0 1 0
0 1 0
0 1 0
0 1 0
0 1 0
0 1 0
0 1 0
0 1 0
0 1 0
0 1 0
0 1 0
0 1 0
0.907445344 1 0
0.994741935 1 0
1 1 0
1 1 0
1 1 0
1 1 0
1 1 0
1 1 0
1 1 0
1 1 0
1 1 0
1 1 0
1 1 0.45330007
1 0.996312347 0.987920518
0 1 0
0 1 0
0 1 0
0 1 0
0 1 0
0 1 0
0 1 0
0 1 0
0 1 0
