Luts/Hasselblad/Hasselblad_Nature_Phocus_X2D_VLog_sRGB_65.cube
TITLE "Hasselblad Nature Phocus X2D ColorCorrect from V-Log to sRGB"
#LUMIXPHOTOSTYLE VLOG
# INPUT_COLORSPACE Panasonic V-Log / V-Gamut
# OUTPUT_COLORSPACE sRGB primaries / D65 / sRGB transfer function
LUT_3D_SIZE 9
0 0 0
0.00532127846 0 0.000194342503
0.161922188 0 0.00128291763
0.556994349 0 0
1 0 0.0195924334
1 0 0.362978765
1 0 0.813238295
1 0 1
1 0 1
0 0.01134124 0
0.00111415052 0.00459931951 0
0.15511159 0 0.00124425949
0.55214979 0 0
1 0 0.0189065219
1 0 0.362657078
1 0 0.813111652
1 0 1
1 0 1
0 0.218182447 0
0 0.206127287 0
0.133531662 0.175677878 0
0.597314341 0 0
1 0 0.0165070021
1 0 0.362227798
1 0 0.812985008
1 0 1
1 0 1
0 0.630282194 0
0 0.624472032 0
0 0.608107554 0
0.476705863 0.552641049 0
1 0.378981677 0
1 0 0.34347273
1 0 0.812589229
1 0 1
1 0 1
0 0.98751054 0
0 0.987082908 0
0 0.986212324 0
0 0.978183665 0
0.915480984 0.943609553 0
1 0.863877072 0
1 0 0.787735148
1 0 1
1 0 1
0 1 0
0 1 0
0 1 0
0 1 0
0.788132195 1 0
1 0.998747548 0
1 0.993886182 0
1 0 1
1 0 1
0 1 0
0 1 0
0 1 0
0 1 0
0 1 0
1 1 0
1 1 0
1 1 0
1 0 1
0 1 0
0 1 0
0 1 0
0 1 0
0 1 0
0.546271629 1 0
1 1 0
1 1 0
1 1 0
0 1 0
0 1 0
0 1 0
0 1 0
0 1 0
0 1 0
0.987888256 1 0
1 1 0
1 1 0
0 0 0
0.00107255931 0 0.00137223423
0.15204175 0 0.00315127751
0.551865175 0 0
1 0 0.0189291742
1 0 0.362621241
1 0 0.813111652
1 0 1
1 0 1
0 0.00359786684 0
0 0 0
0.146082778 0 0.0012957663
0.54699794 0 0
1 0 0.0179882326
1 0 0.362281566
1 0 0.813016669
1 0 1
1 0 1
0 0.202971139 0
0 0.190781435 0
0.128591722 0.160911936 0
0.59429125 0 0
1 0 0.0172262231
1 0 0.361852191
1 0 0.812874192
1 0 1
1 0 1
0 0.622915537 0
0 0.617020127 0
0 0.600745667 0
0.473680718 0.544850771 0
1 0.364671341 0
1 0 0.345689025
1 0 0.812478407
1 0 1
1 0 1
0 0.986960725 0
0 0.986517799 0
0 0.98570827 0
0 0.977627351 0
0.914596704 0.942650999 0
1 0.861033084 0
1 0 0.788465979
1 0 1
1 0 1
0 1 0
0 1 0
0 1 0
0 1 0
0.785916304 1 0
1 0.9987327 0
1 0.993823055 0
1 0 1
1 0 1
0 1 0
0 1 0
0 1 0
0 1 0
0 1 0
1 1 0
1 1 0
1 1 0
1 0 1
0 1 0
0 1 0
0 1 0
0 1 0
0 1 0
0.539770841 1 0
1 1 0
1 1 0
1 1 0
0 1 0
0 1 0
0 1 0
0 1 0
0 1 0
0 1 0
0.987753049 1 0
1 1 0
1 1 0
0 0 0
0 0 0
0.0647815532 0 0.0975760752
0.501559988 0 0.165303332
1 0 0.212120873
1 0 0.41215561
1 0 0.812969177
1 0 1
1 0 1
0 0 0
0 0 0
0.0600895785 0 0.0912794653
0.498575948 0 0.158206463
1 0 0.204601504
1 0 0.407139051
1 0 0.812858361
1 0 1
1 0 1
0 0.15330206 0.0686639578
0 0.138792833 0.0761790075
0.105505651 0.105669251 0.106492907
0.583988815 0 0.126344
1 0 0.195170053
1 0 0.400900531
1 0 0.812731712
1 0 1
1 0 1
0 0.609783451 0
0 0.603765973 0
0 0.586581302 0
0.4609018 0.52798367 0
1 0.315828783 0
1 0 0.370387725
1 0 0.812335919
1 0 1
1 0 1
0 0.986166501 0
0 0.985723545 0
0 0.984990338 0
0 0.976882167 0
0.913331447 0.941365792 0
1 0.857476793 0
1 0 0.789355884
1 0 1
1 0 1
0 1 0
0 1 0
0 1 0
0 1 0
0.783157588 1 0
1 0.998717852 0
1 0.993759928 0
1 0 1
1 0 1
0 1 0
0 1 0
0 1 0
0 1 0
0 1 0
1 1 0
1 1 0
1 1 0
1 0 1
0 1 0
0 1 0
0 1 0
0 1 0
0 1 0
0.531608616 1 0
1 1 0
1 1 0
1 1 0
0 1 0
0 1 0
0 1 0
0 1 0
0 1 0
0 1 0
0.987550222 1 0
1 1 0
1 1 0
0 0 0
0 0 0
0 0 0
0.299205517 0 0.394237431
1 0 0.550213174
1 0 0.659100595
1 0 0.876728501
1 0 1
1 0 1
0 0 0
0 0 0
0 0 0
0.295392765 0 0.389802521
1 0 0.546185763
1 0 0.655966845
1 0 0.875504044
1 0 1
1 0 1
0 0.00645791498 0.099253586
0 0.00430442236 0.0649536515
0.0112583175 0 0.160060788
0.395441542 0 0.458753827
1 0 0.541199972
1 0 0.652214326
1 0 0.874012463
1 0 1
1 0 1
0 0.513915802 0.332812896
0 0.50582833 0.338064334
0 0.49433322 0.349296001
0.414141856 0.414716682 0.416895748
1 0 0.471003179
1 0 0.63927444
1 0 0.869378911
1 0 1
1 0 1
0 0.982652925 0
0 0.982133435 0
0 0.981476399 0
0 0.973053792 0
0.901389409 0.932041071 0
1 0.816137328 0.0203165851
1 0 0.838237115
1 0 1
1 0 1
0 1 0
0 1 0
0 1 0
0 1 0
0.767059925 1 0
1 0.998613916 0
1 0.993538977 0
1 0 1
1 0 1
0 1 0
0 1 0
0 1 0
0 1 0
0 1 0
1 1 0
1 1 0
1 1 0
1 0 1
0 1 0
0 1 0
0 1 0
0 1 0
0 1 0
0.505415902 1 0
1 1 0
1 1 0
1 1 0
0 1 0
0 1 0
0 1 0
0 1 0
0 1 0
0 1 0
0.986941614 1 0
1 1 0
1 1 0
0 0 0
0 0 0
0 0 0
0 0 0
0.786267161 0 0.858091946
1 0 0.963242044
1 0 0.995020148
1 0 1
1 0 1
0 0 0
0 0 0
0 0 0
0 0 0
0.78453237 0 0.856888804
1 0 0.962729633
1 0 0.994834334
1 0 1
1 0 1
0 0 0
0 0 0
0 0 0
0 0 0
0.782378069 0 0.855376725
1 0 0.962077369
1 0 0.994617546
1 0 1
1 0 1
0 0.082131994 0.507737559
0 0.0763189959 0.488286963
0 0.0690223647 0.463281089
0.186369684 0 0.69286218
0.963469251 0 0.923000947
1 0 0.960073679
1 0 0.993951667
1 0 1
1 0 1
0 0.93607543 0.777431096
0 0.934519651 0.778897968
0 0.932574627 0.780713021
0 0.925320485 0.792407928
0.849250568 0.849817322 0.851700335
1 0.546857722 0.905967919
1 0 0.990574639
1 0 1
1 0 1
0 1 0
0 1 0
0 1 0
0 1 0
0.654818266 1 0
1 0.99683046 0.379867835
1 0.987806341 0.655967466
1 0 1
1 0 1
0 1 0
0 1 0
0 1 0
0 1 0
0 1 0
1 1 0
1 1 0
1 1 0
1 0 1
0 1 0
0 1 0
0 1 0
0 1 0
0 1 0
0.399120639 1 0
1 1 0
1 1 0
1 1 0
0 1 0
0 1 0
0 1 0
0 1 0
0 1 0
0 1 0
0.984843846 1 0
1 1 0
1 1 0
0 0 0
0 0 0
0 0 0
0 0 0
0 0 0
1 0 1
1 0 1
1 0 1
1 0 1
0 0 0
0 0 0
0 0 0
0 0 0
0 0 0
1 0 1
1 0 1
1 0 1
1 0 1
0 0 0
0 0 0
0 0 0
0 0 0
0 0 0
1 0 1
1 0 1
1 0 1
1 0 1
0 0 0
0 0 0
0 0 0
0 0 0
0 0 0
1 0 1
1 0 1
1 0 1
1 0 1
0 0.355461173 0.959148413
0 0.350875464 0.956439949
0 0.345239226 0.952914961
0 0.336697087 0.947075182
0.678893955 0.0635843077 1
1 0 1
1 0 1
1 0 1
1 0 1
0 1 0.987536276
0 1 0.98758655
0 1 0.987637958
0 1 0.987772771
0 1 0.988741869
0.987015382 0.987165087 0.987150327
1 0.947559215 0.992320155
1 0 1
1 0 1
0 1 0
0 1 0
0 1 0
0 1 0
0 1 0
0.996235678 1 0
1 0.999519998 0.88488524
1 0.997310136 0.968749665
1 0 1
0 1 0
0 1 0
0 1 0
0 1 0
0 1 0
0 1 0
1 1 0
1 1 0
1 1 0
0 1 0
0 1 0
0 1 0
0 1 0
0 1 0
0 1 0
0.976067293 1 0
1 1 0
1 1 0
0 0 0
0 0 0
0 0 0
0 0 0
0 0 0
0 0 0
1 0 1
1 0 1
1 0 1
0 0 0
0 0 0
0 0 0
0 0 0
0 0 0
0 0 0
1 0 1
1 0 1
1 0 1
0 0 0
0 0 0
0 0 0
0 0 0
0 0 0
0 0 0
1 0 1
1 0 1
1 0 1
0 0 0
0 0 0
0 0 0
0 0 0
0 0 0
0 0 0
1 0 1
1 0 1
1 0 1
0 0 0
0 0 0
0 0 0
0 0 0
0 0 0
0 0 0
1 0 1
1 0 1
1 0 1
0 0.808363505 1
0 0.806901618 1
0 0.80514083 1
0 0.799682603 1
0 0.796203948 1
1 0.523584596 1
1 0 1
1 0 1
1 0 1
0 1 1
0 1 1
0 1 1
0 1 1
0 1 1
0 1 1
0.997258933 0.997381119 0.997234835
1 0.993160586 0.997911162
1 0 1
0 1 0
0 1 0
0 1 0
0 1 0
0 1 0
0 1 0
1 1 0
0.999791324 0.999642911 0.989027673
1 0.999270549 0.994877955
0 1 0
0 1 0
0 1 0
0 1 0
0 1 0
0 1 0
0 1 0
1 1 0
1 1 0
0 0 0
0 0 0
0 0 0
0 0 0
0 0 0
0 0 0
0 0 0
1 0 1
1 0 1
0 0 0
0 0 0
0 0 0
0 0 0
0 0 0
0 0 0
0 0 0
1 0 1
1 0 1
0 0 0
0 0 0
0 0 0
0 0 0
0 0 0
0 0 0
0 0 0
1 0 1
1 0 1
0 0 0
0 0 0
0 0 0
0 0 0
0 0 0
0 0 0
0 0 0
1 0 1
1 0 1
0 0 0
0 0 0
0 0 0
0 0 0
0 0 0
0 0 0
0 0 0
1 0 1
1 0 1
0 0 0
0 0 0
0 0 0
0 0 0
0 0 0
0 0 0
0 0 0
1 0 1
1 0 1
0 1 1
0 1 1
0 1 1
0 1 1
0 1 1
0 1 1
1 0.93710888 1
1 0 1
1 0 1
0 1 1
0 1 1
0 1 1
0 1 1
0 1 1
0 1 1
0.725575582 1 1
0.999191508 0.999313917 0.999167331
1 0.998388037 0.999318591
0 1 0
0 1 0
0 1 0
0 1 0
0 1 0
0 1 0
0 1 0
1 1 0
0.999834893 0.999919999 0.997504261
0 0 0
0 0 0
0 0 0
0 0 0
0 0 0
0 0 0
0 0 0
0 0 0
1 0 1
0 0 0
0 0 0
0 0 0
0 0 0
0 0 0
0 0 0
0 0 0
0 0 0
1 0 1
0 0 0
0 0 0
0 0 0
0 0 0
0 0 0
0 0 0
0 0 0
0 0 0
1 0 1
0 0 0
0 0 0
0 0 0
0 0 0
0 0 0
0 0 0
0 0 0
0 0 0
1 0 1
0 0 0
0 0 0
0 0 0
0 0 0
0 0 0
0 0 0
0 0 0
0 0 0
1 0 1
0 0 0
0 0 0
0 0 0
0 0 0
0 0 0
0 0 0
0 0 0
0 0 0
1 0 1
0 0 0
0 0 0
0 0 0
0 0 0
0 0 0
0 0 0
0 0 0
0 0 0
1 0 1
0 1 1
0 1 1
0 1 1
0 1 1
0 1 1
0 1 1
0 1 1
1 0.992333751 1
1 0 1
0 1 1
0 1 1
0 1 1
0 1 1
0 1 1
0 1 1
0 1 1
0.978439513 1 0.99982266
0.999708609 0.999830467 0.999667489
