Luts/Hasselblad/Hasselblad_Nature_Phocus_X2D_VLog_sRGB_65.cube
TITLE "Hasselblad Nature Phocus X2D ColorCorrect from V-Log to sRGB"
#LUMIXPHOTOSTYLE VLOG
# INPUT_COLORSPACE Panasonic V-Log / V-Gamut
# OUTPUT_COLORSPACE sRGB primaries / D65 / sRGB transfer function
LUT_3D_SIZE 65
0 0 0
0 0 0
0 0 0
0 0 0
0 0 0
0 0 0
0 0 0
0 0 0
0.00532127846 0 0.000194342503
0.014297835 0 0.000423240048
0.0271100913 0 0.000629511563
0.0441715462 0 0.00080132985
0.0624726112 0 0.000969849369
0.0827918382 0 0.00111664378
0.105948773 0 0.00123785364
0.132216467 0 0.00130309738
0.161922188 0 0.00128291763
0.195203821 0 0.0011314185
0.232425263 0 0.000781056182
0.274319625 0 0.000128804147
0.321709131 0 0
0.374366499 0 0
0.431521515 0 0
0.492713579 0 0
0.556994349 0 0
0.623622802 0 0
0.693258456 0 0
0.765258349 0 0
0.837064993 0 0
0.905035774 0 0
0.967290859 0 0
1 0 0
1 0 0.0195924334
1 0 0.0592529507
1 0 0.0986534403
1 0 0.137834538
1 0 0.178097134
1 0 0.22048454
1 0 0.265615517
1 0 0.313131674
1 0 0.362978765
1 0 0.415038019
1 0 0.468791736
1 0 0.524043968
1 0 0.58166766
1 0 0.641212438
1 0 0.701220263
1 0 0.759213124
1 0 0.813238295
1 0 0.862345869
1 0 0.905938802
1 0 0.943343047
1 0 0.971000296
1 0 0.988617076
1 0 1
1 0 1
1 0 1
1 0 1
1 0 1
1 0 1
1 0 1
1 0 1
1 0 1
1 0 1
1 0 1
0 0 0
0 0 0
0 0 0
0 0 0
0 0 0
0 0 0
0 0 0
0 0 0
0.00491310635 0 0.000183808032
0.0136711973 0 0.00039552306
0.0262551535 0 0.000603795801
0.0431260033 0 0.00079589393
0.0613487335 0 0.000964412724
0.0817976357 0 0.0011111116
0.104900257 0 0.00123746177
0.131203798 0 0.00129901817
0.16092318 0 0.00128610826
0.194258954 0 0.00114227558
0.231512797 0 0.000787921671
0.273498605 0 0.000143104421
0.320858379 0 0
0.373565044 0 0
0.4307872 0 0
0.49196832 0 0
0.556389039 0 0
0.623097824 0 0
0.692775698 0 0
0.764853307 0 0
0.836735962 0 0
0.904781778 0 0
0.967074489 0 0
1 0 0
1 0 0.0196377907
1 0 0.0591241008
1 0 0.0985426454
1 0 0.137737449
1 0 0.178032206
1 0 0.220424342
1 0 0.265538036
1 0 0.313094606
1 0 0.362942935
1 0 0.414986386
1 0 0.4687576
1 0 0.524043968
1 0 0.581618122
1 0 0.641212438
1 0 0.701204152
1 0 0.759197167
1 0 0.813222465
1 0 0.862330143
1 0 0.905923161
1 0 0.943327474
1 0 0.971000296
1 0 0.988617076
1 0 1
1 0 1
1 0 1
1 0 1
1 0 1
1 0 1
1 0 1
1 0 1
1 0 1
1 0 1
1 0 1
0 0 0
0 0 0
0 0 0
0 0 0
0 0 0
0 0 0
0 0 0
0 0 0
0.00450286512 0 0.000172786733
0.0130780698 0 0.000385948027
0.0254391499 0 0.000593795283
0.042095464 0 0.000783330449
0.060361911 0 0.000954973014
0.0807114422 0 0.00110584575
0.10391538 0 0.00123567466
0.13025694 0 0.0012994767
0.160027917 0 0.00128597175
0.193313838 0 0.00114669352
0.230681238 0 0.000790957764
0.272618676 0 0.000153889826
0.320047297 0 0
0.37278325 0 0
0.430091728 0 0
0.491337732 0 0
0.555802114 0 0
0.622516973 0 0
0.692255557 0 0
0.764393032 0 0
0.836388842 0 0
0.90449146 0 0
0.966839781 0 0
1 0 0
1 0 0.019471494
1 0 0.0589951178
1 0 0.0984641688
1 0 0.137742059
1 0 0.178032206
1 0 0.220424342
1 0 0.26547992
1 0 0.313020467
1 0 0.362942935
1 0 0.414934063
1 0 0.4687576
1 0 0.523993668
1 0 0.581585097
1 0 0.641196142
1 0 0.701204152
1 0 0.759165252
1 0 0.813190804
1 0 0.862330143
1 0 0.90590752
1 0 0.943327474
1 0 0.971000296
1 0 0.988617076
1 0 1
1 0 1
1 0 1
1 0 1
1 0 1
1 0 1
1 0 1
1 0 1
1 0 1
1 0 1
1 0 1
0 0 0
0 0 0
0 0 0
0 0 0
0 0 0
0 0 0
0 0 0
0 0 0
0.00407250544 0 0.00016250002
0.0124806717 0 0.00037557575
0.0245954164 0 0.000583134562
0.0410188061 0 0.000774167187
0.059346638 0 0.000948062372
0.0797113549 0 0.00110294865
0.102951476 0 0.00122903081
0.129285465 0 0.0012991895
0.15902809 0 0.00128901106
0.192430084 0 0.00114870095
0.22974788 0 0.000805724675
0.271737207 0 0.000163435431
0.319197782 0 0
0.37198183 0 0
0.429280123 0 0
0.490668563 0 0
0.555158898 0 0
0.62199211 0 0
0.691809896 0 0
0.763969329 0 0
0.836005196 0 0
0.904201185 0 0
0.96662329 0 0
1 0 0
1 0 0.0193362886
1 0 0.0590179147
1 0 0.0984734895
1 0 0.1376698
1 0 0.177946816
1 0 0.220342163
1 0 0.265481085
1 0 0.312964859
1 0 0.362871273
1 0 0.414899181
1 0 0.468689328
1 0 0.523976901
1 0 0.581568584
1 0 0.641147255
1 0 0.701171929
1 0 0.759149295
1 0 0.813174974
1 0 0.862314417
1 0 0.90590752
1 0 0.943327474
1 0 0.971000296
1 0 0.988617076
1 0 1
1 0 1
1 0 1
1 0 1
1 0 1
1 0 1
1 0 1
1 0 1
1 0 1
1 0 1
1 0 1
0 0 0
0 0 0
0 0 0
0 0 0
0 0 0
0 0 0
0 0 0
0 0 0
0.00370242501 0 0.000152075716
0.0118983891 0 0.000365332631
0.0237842271 0 0.000572383883
0.0399864606 0 0.000768490396
0.0583083872 0 0.000941417964
0.0787151089 0 0.00109730895
0.101883553 0 0.00123009629
0.128271218 0 0.00129988852
0.158113941 0 0.00129071414
0.19148432 0 0.00115298375
0.228836425 0 0.000813680931
0.270855448 0 0.000180857006
0.31834684 0 0
0.371199832 0 0
0.428545729 0 0
0.489998774 0 0
0.55457219 0 0
0.621429869 0 0
0.691289895 0 0
0.763527383 0 0
0.835657849 0 0
0.90391085 0 0
0.966388852 0 0
1 0 0
1 0 0.0192125051
1 0 0.0588888317
1 0 0.0983625981
1 0 0.137550099
1 0 0.177857825
1 0 0.220261405
1 0 0.265404757
1 0 0.312891676
1 0 0.36283625
1 0 0.414899181
1 0 0.468638715
1 0 0.523943368
1 0 0.581568584
1 0 0.641130959
1 0 0.701139706
1 0 0.759133338
1 0 0.813174974
1 0 0.862298691
1 0 0.905891879
1 0 0.943327474
1 0 0.971000296
1 0 0.988617076
1 0 1
1 0 1
1 0 1
1 0 1
1 0 1
1 0 1
1 0 1
1 0 1
1 0 1
1 0 1
1 0 1
0 0 0
0 0 0
0 0 0
0 0 0
0 0 0
0 0 0
0 0 0
0 0 0
0.00332847375 0 0.000140324407
0.0113376691 0 0.000354488137
0.0229945885 0 0.000562772832
0.0388382328 0 0.00075720418
0.057186384 0 0.00093367993
0.0776048099 0 0.00109225818
0.100918509 0 0.00122338681
0.127320013 0 0.00129404036
0.157134156 0 0.00129296155
0.190602249 0 0.00116254826
0.228004151 0 0.000816546582
0.270073451 0 0.000224343814
0.317495654 0 0
0.370398077 0 0
0.427830626 0 0
0.489329728 0 0
0.553985641 0 0
0.620905184 0 0
0.6908254 0 0
0.763103838 0 0
0.835310639 0 0
0.903638458 0 0
0.966154354 0 0
1 0 0
1 0 0.0192465026
1 0 0.0587596146
1 0 0.0982547563
1 0 0.137480104
1 0 0.177792864
1 0 0.220201187
1 0 0.265346633
1 0 0.312891676
1 0 0.362764583
1 0 0.414829414
1 0 0.468604578
1 0 0.523893067
1 0 0.581519044
1 0 0.641098366
1 0 0.701123595
1 0 0.759133338
1 0 0.813159144
1 0 0.862298691
1 0 0.905891879
1 0 0.943327474
1 0 0.971000296
1 0 0.988617076
1 0 1
1 0 1
1 0 1
1 0 1
1 0 1
1 0 1
1 0 1
1 0 1
1 0 1
1 0 1
1 0 1
0 0 0
0 0 0
0 0 0
0 0 0
0 0 0
0 0 0
0 0 0
0 0 0
0.00297117181 0 0.00011508331
0.0107188155 0 0.000343495871
0.0221469088 0 0.000552838032
0.0378179733 0 0.000750456401
0.0561684531 0 0.000926729102
0.0766244863 0 0.00108510748
0.0999314227 0 0.00121708777
0.126286679 0 0.00129632819
0.156216557 0 0.00129323141
0.189655928 0 0.00116043209
0.227110621 0 0.000829175736
0.269191347 0 0.000233585138
0.316624481 0 0
0.369596184 0 0
0.427095797 0 0
0.488679678 0 0
0.553380162 0 0
0.620379745 0 0
0.690342192 0 0
0.762698698 0 0
0.834926901 0 0
0.903366216 0 0
0.965937906 0 0
1 0 0
1 0 0.0191227987
1 0 0.0586348414
1 0 0.0981468571
1 0 0.137482413
1 0 0.177705636
1 0 0.220139533
1 0 0.265288506
1 0 0.312854601
1 0 0.362728749
1 0 0.41479453
1 0 0.46857044
1 0 0.523893067
1 0 0.581486018
1 0 0.641098366
1 0 0.701091372
1 0 0.759101423
1 0 0.813143313
1 0 0.862298691
1 0 0.905891879
1 0 0.943311902
1 0 0.970984772
1 0 0.988617076
1 0 1
1 0 1
1 0 1
1 0 1
1 0 1
1 0 1
1 0 1
1 0 1
1 0 1
1 0 1
1 0 1
0 0.00199494386 0
0 0.00150584141 0
0 0.00107126285 0
0 0.000669668586 0
0 0.000293846904 0
0 0 0
0 0 0
0 0 0
0.0026307352 0 0.000105208085
0.0101833903 0 0.000332024016
0.021381061 0 0.000542328003
0.0367982344 0 0.000742290941
0.0551497629 0 0.000916529589
0.0755998209 0 0.00107862313
0.0988576645 0 0.00121671421
0.125334423 0 0.00129526632
0.155194196 0 0.00129659505
0.188770881 0 0.00116843694
0.226176259 0 0.000836537272
0.268288886 0 0.00025176849
0.315832433 0 0
0.368793904 0 0
0.426361098 0 0
0.487952822 0 0
0.552736501 0 0
0.619817432 0 0
0.689859261 0 0
0.76225649 0 0
0.834579766 0 0
0.90307591 0 0
0.965703174 0 0
1 0 0
1 0 0.018993516
1 0 0.058505361
1 0 0.0980389005
1 0 0.137387523
1 0 0.17770743
1 0 0.220140965
1 0 0.265210997
1 0 0.312781412
1 0 0.362728749
1 0 0.414742202
1 0 0.46857044
1 0 0.523859532
1 0 0.581469505
1 0 0.64108207
1 0 0.701091372
1 0 0.759085465
1 0 0.813127483
1 0 0.862282965
1 0 0.905876238
1 0 0.943311902
1 0 0.970984772
1 0 0.98860158
1 0 1
1 0 1
1 0 1
1 0 1
1 0 1
1 0 1
1 0 1
1 0 1
1 0 1
1 0 1
1 0 1
0 0.01134124 0
0 0.0103886729 0
0 0.00952543274 0
0 0.00865273256 0
0 0.0078571599 0
0 0.00705842682 0
0 0.00632727178 0
0 0.00562622357 0
0.00111415052 0.00459931951 0
0.0104366306 0.00355574208 0
0.0238045138 0.00249043659 0
0.0441591189 0.000819819098 0
0.0659343957 0 7.43113312e-05
0.0877869718 0 0.000349791831
0.111062874 0 0.000673979662
0.131707651 0 0.000952987624
0.15511159 0 0.00124425949
0.187823817 0 0.00117242933
0.225343181 0 0.000846225036
0.26742633 0 0.00026763774
0.315000532 0 0
0.368011305 0 0
0.425606952 0 0
0.487302677 0 0
0.55214979 0 0
0.619292633 0 0
0.689376102 0 0
0.761832886 0 0
0.834232368 0 0
0.902785544 0 0
0.965486717 0 0
1 0 0
1 0 0.0189065219
1 0 0.0585237
1 0 0.0980451369
1 0 0.137315181
1 0 0.177620186
1 0 0.22005875
1 0 0.265212163
1 0 0.312725794
1 0 0.362657078
1 0 0.414742202
1 0 0.468519233
1 0 0.52380923
1 0 0.581419964
1 0 0.641033181
1 0 0.70107526
1 0 0.759069508
1 0 0.813111652
1 0 0.862267239
1 0 0.905860597
1 0 0.943296329
1 0 0.970984772
1 0 0.98860158
1 0 1
1 0 1
1 0 1
1 0 1
1 0 1
1 0 1
1 0 1
1 0 1
1 0 1
1 0 1
1 0 1
0 0.0272537993 0
0 0.0257504997 0
0 0.0243668434 0
0 0.0229535569 0
0 0.0215991594 0
0 0.020330241 0
0 0.0190518446 0
0 0.0178679885 0
0 0.0161577847 0
0.00664585973 0.0139803829 0
0.0210691196 0.0123562468 0
0.0404380025 0.0106061561 0
0.0616573891 0.0087466598 0
0.0843707743 0.00631706853 0
0.112726807 0.00214307598 0
0.143815125 0 0
0.178050763 0 0
0.213139659 0 0
0.251847608 0 0
0.285612182 0 0
0.322757236 0 0
0.367209059 0 0
0.424872102 0 0
0.486633217 0 0
0.551581361 0 0
0.618767745 0 0
0.68887458 0 0
0.761390833 0 0
0.833866873 0 0
0.902495222 0 0
0.965252199 0 0
1 0 0
1 0 0.0187408738
1 0 0.0583941113
1 0 0.0979371285
1 0 0.13722024
1 0 0.177555192
1 0 0.219977957
1 0 0.265154027
1 0 0.312725794
1 0 0.362621241
1 0 0.414689874
1 0 0.468485094
1 0 0.523775695
1 0 0.581419964
1 0 0.641000588
1 0 0.701059148
1 0 0.75905355
1 0 0.813111652
1 0 0.862251513
1 0 0.905860597
1 0 0.943296329
1 0 0.970969247
1 0 0.98860158
1 0 1
1 0 1
1 0 1
1 0 1
1 0 1
1 0 1
1 0 1
1 0 1
1 0 1
1 0 1
1 0 1
0 0.0499154704 0
0 0.0480864044 0
0 0.0462552411 0
0 0.0445148065 0
0 0.0426966319 0
0 0.0408563613 0
0 0.0389838228 0
0 0.0372630229 0
0 0.034470072 0
0 0.0317962951 0
0.0150766617 0.0284697688 0
0.035515362 0.0260370164 0
0.0586600629 0.0235658801 0
0.0829636263 0.0205262554 0
0.109602256 0.0167447725 0
0.138528889 0.0118540327 0
0.174116899 0.00382648665 0
0.213203059 0 0
0.257144499 0 0
0.302471411 0 0
0.35163633 0 0
0.400928114 0 0
0.444856389 0 0
0.492523853 0 0
0.550918798 0 0
0.618205104 0 0
0.688391242 0 0
0.760966989 0 0
0.833501364 0 0
0.902240956 0 0
0.965053847 0 0
1 0 0
1 0 0.0187805075
1 0 0.0582643862
1 0 0.0978259383
1 0 0.137122956
1 0 0.177490188
1 0 0.219897155
1 0 0.265076507
1 0 0.312651633
1 0 0.362549566
1 0 0.414637544
1 0 0.468433885
1 0 0.523742159
1 0 0.581386937
1 0 0.640984292
1 0 0.701010813
1 0 0.75905355
1 0 0.813095822
1 0 0.862235787
1 0 0.905860597
1 0 0.943296329
1 0 0.970969247
1 0 0.98860158
1 0 1
1 0 1
1 0 1
1 0 1
1 0 1
1 0 1
1 0 1
1 0 1
1 0 1
1 0 1
1 0 1
0 0.0733121221 0
0 0.0715359937 0
0 0.0697754745 0
0 0.0679948496 0
0 0.066211113 0
0 0.064425643 0
0 0.0626370404 0
0 0.0608459312 0
0 0.058021612 0
0 0.0552166776 0
0.00365590643 0.0515710175 0
0.0268497361 0.0479960659 0
0.0528133636 0.045015381 0
0.0791337931 0.0414505036 0
0.107365231 0.0367045104 0
0.137710556 0.0310665962 0
0.170950549 0.0239022657 0
0.207921359 0.0139191219 0
0.253158347 0 0
0.302053886 0 0
0.356857395 0 0
0.41146981 0 0
0.468970114 0 0
0.523145144 0 0
0.571910397 0 0
0.623662629 0 0
0.687870821 0 0
0.760561753 0 0
0.833153927 0 0
0.901932404 0 0
0.964819264 0 0
1 0 0
1 0 0.018651479
1 0 0.0581391289
1 0 0.0977471931
1 0 0.137127585
1 0 0.177378832
1 0 0.219835471
1 0 0.265018362
1 0 0.31259601
1 0 0.362495807
1 0 0.414602657
1 0 0.468433885
1 0 0.523742159
1 0 0.581337848
1 0 0.640984292
1 0 0.700994701
1 0 0.759021635
1 0 0.813079991
1 0 0.862235787
1 0 0.905844956
1 0 0.943280756
1 0 0.970969247
1 0 0.98860158
1 0 1
1 0 1
1 0 1
1 0 1
1 0 1
1 0 1
1 0 1
1 0 1
1 0 1
1 0 1
1 0 1
0 0.0964153349 0
0 0.0947025373 0
0 0.0929691497 0
0 0.0912338961 0
0 0.0895150456 0
0 0.0877765707 0
0 0.0860355874 0
0 0.0842926281 0
0 0.0815994185 0
0 0.078707163 0
0 0.0757010745 0
0.0122072109 0.0718608848 0
0.042485017 0.0682554361 0
0.0729610125 0.064969754 0
0.102986638 0.0609732465 0
0.135272918 0.055380805 0
0.169507971 0.0485332302 0
0.206992258 0.038830861 0
0.247620895 0.0254513976 0
0.297905418 0.00406779665 0
0.35329214 0 0
0.41386894 0 0
0.474468826 0 0
0.535347644 0 0
0.598401179 0 0
0.648778252 0 0
0.702195361 0 0
0.760101257 0 0
0.832788391 0 0
0.901641954 0 0
0.964602567 0 0
1 0 0
1 0 0.0185225376
1 0 0.0580091365
1 0 0.0976390248
1 0 0.137032589
1 0 0.177382427
1 0 0.219835471
1 0 0.264941997
1 0 0.312541349
1 0 0.362496617
1 0 0.414568458
1 0 0.468399745
1 0 0.523691855
1 0 0.581321334
1 0 0.640935402
1 0 0.700994701
1 0 0.759005999
1 0 0.813064161
1 0 0.862235787
1 0 0.905829315
1 0 0.943265183
1 0 0.970969247
1 0 0.98860158
1 0 1
1 0 1
1 0 1
1 0 1
1 0 1
1 0 1
1 0 1
1 0 1
1 0 1
1 0 1
1 0 1
0 0.121931479 0
0 0.120260982 0
0 0.118534613 0
0 0.11686069 0
0 0.115185271 0
0 0.113526379 0
0 0.111829876 0
0 0.110149863 0
0 0.107789669 0
0 0.104428008 0
0 0.101761229 0
0 0.0984177421 0
0.0219578679 0.094646298 0
0.0612911045 0.0907063515 0
0.0958717348 0.0868569255 0
0.130006178 0.0823046798 0
0.166411067 0.0760005478 0
0.204940198 0.0682060613 0
0.247250558 0.0573183799 0
0.292975165 0.0412777517 0
0.348028118 0.0126566612 0
0.409636041 0 0
0.474119536 0 0
0.540203854 0 0
0.603636991 0 0
0.669105864 0 0
0.727214585 0 0
0.781505252 0 0
0.83690589 0 0
0.901297109 0 0
0.964350028 0 0
1 0 0
1 0 0.0184050009
1 0 0.0580367983
1 0 0.0976484112
1 0 0.136960163
1 0 0.177315601
1 0 0.219775216
1 0 0.264883844
1 0 0.31248572
1 0 0.362442857
1 0 0.414498681
1 0 0.468365605
1 0 0.523658319
1 0 0.581288306
1 0 0.640919105
1 0 0.700978589
1 0 0.758974084
1 0 0.81304833
1 0 0.862220061
1 0 0.905829315
1 0 0.943265183
1 0 0.970969247
1 0 0.98860158
1 0 1
