Luts/Hasselblad/Hasselblad_Nature_Phocus_X2D_VLog_Rec709_65.cube
TITLE "Hasselblad Nature Phocus X2D ColorCorrect from V-Log to Rec.709"
#LUMIXPHOTOSTYLE VLOG
# INPUT_COLORSPACE Panasonic V-Log / V-Gamut
# OUTPUT_COLORSPACE Rec.709 primaries / D65 / BT.709 OETF
LUT_3D_SIZE 9
0 0 0
0.00185338646 0 6.76889521e-05
0.099867069 0 0.000446836636
0.511208592 0 0
1 0 0.00682398996
1 0 0.305138304
1 0 0.791405055
1 0 1
1 0 1
0 0.00395012229 0
0.000388055522 0.00160193017 0
0.0931223395 0 0.000433372113
0.505990854 0 0
1 0 0.00658508891
1 0 0.304802151
1 0 0.791264744
1 0 1
1 0 1
0 0.156191659 0
0 0.144037151 0
0.072165383 0.113540964 0
0.554760475 0 0
1 0 0.00574934285
1 0 0.304353597
1 0 0.791124431
1 0 1
1 0 1
0 0.590531972 0
0 0.584217512 0
0 0.566455988 0
0.425181424 0.506519804 0
1 0.321886744 0
1 0 0.284793006
1 0 0.790685949
1 0 1
1 0 1
0 0.985951709 0
0 0.985470942 0
0 0.98449223 0
0 0.975469501 0
0.905199401 0.936679167 0
1 0.847638516 0
1 0 0.76318254
1 0 1
1 0 1
0 1 0
0 1 0
0 1 0
0 1 0
0.763621405 1 0
1 0.998590624 0
1 0.993121434 0
1 0 1
1 0 1
0 1 0
0 1 0
0 1 0
0 1 0
0 1 0
1 1 0
1 1 0
1 1 0
1 0 1
0 1 0
0 1 0
0 1 0
0 1 0
0 1 0
0.499664369 1 0
1 1 0
1 1 0
1 1 0
0 1 0
0 1 0
0 1 0
0 1 0
0 1 0
0 1 0
0.986376372 1 0
1 1 0
1 1 0
0 0 0
0.000373569419 0 0.00047794536
0.0900878697 0 0.00109758118
0.505684419 0 0
1 0 0.00659297864
1 0 0.304764703
1 0 0.791264744
1 0 1
1 0 1
0 0.001253127 0
0 0 0
0.0842078704 0 0.000451311791
0.500445808 0 0
1 0 0.0062652513
1 0 0.304409777
1 0 0.791159509
1 0 1
1 0 1
0 0.140862318 0
0 0.128629934 0
0.0677101911 0.0988655037 0
0.551487421 0 0
1 0 0.0059998455
1 0 0.303961157
1 0 0.791001657
1 0 1
1 0 1
0 0.582526652 0
0 0.57612514 0
0 0.55847699 0
0.421959413 0.498135883 0
1 0.306907341 0
1 0 0.287100721
1 0 0.790563172
1 0 1
1 0 1
0 0.985333579 0
0 0.984835639 0
0 0.983925603 0
0 0.974844514 0
0.904210942 0.935605233 0
1 0.844473611 0
1 0 0.763990357
1 0 1
1 0 1
0 1 0
0 1 0
0 1 0
0 1 0
0.76117234 1 0
1 0.998573917 0
1 0.993050427 0
1 0 1
1 0 1
0 1 0
0 1 0
0 1 0
0 1 0
0 1 0
1 1 0
1 1 0
1 1 0
1 0 1
0 1 0
0 1 0
0 1 0
0 1 0
0 1 0
0.49267353 1 0
1 1 0
1 1 0
1 1 0
0 1 0
0 1 0
0 1 0
0 1 0
0 1 0
0 1 0
0.986224359 1 0
1 1 0
1 1 0
0 0 0
0 0 0
0.0242964301 0 0.0434284235
0.451707814 0 0.103221844
1 0 0.150074646
1 0 0.356761944
1 0 0.791106892
1 0 1
1 0 1
0 0 0
0 0 0
0.0220746085 0 0.0392506348
0.448517905 0 0.0961851455
1 0 0.14250195
1 0 0.351475037
1 0 0.790984118
1 0 1
1 0 1
0 0.0913332262 0.0262295084
0 0.0770933856 0.0302190654
0.0490437188 0.0491637787 0.0497708317
0.540342319 0 0.065737664
1 0 0.13302845
1 0 0.344906722
1 0 0.790843803
1 0 1
1 0 1
0 0.568273361 0
0 0.561749611 0
0 0.543145509 0
0.408365253 0.480013431 0
1 0.256096794 0
1 0 0.312886166
1 0 0.790405316
1 0 1
1 0 1
0 0.984440719 0
0 0.983942774 0
0 0.983118584 0
0 0.974007385 0
0.902796746 0.934165456 0
1 0.840517134 0
1 0 0.764974082
1 0 1
1 0 1
0 1 0
0 1 0
0 1 0
0 1 0
0.75812405 1 0
1 0.998557209 0
1 0.992979421 0
1 0 1
1 0 1
0 1 0
0 1 0
0 1 0
0 1 0
0 1 0
1 1 0
1 1 0
1 1 0
1 0 1
0 1 0
0 1 0
0 1 0
0 1 0
0 1 0
0.48390467 1 0
1 1 0
1 1 0
1 1 0
0 1 0
0 1 0
0 1 0
0 1 0
0 1 0
0 1 0
0.985996323 1 0
1 1 0
1 1 0
0 0 0
0 0 0
0 0 0
0.238922223 0 0.337899322
1 0 0.503905989
1 0 0.621914376
1 0 0.861949845
1 0 1
1 0 1
0 0 0
0 0 0
0 0 0
0.234991998 0 0.333239848
1 0 0.499571991
1 0 0.618496827
1 0 0.860585607
1 0 1
1 0 1
0 0.00224927379 0.044583202
0 0.00149921832 0.0243802944
0.00392124061 0 0.098021966
0.339165041 0 0.406082874
1 0 0.494209872
1 0 0.614406056
1 0 0.858923946
1 0 1
1 0 1
0 0.46493055 0.273707907
0 0.456273008 0.279165842
0 0.44398484 0.29085866
0.358856489 0.35946279 0.36176171
1 0 0.41910886
1 0 0.600313142
1 0 0.853763407
1 0 1
1 0 1
0 0.980491435 0
0 0.979907615 0
0 0.97916925 0
0 0.969707405 0
0.88945627 0.923723728 0
1 0.794617446 0.00707620999
1 0 0.81913393
1 0 1
1 0 1
0 1 0
0 1 0
0 1 0
0 1 0
0.740352749 1 0
1 0.998440257 0
1 0.992730895 0
1 0 1
1 0 1
0 1 0
0 1 0
0 1 0
0 1 0
0 1 0
1 1 0
1 1 0
1 1 0
1 0 1
0 1 0
0 1 0
0 1 0
0 1 0
0 1 0
0.455831775 1 0
1 1 0
1 1 0
1 1 0
0 1 0
0 1 0
0 1 0
0 1 0
0 1 0
0 1 0
0.985312094 1 0
1 1 0
1 1 0
0 0 0
0 0 0
0 0 0
0 0 0
0.761560083 0 0.841201422
1 0 0.958692839
1 0 0.994397001
1 0 1
1 0 1
0 0 0
0 0 0
0 0 0
0 0 0
0.759643038 0 0.839863097
1 0 0.958117844
1 0 0.994187976
1 0 1
1 0 1
0 0 0
0 0 0
0 0 0
0 0 0
0.757262852 0 0.838181326
1 0 0.957385949
1 0 0.993944113
1 0 1
1 0 1
0 0.0336155104 0.45831592
0 0.0302965195 0.437529671
0 0.0264123248 0.410894309
0.124214562 0 0.658808616
0.958947803 0 0.91360822
1 0 0.955137875
1 0 0.993195094
1 0 1
1 0 1
0 0.928240399 0.751799031
0 0.92649845 0.753418888
0 0.924320987 0.755423554
0 0.916202973 0.768348521
0.831369952 0.831999943 0.834093286
1 0.500294941 0.894569368
1 0 0.989397004
1 0 1
1 0 1
0 1 0
0 1 0
0 1 0
0 1 0
0.617244531 1 0
1 0.996433598 0.322815648
1 0.986284275 0.618497504
1 0 1
1 0 1
0 1 0
0 1 0
0 1 0
0 1 0
0 1 0
1 1 0
1 1 0
1 1 0
1 0 1
0 1 0
0 1 0
0 1 0
0 1 0
0 1 0
0.343034051 1 0
1 1 0
1 1 0
1 1 0
0 1 0
0 1 0
0 1 0
0 1 0
0 1 0
0 1 0
0.982953919 1 0
1 1 0
1 1 0
0 0 0
0 0 0
0 0 0
0 0 0
0 0 0
1 0 1
1 0 1
1 0 1
1 0 1
0 0 0
0 0 0
0 0 0
0 0 0
0 0 0
1 0 1
1 0 1
1 0 1
1 0 1
0 0 0
0 0 0
0 0 0
0 0 0
0 0 0
1 0 1
1 0 1
1 0 1
1 0 1
0 0 0
0 0 0
0 0 0
0 0 0
0 0 0
1 0 1
1 0 1
1 0 1
1 0 1
0 0.297288066 0.954099875
0 0.292505075 0.951061854
0 0.286632285 0.947108932
0 0.277744267 0.940562637
0.643527799 0.0237176658 1
1 0 1
1 0 1
1 0 1
1 0 1
0 1 0.985980644
0 1 0.986037166
0 1 0.986094963
0 1 0.986246532
0 1 0.987336128
0.985395027 0.985563331 0.985546737
1 0.941105114 0.991360035
1 0 1
1 0 1
0 1 0
0 1 0
0 1 0
0 1 0
0 1 0
0.995764439 1 0
1 0.999459841 0.871041384
1 0.996973279 0.964874597
1 0 1
0 1 0
0 1 0
0 1 0
0 1 0
0 1 0
0 1 0
1 1 0
1 1 0
1 1 0
0 1 0
0 1 0
0 1 0
0 1 0
0 1 0
0 1 0
0.973092022 1 0
1 1 0
1 1 0
0 0 0
0 0 0
0 0 0
0 0 0
0 0 0
0 0 0
1 0 1
1 0 1
1 0 1
0 0 0
0 0 0
0 0 0
0 0 0
0 0 0
0 0 0
1 0 1
1 0 1
1 0 1
0 0 0
0 0 0
0 0 0
0 0 0
0 0 0
0 0 0
1 0 1
1 0 1
1 0 1
0 0 0
0 0 0
0 0 0
0 0 0
0 0 0
0 0 0
1 0 1
1 0 1
1 0 1
0 0 0
0 0 0
0 0 0
0 0 0
0 0 0
0 0 0
1 0 1
1 0 1
1 0 1
0 0.786005284 1
0 0.784386436 1
0 0.782436887 1
0 0.776395554 1
0 0.772546881 1
1 0.475293796 1
1 0 1
1 0 1
1 0 1
0 1 1
0 1 1
0 1 1
0 1 1
0 1 1
0 1 1
0.996915671 0.997053145 0.996888557
1 0.992305289 0.99764952
1 0 1
0 1 0
0 1 0
0 1 0
0 1 0
0 1 0
0 1 0
1 1 0
0.999765169 0.999598157 0.987657483
1 0.999179138 0.994237045
0 1 0
0 1 0
0 1 0
0 1 0
0 1 0
0 1 0
0 1 0
1 1 0
1 1 0
0 0 0
0 0 0
0 0 0
0 0 0
0 0 0
0 0 0
0 0 0
1 0 1
1 0 1
0 0 0
0 0 0
0 0 0
0 0 0
0 0 0
0 0 0
0 0 0
1 0 1
1 0 1
0 0 0
0 0 0
0 0 0
0 0 0
0 0 0
0 0 0
0 0 0
1 0 1
1 0 1
0 0 0
0 0 0
0 0 0
0 0 0
0 0 0
0 0 0
0 0 0
1 0 1
1 0 1
0 0 0
0 0 0
0 0 0
0 0 0
0 0 0
0 0 0
0 0 0
1 0 1
1 0 1
0 0 0
0 0 0
0 0 0
0 0 0
0 0 0
0 0 0
0 0 0
1 0 1
1 0 1
0 1 1
0 1 1
0 1 1
0 1 1
0 1 1
0 1 1
1 0.929397635 1
1 0 1
1 0 1
0 1 1
0 1 1
0 1 1
0 1 1
0 1 1
0 1 1
0.694684843 1 1
0.999090194 0.999227939 0.999062989
1 0.998186094 0.999233199
0 1 0
0 1 0
0 1 0
0 1 0
0 1 0
0 1 0
0 1 0
1 1 0
0.999814199 0.999909972 0.997191695
0 0 0
0 0 0
0 0 0
0 0 0
0 0 0
0 0 0
0 0 0
0 0 0
1 0 1
0 0 0
0 0 0
0 0 0
0 0 0
0 0 0
0 0 0
0 0 0
0 0 0
1 0 1
0 0 0
0 0 0
0 0 0
0 0 0
0 0 0
0 0 0
0 0 0
0 0 0
1 0 1
0 0 0
0 0 0
0 0 0
0 0 0
0 0 0
0 0 0
0 0 0
0 0 0
1 0 1
0 0 0
0 0 0
0 0 0
0 0 0
0 0 0
0 0 0
0 0 0
0 0 0
1 0 1
0 0 0
0 0 0
0 0 0
0 0 0
0 0 0
0 0 0
0 0 0
0 0 0
1 0 1
0 0 0
0 0 0
0 0 0
0 0 0
0 0 0
0 0 0
0 0 0
0 0 0
1 0 1
0 1 1
0 1 1
0 1 1
0 1 1
0 1 1
0 1 1
0 1 1
1 0.991375326 1
1 0 1
0 1 1
0 1 1
0 1 1
0 1 1
0 1 1
0 1 1
0 1 1
0.975756941 1 0.999800433
0.999672088 0.999809218 0.999625815
