Luts/Hasselblad/Hasselblad_Nature_Phocus_X2D_VLog.cube
TITLE "Hasselblad Nature Phocus X2D ColorCorrect from V-Log"
#LUMIXPHOTOSTYLE VLOG
# INPUT_COLORSPACE Panasonic V-Log / V-Gamut
# OUTPUT_COLORSPACE Hasselblad RGB / D50 / Phocus film-curve code values
LUT_3D_SIZE 9
0 0 0
0.0237735561 0.00407415885 0.00694285496
0.145998322 0.0120088502 0.0249179828
0.452475776 0.0113984894 0.05366598
0.881925689 0 0.133623255
0.989028763 0 0.370901045
0.997619593 0 0.785412375
0.999343862 0 0.981383993
0.999801633 0 0.996475166
0.00712596323 0.0394293126 0.00242618448
0.0190432593 0.026489662 0.00674448768
0.141008621 0.0118867781 0.0242313268
0.448569467 0.0115205615 0.0532845045
0.881040665 0 0.133257038
0.989013504 0 0.370626383
0.997619593 0 0.785290303
0.999343862 0 0.981368734
0.999801633 0 0.996475166
0.0096894789 0.221332113 0
0.0102388037 0.210696574 0
0.16255436 0.187685969 0.0156404974
0.489005875 0.132005798 0
0.880598154 0 0.132326238
0.988998245 0 0.370260166
0.997619593 0 0.785168231
0.999343862 0 0.981368734
0.999801633 0 0.996475166
0 0.603830014 0
0 0.598245212 0
0.128557259 0.583093004 0
0.488868544 0.541145953 0
0.904081788 0.430487526 0
0.989440757 0 0.354406043
0.997619593 0 0.784786755
0.999343862 0 0.981368734
0.999801633 0 0.996475166
0 0.954467079 0
0 0.954039826 0
0 0.953170062 0
0.41326009 0.949187457 0
0.904844739 0.934035248 0
0.990371557 0.863157092 0
0.997711147 0 0.760875868
0.999343862 0 0.981322957
0.999801633 0 0.996475166
0 0.993728542 0
0 0.993713283 0
0 0.993698024 0
0.0755474174 0.993621729 0
0.845258259 0.993316548 0
0.990463111 0.992217899 0
0.997848478 0.987945373 0
0.99937438 0 0.978744182
0.999801633 0 0.996475166
0 0.998474098 0
0 0.998474098 0
0 0.998474098 0
0 0.998474098 0
0.295551995 0.998458839 0
0.986663615 0.998397803 0
0.997863737 0.998184176 0
0.999404898 0.997451743 0
0.999816892 0 0.996124208
0 0.999572747 0
0 0.999572747 0
0 0.999572747 0
0 0.999572747 0
0 0.999572747 0
0.720134279 0.999557488 0
0.997253376 0.999557488 0
0.999404898 0.999496452 0
0.999832151 0.999313344 0
0 0.999877928 0
0 0.999877928 0
0 0.999877928 0
0 0.999877928 0
0 0.999877928 0
0 0.999877928 0
0.975310903 0.999862669 0
0.999252308 0.999862669 0
0.999832151 0.999862669 0
0 0 0
0.0117647059 0 0.0150453956
0.138765545 0.0103761349 0.0287479973
0.448340581 0.0116426337 0.0532845045
0.880979629 0 0.133257038
0.989013504 0 0.370595865
0.997619593 0 0.785290303
0.999343862 0 0.981368734
0.999801633 0 0.996475166
0.00407415885 0.0233920806 0
0 0 0
0.134416724 0.0116426337 0.0236209659
0.444419013 0.0117647059 0.0528877699
0.880109865 0 0.132799268
0.988998245 0 0.370305943
0.997619593 0 0.785198749
0.999343862 0 0.981368734
0.999801633 0 0.996475166
0.0103761349 0.207919432 0
0.0107728695 0.197222858 0
0.155107958 0.174807355 0.0159456779
0.485633631 0.116807813 0.00694285496
0.878995956 0 0.132372015
0.988982986 0 0.369939727
0.997619593 0 0.785061418
0.999343862 0 0.981368734
0.999801633 0 0.996475166
0 0.596749828 0
0 0.591088731 0
0.121614405 0.5759823 0
0.484367132 0.53369955 0
0.903562982 0.419607843 0
0.989349203 0 0.356267643
0.997619593 0 0.784679942
0.999343862 0 0.981353475
0.999801633 0 0.996475166
0 0.953917754 0
0 0.953475242 0
0 0.952666514 0
0.408392462 0.948531319 0
0.903929198 0.933058671 0
0.990371557 0.860471504 0
0.997711147 0 0.761577783
0.999343862 0 0.981322957
0.999801633 0 0.996475166
0 0.993713283 0
0 0.993698024 0
0 0.993698024 0
0.0667429618 0.99360647 0
0.843930724 0.993301289 0
0.990447852 0.99220264 0
0.997848478 0.987884337 0
0.99937438 0 0.978774701
0.999801633 0 0.996475166
0 0.998474098 0
0 0.998474098 0
0 0.998474098 0
0 0.998474098 0
0.288349737 0.998458839 0
0.986633097 0.998397803 0
0.997863737 0.998184176 0
0.999404898 0.997451743 0
0.999816892 0 0.996124208
0 0.999572747 0
0 0.999572747 0
0 0.999572747 0
0 0.999572747 0
0 0.999572747 0
0.717219806 0.999557488 0
0.997253376 0.999557488 0
0.999404898 0.999496452 0
0.999832151 0.999313344 0
0 0.999877928 0
0 0.999877928 0
0 0.999877928 0
0 0.999877928 0
0 0.999877928 0
0 0.999877928 0
0.975219348 0.999862669 0
0.999252308 0.999862669 0
0.999832151 0.999862669 0
0 0 0
0 0 0
0.0793926909 0 0.116807813
0.408972305 0 0.180987259
0.873380636 0 0.242267491
0.988937209 0 0.413351644
0.997619593 0 0.785152972
0.999343862 0 0.981368734
0.999801633 0 0.996475166
0 0 0
0 0 0
0.075989929 0 0.111558709
0.406515602 0 0.175082017
0.872831312 0 0.236560616
0.988937209 0 0.408972305
0.997619593 0 0.785046159
0.999343862 0 0.981368734
0.999801633 0 0.996475166
0 0.164980545 0.10249485
0 0.15257496 0.106599527
0.128191043 0.128252079 0.128923476
0.47550164 0.0569161517 0.153536278
0.872144656 0 0.229495689
0.98892195 0 0.403540093
0.997619593 0 0.784924086
0.999343862 0 0.981368734
0.999801633 0 0.996475166
0 0.584145876 0
0 0.578377966 0
0.0998397803 0.562264439 0
0.47083238 0.517418173 0.0319218738
0.903303578 0.384206912 0.0777752346
0.989211872 0 0.377233539
0.997619593 0 0.784542611
0.999343862 0 0.981353475
0.999801633 0 0.996475166
0 0.953124285 0
0 0.952681773 0
0 0.95194934 0
0.4 0.947615778 0
0.90264744 0.931746395 0
0.990356298 0.857114519 0
0.997695888 0 0.762432288
0.999343862 0 0.981322957
0.999801633 0 0.996475166
0 0.993698024 0
0 0.993682765 0
0 0.993667506 0
0.0559395743 0.993591211 0
0.84228275 0.99328603 0
0.990432593 0.992187381 0
0.997848478 0.987823301 0
0.99937438 0 0.978805219
0.999801633 0 0.996475166
0 0.998474098 0
0 0.998474098 0
0 0.998474098 0
0 0.998474098 0
0.27940795 0.998458839 0
0.986602579 0.998397803 0
0.997863737 0.998184176 0
0.999404898 0.997436484 0
0.999816892 0 0.996124208
0 0.999572747 0
0 0.999572747 0
0 0.999572747 0
0 0.999572747 0
0 0.999572747 0
0.713603418 0.999557488 0
0.997238117 0.999557488 0
0.999404898 0.999496452 0
0.999832151 0.999313344 0
0 0.999877928 0
0 0.999877928 0
0 0.999877928 0
0 0.999877928 0
0 0.999877928 0
0 0.999877928 0
0.975082017 0.999862669 0
0.999252308 0.999862669 0
0.999832151 0.999862669 0
0 0 0
0 0 0
0 0 0
0.259098192 0 0.37956817
0.840482185 0 0.533302815
0.988403143 0 0.638391699
0.997604334 0 0.846875715
0.999343862 0 0.981368734
0.999801633 0 0.996475166
0 0 0
0 0 0
0 0 0
0.256076905 0 0.375478752
0.839902342 0 0.529564355
0.988403143 0 0.635446708
0.997604334 0 0.845685512
0.999343862 0 0.981353475
0.999801633 0 0.996475166
0.0106507973 0.0339208057 0.118135348
0.00926222629 0.0277409018 0.0898146029
0.0502937362 0.0263370718 0.169588769
0.333943694 0 0.439749752
0.839185168 0 0.524940871
0.988372625 0 0.631921874
0.997604334 0 0.844235904
0.999343862 0 0.981353475
0.999801633 0 0.996475166
0 0.494209201 0.347524224
0 0.486625467 0.351094835
0 0.475898375 0.35944152
0.41326009 0.413519493 0.415487907
0.899595636 0.214923323 0.465232319
0.988418402 0 0.619790951
0.997604334 0 0.839734493
0.999343862 0 0.981338216
0.999801633 0 0.996475166
0 0.94961471 0
0 0.949095903 0
0 0.948439765 0
0.341374838 0.942702373 0
0.891828794 0.922255283 0.156054017
0.990356298 0.818753338 0.278721294
0.997680629 0 0.809552148
0.999343862 0 0.981307698
0.999801633 0 0.996475166
0 0.993636988 0
0 0.993621729 0
0 0.99360647 0
0 0.993530175 0
0.832745861 0.993209735 0
0.99032578 0.992080568 0
0.997848478 0.987609674 0
0.99937438 0 0.978896773
0.999801633 0 0.996475166
0 0.998474098 0
0 0.998474098 0
0 0.998474098 0
0 0.998474098 0
0.251865415 0.99844358 0
0.986495766 0.998382544 0
0.997863737 0.998184176 0
0.999404898 0.997436484 0
0.999816892 0 0.996139467
0 0.999572747 0
0 0.999572747 0
0 0.999572747 0
0 0.999572747 0
0 0.999572747 0
0.702327001 0.999557488 0
0.997238117 0.999542229 0
0.999404898 0.999496452 0
0.999832151 0.999313344 0
0 0.999877928 0
0 0.999877928 0
0 0.999877928 0
0 0.999877928 0
0 0.999877928 0
0 0.999877928 0
0.974670024 0.999862669 0
0.999252308 0.999862669 0
0.999832151 0.999862669 0
0 0 0
0 0 0
0 0 0
0 0 0
0.658091096 0 0.824032959
0.98611429 0 0.931242847
0.997512779 0 0.962676432
0.999343862 0 0.986816205
0.999801633 0 0.996475166
0 0 0
0 0 0
0 0 0
0 0 0
0.656641489 0 0.822842756
0.986099031 0 0.9307393
0.997512779 0 0.962493324
0.999343862 0 0.986785687
0.999801633 0 0.996475166
0 0 0
0 0 0
0 0 0
0 0 0
0.654840925 0 0.821347372
0.986083772 0 0.930098421
0.997512779 0 0.962279698
0.999343862 0 0.986755169
0.999801633 0 0.996475166
0.0172579538 0.120988785 0.484748608
0.0173495079 0.115693904 0.466483558
0.0173495079 0.10904097 0.443091478
0.215609979 0.0756694896 0.660700389
0.805233845 0 0.889265278
0.986037995 0 0.928130007
0.997512779 0 0.96162356
0.999343862 0 0.986663615
0.999801633 0 0.996475166
0 0.907057298 0.777782864
0 0.905531395 0.779003586
0 0.903624018 0.780514229
0.0238498512 0.89657435 0.790722515
0.845441367 0.845685512 0.847562371
0.99017319 0.585687037 0.886671244
0.997543297 0 0.958297093
0.999343862 0 0.986343175
0.999801633 0 0.996475166
0 0.993331807 0
0 0.993331807 0
0 0.993316548 0
0 0.993255512 0
0.770122835 0.99282826 0
0.989669642 0.991470207 0.471747921
0.997848478 0.984725719 0.686289769
0.999359121 0 0.983962768
0.999801633 0 0.996459907
0 0.998458839 0
0 0.998458839 0
0 0.998458839 0
0 0.998458839 0
0.0418707561 0.99844358 0
0.985748074 0.998367285 0
0.997848478 0.998153658 0
0.999404898 0.997405966 0
0.999816892 0 0.996139467
0 0.999572747 0
0 0.999572747 0
0 0.999572747 0
0 0.999557488 0
0 0.999557488 0
0.661997406 0.999557488 0
0.997222858 0.999542229 0
0.999404898 0.999481193 0
0.999832151 0.999298085 0
0 0.999877928 0
0 0.999877928 0
0 0.999877928 0
0 0.999877928 0
0 0.999877928 0
0 0.999877928 0
0.973250935 0.999862669 0
0.999252308 0.999862669 0
0.999832151 0.99984741 0
0 0 0
0 0 0
0 0 0
0 0 0
0 0 0
0.965102617 0 0.9850309
0.997161822 0 0.99205005
0.999313344 0 0.994460975
0.999801633 0 0.997268635
0 0 0
0 0 0
0 0 0
0 0 0
0 0 0
0.965011063 0 0.985000381
0.997161822 0 0.99205005
0.999313344 0 0.994460975
0.999801633 0 0.997268635
0 0 0
0 0 0
0 0 0
0 0 0
0 0 0
0.964919509 0 0.984969863
0.997161822 0 0.992034791
0.999313344 0 0.994460975
0.999801633 0 0.997268635
0 0 0
0 0 0
0 0 0
0 0 0
0 0 0
0.964614328 0 0.98486305
0.997161822 0 0.991989014
0.999313344 0 0.994430457
0.999801633 0 0.997268635
0.00712596323 0.36255436 0.924238956
0.00712596323 0.358480201 0.921477073
0.00712596323 0.353475242 0.917891203
0.00694285496 0.345891508 0.911970703
0.591653315 0.219256886 0.972747387
0.983871214 0 0.989730678
0.997146563 0 0.991866941
0.999313344 0 0.994369421
0.999801633 0 0.997253376
0 0.990569924 0.981200885
0 0.990539406 0.981246662
0 0.990493629 0.981292439
0 0.990402075 0.981414511
0.125413901 0.989974823 0.98237583
0.986678874 0.986694133 0.986831464
0.99781796 0.949538415 0.989349203
0.999328603 0 0.994048981
0.999801633 0 0.997207599
0 0.998397803 0
0 0.998397803 0
0 0.998397803 0
0 0.998397803 0
0 0.998382544 0
0.980468452 0.998306249 0
0.997726406 0.998046845 0.892133974
0.999404898 0.996963455 0.970366979
0.999816892 0 0.996841382
0 0.999557488 0
0 0.999557488 0
0 0.999557488 0
0 0.999557488 0
0 0.999557488 0
0.199450675 0.999557488 0
0.997116045 0.999542229 0
0.999404898 0.999481193 0
0.999832151 0.999298085 0
0 0.999877928 0
0 0.999877928 0
0 0.999877928 0
0 0.999877928 0
0 0.999877928 0
0 0.999877928 0
0.967330434 0.999862669 0
0.999252308 0.999862669 0
0.999832151 0.99984741 0
0 0 0
0 0 0
0 0 0
0 0 0
0 0 0
0 0 0
0.994659342 0 0.996993973
0.999237049 0 0.998153658
0.999801633 0 0.998626688
0 0 0
0 0 0
0 0 0
0 0 0
0 0 0
0 0 0
0.994659342 0 0.996993973
0.999237049 0 0.998153658
0.999801633 0 0.998626688
0 0 0
0 0 0
0 0 0
0 0 0
0 0 0
0 0 0
0.994644083 0 0.996993973
0.999237049 0 0.998153658
0.999801633 0 0.998626688
0 0 0
0 0 0
0 0 0
0 0 0
0 0 0
0 0 0
0.994644083 0 0.996993973
0.999237049 0 0.998153658
0.999801633 0 0.998626688
0 0 0
0 0 0
0 0 0
0 0 0
0 0 0
0 0 0
0.994613565 0 0.996978714
0.999237049 0 0.998153658
0.999801633 0 0.998626688
0.0135957885 0.784832532 0.991805905
0.0135957885 0.783413443 0.991760128
0.0134889754 0.781704433 0.991699092
0.0133669032 0.776409552 0.991515984
0.0133669032 0.773037308 0.991409171
0.95164416 0.564827955 0.995605402
0.996841382 0 0.997756924
0.999237049 0 0.99812314
0.999801633 0 0.998611429
0 0.997878996 0.996475166
0 0.997878996 0.996475166
0 0.997878996 0.996475166
0 0.997878996 0.996490425
0 0.997863737 0.996505684
0.400564584 0.997787442 0.996627756
0.997253376 0.997253376 0.997268635
0.999404898 0.993331807 0.99766537
0.999801633 0 0.998550393
0 0.999557488 0
0 0.999557488 0
0 0.999557488 0
0 0.999557488 0
0 0.999557488 0
0 0.999542229 0
0.996368353 0.99952697 0
0.99937438 0.999450675 0.989684901
0.999832151 0.999191272 0.995208667
0 0.999877928 0
0 0.999877928 0
0 0.999877928 0
0 0.999877928 0
0 0.999862669 0
0 0.999862669 0
0.566536965 0.999862669 0
0.99922179 0.999862669 0
0.999832151 0.99984741 0
0 0 0
0 0 0
0 0 0
0 0 0
0 0 0
0 0 0
0 0 0
0.998672465 0 0.999191272
0.999786374 0 0.999481193
0 0 0
0 0 0
0 0 0
0 0 0
0 0 0
0 0 0
0 0 0
0.998672465 0 0.999191272
0.999786374 0 0.999481193
0 0 0
0 0 0
0 0 0
0 0 0
0 0 0
0 0 0
0 0 0
0.998672465 0 0.999191272
0.999786374 0 0.999481193
0 0 0
0 0 0
0 0 0
0 0 0
0 0 0
0 0 0
0 0 0
0.998672465 0 0.999191272
0.999786374 0 0.999481193
0 0 0
0 0 0
0 0 0
0 0 0
0 0 0
0 0 0
0 0 0
0.998657206 0 0.999191272
0.999786374 0 0.999481193
0 0 0
0 0 0
0 0 0
0 0 0
0 0 0
0 0 0
0 0 0
0.998657206 0 0.999191272
0.999786374 0 0.999481193
0.0268558785 0.981582361 0.99812314
0.0268558785 0.981536584 0.99812314
0.0268558785 0.981490806 0.99812314
0.0267795834 0.981338216 0.998107881
0.026489662 0.980849928 0.998077363
0.0264286259 0.980682078 0.998062104
0.993514916 0.93946746 0.998886091
0.999160754 0 0.999389639
0.999786374 0 0.999481193
0 0.999404898 0.9990692
0 0.999404898 0.9990692
0 0.999404898 0.9990692
0 0.999404898 0.9990692
0 0.999404898 0.9990692
0 0.999404898 0.9990692
0.83198291 0.999389639 0.999099718
0.999252308 0.999252308 0.999267567
0.999832151 0.998397803 0.999359121
0 0.999862669 0
0 0.999862669 0
0 0.999862669 0
0 0.999862669 0
0 0.999862669 0
0 0.999862669 0
0 0.999862669 0
0.999053941 0.999862669 0
0.999816892 0.99984741 0.997741665
0 0 0
0 0 0
0 0 0
0 0 0
0 0 0
0 0 0
0 0 0
0 0 0
0.999618524 0 0.999771115
0 0 0
0 0 0
0 0 0
0 0 0
0 0 0
0 0 0
0 0 0
0 0 0
0.999618524 0 0.999771115
0 0 0
0 0 0
0 0 0
0 0 0
0 0 0
0 0 0
0 0 0
0 0 0
0.999618524 0 0.999771115
0 0 0
0 0 0
0 0 0
0 0 0
0 0 0
0 0 0
0 0 0
0 0 0
0.999618524 0 0.999771115
0 0 0
0 0 0
0 0 0
0 0 0
0 0 0
0 0 0
0 0 0
0 0 0
0.999618524 0 0.999771115
0 0 0
0 0 0
0 0 0
0 0 0
0 0 0
0 0 0
0 0 0
0 0 0
0.999618524 0 0.999771115
0 0 0
0 0 0
0 0 0
0 0 0
0 0 0
0 0 0
0 0 0
0 0 0
0.999618524 0 0.999771115
0.0611886778 0.996520943 0.999481193
0.0611886778 0.996505684 0.999481193
0.0611276417 0.996505684 0.999481193
0.0610513466 0.996505684 0.999481193
0.0608529793 0.996490425 0.999481193
0.0601510643 0.99641413 0.999465934
0.0599679561 0.996398871 0.999465934
0.998428321 0.99250782 0.999679561
0.999755856 0 0.999816892
0 0.999832151 0.999725338
0 0.999832151 0.999725338
0 0.999832151 0.999725338
0 0.999832151 0.999725338
0 0.999832151 0.999725338
0 0.999832151 0.999725338
0 0.999832151 0.999725338
0.985671778 0.999816892 0.999740597
0.999786374 0.999786374 0.999786374
