Luts/Hasselblad/Hasselblad_Standard_Phocus_X2D_VLog_sRGB_65.cube
TITLE "Hasselblad Standard Phocus X2D ColorCorrect from V-Log to sRGB"
#LUMIXPHOTOSTYLE VLOG
# INPUT_COLORSPACE Panasonic V-Log / V-Gamut
# OUTPUT_COLORSPACE sRGB primaries / D65 / sRGB transfer function
LUT_3D_SIZE 65
0 0 0
0 0 0
0 0 0
0 0 0
0 0 0
0 0 0
0 0 0
0 0 0
0.0210628445 0 0.00108258994
0.0478451629 0 0.00229633371
0.0729403019 0 0.00341270387
0.0958294951 0 0.00443427462
0.117536045 0 0.00551044476
0.140567489 0 0.00666302321
0.165741894 0 0.00795413002
0.193170504 0 0.00935895531
0.223023648 0 0.0109489399
0.255306748 0 0.0126964868
0.290218796 0 0.0145844696
0.328352477 0 0.0166413512
0.370337777 0 0.0188052531
0.415870255 0 0.021179084
0.464329689 0 0.0237717703
0.515431473 0 0.0267628109
0.568596628 0 0.0302564788
0.623489188 0 0.0345192856
0.680989202 0 0.0397412609
0.740994836 0 0.0463722483
0.8019597 0 0.0550406924
0.861350903 0 0.0680529769
0.91793127 0 0.0848295497
0.97176434 0 0.104203595
1 0 0.125762003
1 0 0.14978935
1 0 0.176616976
1 0 0.206155758
1 0 0.238210348
1 0 0.272888186
1 0 0.310182413
1 0 0.349519245
1 0 0.390670193
1 0 0.433491485
1 0 0.477600884
1 0 0.52296862
1 0 0.570520522
1 0 0.620186251
1 0 0.671152668
1 0 0.721753952
1 0 0.770692081
1 0 0.817422481
1 0 0.861574017
1 0 0.902599671
1 0 0.935853603
1 0 0.959039622
1 0 0.975698908
1 0 0.987944588
1 0 0.997125769
1 0 1
1 0 1
1 0 1
1 0 1
1 0 1
1 0 1
1 0 1
1 0 1
0 0 0
0 0 0
0 0 0
0 0 0
0 0 0
0 0 0
0 0 0
0 0 0
0.0196639616 0 0.00102773469
0.0462832294 0 0.00216061379
0.0715624742 0 0.00327994199
0.0945739795 0 0.00438313654
0.116236494 0 0.00545612834
0.139463854 0 0.00661263052
0.164617978 0 0.00790385219
0.192120741 0 0.00930258359
0.222046112 0 0.0108974949
0.254399672 0 0.0126516419
0.289380678 0 0.0145336022
0.327621334 0 0.0165966861
0.369593469 0 0.0188653837
0.415191222 0 0.0212423487
0.463714528 0 0.0238375205
0.514822255 0 0.0266977646
0.568105741 0 0.0301969698
0.6230563 0 0.0344134267
0.680598854 0 0.0396561437
0.74064431 0 0.0462508497
0.801666067 0 0.0550916852
0.86111413 0 0.0679763626
0.91773217 0 0.08472322
0.971602338 0 0.104097257
1 0 0.125779185
1 0 0.149707196
1 0 0.176534996
1 0 0.206075828
1 0 0.238152108
1 0 0.272831958
1 0 0.310127837
1 0 0.349484036
1 0 0.390634957
1 0 0.433440278
1 0 0.477566877
1 0 0.52296862
1 0 0.570487417
1 0 0.620186251
1 0 0.67113647
1 0 0.721737899
1 0 0.770676153
1 0 0.817406661
1 0 0.86155829
1 0 0.902584025
1 0 0.935838018
1 0 0.959039622
1 0 0.975698908
1 0 0.987944588
1 0 0.997125769
1 0 1
1 0 1
1 0 1
1 0 1
1 0 1
1 0 1
1 0 1
1 0 1
0 0 0
0 0 0
0 0 0
0 0 0
0 0 0
0 0 0
0 0 0
0 0 0
0.0182565083 0 0.000966985488
0.0447459886 0 0.00210348867
0.0702031859 0 0.00322714096
0.0933003939 0 0.0043206002
0.115079498 0 0.00540462524
0.13826323 0 0.00655956688
0.163576915 0 0.00785104494
0.191161939 0 0.00925927349
0.221149836 0 0.0108425463
0.253492469 0 0.0125937636
0.288602313 0 0.014479216
0.326835741 0 0.0165456893
0.368869283 0 0.0188185099
0.41451272 0 0.0211897823
0.46311912 0 0.0237741139
0.514289211 0 0.0266235302
0.567612383 0 0.0301065859
0.622587967 0 0.0343467483
0.680170826 0 0.0397306581
0.740256729 0 0.0461664504
0.801372858 0 0.0549922478
0.860859199 0 0.0678738656
0.917514466 0 0.0847555437
0.971440237 0 0.104016505
1 0 0.125675445
1 0 0.149626937
1 0 0.176476432
1 0 0.206078737
1 0 0.238153369
1 0 0.272833052
1 0 0.310072309
1 0 0.349429975
1 0 0.390634957
1 0 0.433405709
1 0 0.477566877
1 0 0.522935092
1 0 0.570454311
1 0 0.620169887
1 0 0.67113647
1 0 0.721721846
1 0 0.770660226
1 0 0.817406661
1 0 0.861542563
1 0 0.902584025
1 0 0.935838018
1 0 0.959039622
1 0 0.975698908
1 0 0.987944588
1 0 0.997125769
1 0 1
1 0 1
1 0 1
1 0 1
1 0 1
1 0 1
1 0 1
1 0 1
0 0 0
0 0 0
0 0 0
0 0 0
0 0 0
0 0 0
0 0 0
0 0 0
0.0167347771 0 0.000907134262
0.0431312517 0 0.00204696178
0.0687983515 0 0.00316447571
0.0920038798 0 0.00426547236
0.113885091 0 0.00534844019
0.137146313 0 0.00650444221
0.162535368 0 0.00779839846
0.190173281 0 0.00920087027
0.220171663 0 0.0107913189
0.252645457 0 0.0125459473
0.287743835 0 0.0144297097
0.326045087 0 0.0164893794
0.368129753 0 0.0187787977
0.413834126 0 0.0211372801
0.462446733 0 0.0237189849
0.513736489 0 0.0266907234
0.567083618 0 0.030052437
0.622156661 0 0.0344136738
0.679799137 0 0.0396117465
0.739905653 0 0.0462282122
0.801042933 0 0.0548991567
0.860604261 0 0.0677713335
0.917315267 0 0.0846764022
0.971260079 0 0.103938151
1 0 0.125593725
1 0 0.149638387
1 0 0.176481452
1 0 0.206019512
1 0 0.238096387
1 0 0.272756617
1 0 0.31007326
1 0 0.349375912
1 0 0.390582101
1 0 0.43337114
1 0 0.477515865
1 0 0.522918327
1 0 0.570437758
1 0 0.620137158
1 0 0.671104075
1 0 0.721705794
1 0 0.770644298
1 0 0.817390841
1 0 0.861542563
1 0 0.902568378
1 0 0.935838018
1 0 0.959039622
1 0 0.975698908
1 0 0.987944588
1 0 0.997125769
1 0 1
1 0 1
1 0 1
1 0 1
1 0 1
1 0 1
1 0 1
1 0 1
0 0 0
0 0 0
0 0 0
0 0 0
0 0 0
0 0 0
0 0 0
0 0 0
0.0153985111 0 0.000850945694
0.0415139955 0 0.001987
0.0673917093 0 0.00310788791
0.0907463155 0 0.00421554791
0.11266846 0 0.00529300716
0.136020525 0 0.00645546196
0.161399519 0 0.00775442411
0.189122189 0 0.00915550272
0.219262168 0 0.0107428876
0.251737761 0 0.012488294
0.286911108 0 0.0143846937
0.325254164 0 0.0164490091
0.367385853 0 0.0187161197
0.413155545 0 0.0210656353
0.461831959 0 0.0236577904
0.513181317 0 0.0266364705
0.566611061 0 0.0301174889
0.621688272 0 0.0343470043
0.679371506 0 0.0395332554
0.739536519 0 0.0461405799
0.800749272 0 0.0549501699
0.860349317 0 0.0676687662
0.917098012 0 0.0845727342
0.971098069 0 0.103831739
1 0 0.125514142
1 0 0.149558121
1 0 0.176399454
1 0 0.205939568
1 0 0.238018303
1 0 0.272700382
1 0 0.310018681
1 0 0.349322678
1 0 0.390547593
1 0 0.43337114
1 0 0.477482431
1 0 0.522884799
1 0 0.570437758
1 0 0.620120793
1 0 0.671087877
1 0 0.721689741
1 0 0.770644298
1 0 0.817375021
1 0 0.861526836
1 0 0.902568378
1 0 0.935838018
1 0 0.959039622
1 0 0.975698908
1 0 0.987944588
1 0 0.997125769
1 0 1
1 0 1
1 0 1
1 0 1
1 0 1
1 0 1
1 0 1
1 0 1
0 0 0
0 0 0
0 0 0
0 0 0
0 0 0
0 0 0
0 0 0
0 0 0
0.0140406774 0 0.000789891712
0.0399203434 0 0.00192898472
0.066007216 0 0.00305704002
0.0893394742 0 0.00415658353
0.111380898 0 0.00524504652
0.134796753 0 0.00640353349
0.160357168 0 0.00769265461
0.188132733 0 0.0090974029
0.218283386 0 0.0106918737
0.250897388 0 0.0124463708
0.286132229 0 0.0143305809
0.324541581 0 0.016498215
0.366641721 0 0.0186709855
0.412476768 0 0.0210132916
0.461217118 0 0.0235966803
0.512629064 0 0.026564648
0.566120119 0 0.0300327497
0.621257452 0 0.0342467703
0.678980639 0 0.039601144
0.739185847 0 0.0460496758
0.800437593 0 0.0548839958
0.860093925 0 0.0677105485
0.916880661 0 0.0844962511
0.970935578 0 0.10385347
1 0 0.125529195
1 0 0.149477844
1 0 0.17631912
1 0 0.205881787
1 0 0.23796005
1 0 0.272644144
1 0 0.309963148
1 0 0.349322678
1 0 0.390494734
1 0 0.433319285
1 0 0.477448423
1 0 0.52285127
1 0 0.570404652
1 0 0.620088064
1 0 0.671071679
1 0 0.721689741
1 0 0.77062837
1 0 0.817375021
1 0 0.861526836
1 0 0.902568378
1 0 0.935838018
1 0 0.959039622
1 0 0.975698908
1 0 0.987944588
1 0 0.997110287
1 0 1
1 0 1
1 0 1
1 0 1
1 0 1
1 0 1
1 0 1
1 0 1
0 0 0
0 0 0
0 0 0
0 0 0
0 0 0
0 0 0
0 0 0
0 0 0
0.0127174357 0 0.000656345304
0.038102587 0 0.00187290239
0.064465358 0 0.002997955
0.0880396291 0 0.00410250885
0.110162599 0 0.00519014189
0.133677936 0 0.00634903965
0.159293282 0 0.00764115752
0.187069289 0 0.00905830637
0.217365539 0 0.0106383054
0.249989225 0 0.0123889422
0.285293182 0 0.0142801191
0.323750477 0 0.0164419223
0.365877862 0 0.0186274567
0.411778484 0 0.0209628006
0.460601612 0 0.0236619155
0.512076762 0 0.0264929291
0.565629142 0 0.0299481324
0.620823839 0 0.0343080765
0.678588354 0 0.0395111835
0.738835162 0 0.0459587482
0.800107635 0 0.0547909005
0.859857122 0 0.0676338691
0.916681541 0 0.0843898305
0.970755412 0 0.103775092
1 0 0.125449605
1 0 0.149397555
1 0 0.176260537
1 0 0.205884698
1 0 0.237901794
1 0 0.272587903
1 0 0.309908565
1 0 0.349286634
1 0 0.390459495
1 0 0.43328536
1 0 0.477414414
1 0 0.52285127
1 0 0.570371546
1 0 0.620088064
1 0 0.671039283
1 0 0.721657635
1 0 0.770612442
1 0 0.817375021
1 0 0.861526836
1 0 0.902552731
1 0 0.935822432
1 0 0.959039622
1 0 0.975698908
1 0 0.987944588
1 0 0.997110287
1 0 1
1 0 1
1 0 1
1 0 1
1 0 1
1 0 1
1 0 1
1 0 1
0 0.00859823761 0
0 0.00671438179 0
0 0.00495394309 0
0 0.00324708021 0
0 0.0015207717 0
0 0 0
0 0 0
0 0 0
0.0114362858 0 0.000600560995
0.0364823884 0 0.00181215428
0.0630320309 0 0.00293795543
0.0867583 0 0.00404778005
0.108965009 0 0.00512773733
0.132537306 0 0.00629530825
0.158145269 0 0.00759238417
0.186099732 0 0.00899975096
0.216365671 0 0.0105883859
0.249141315 0 0.0123414789
0.284433935 0 0.0142309145
0.322939414 0 0.0163870801
0.365192414 0 0.018560352
0.411098896 0 0.0210253474
0.459986635 0 0.0236007879
0.511485703 0 0.0265643886
0.565099761 0 0.0300207633
0.620355362 0 0.0342415176
0.678179272 0 0.0394295798
0.738465548 0 0.0460237929
0.799814378 0 0.0546913956
0.859602159 0 0.0675312763
0.916463816 0 0.0844222167
0.970593394 0 0.103668643
1 0 0.125370003
1 0 0.149317255
1 0 0.176178509
1 0 0.205804739
1 0 0.237904319
1 0 0.272588998
1 0 0.309853027
1 0 0.349233397
1 0 0.390459495
1 0 0.433250789
1 0 0.477414414
1 0 0.522817741
1 0 0.570354992
1 0 0.620071699
1 0 0.671039283
1 0 0.721641583
1 0 0.770596514
1 0 0.817359201
1 0 0.861511109
1 0 0.902552731
1 0 0.935822432
1 0 0.959024078
1 0 0.975698908
1 0 0.987944588
1 0 0.997110287
1 0 1
1 0 1
1 0 1
1 0 1
1 0 1
1 0 1
1 0 1
1 0 1
0 0.0376749859 0
0 0.0350511663 0
0 0.0326163793 0
0 0.0301120535 0
0 0.0277795573 0
0 0.0253990003 0
0 0.0231771884 0
0 0.0209981987 0
0.00558911537 0.0175821869 0
0.0355945332 0.0141674065 0
0.0659692315 0.0109348359 0
0.0948383919 0.00602380511 0.000674067716
0.120964906 0.000743896236 0.00198198118
0.145852928 0 0.00386022421
0.171146144 0 0.00609448529
0.192644412 0 0.00809929186
0.216286097 0 0.0104064344
0.248232652 0 0.0122842751
0.283654519 0 0.0141770749
0.322147879 0 0.0163467176
0.364447919 0 0.0185153838
0.410419841 0 0.0209730093
0.459352349 0 0.0235417752
0.510933297 0 0.0264926822
0.564608618 0 0.0299615029
0.619924463 0 0.0341414687
0.677788346 0 0.0394973244
0.738114834 0 0.045932886
0.799520678 0 0.054742448
0.859347189 0 0.0674286482
0.916264597 0 0.0843430139
0.970413223 0 0.103590232
1 0 0.125288236
1 0 0.14932681
1 0 0.176183536
1 0 0.205745492
1 0 0.237826217
1 0 0.272532754
1 0 0.309853979
1 0 0.349179328
1 0 0.390407365
1 0 0.433250789
1 0 0.477380405
1 0 0.522784211
1 0 0.570321886
1 0 0.620038969
1 0 0.671023085
1 0 0.72162553
1 0 0.770580586
1 0 0.81734338
1 0 0.861495382
1 0 0.902537085
1 0 0.935822432
1 0 0.959024078
1 0 0.975698908
1 0 0.987944588
1 0 0.997110287
1 0 1
1 0 1
1 0 1
1 0 1
1 0 1
1 0 1
1 0 1
1 0 1
0 0.069639175 0
0 0.0673018884 0
0 0.0650536215 0
0 0.0626890493 0
0 0.0602988068 0
0 0.0579822087 0
0 0.0555299137 0
0 0.0531666422 0
0 0.0493824043 0
0.0245941944 0.0441467211 0
0.0594097185 0.0400351278 0
0.088222032 0.0356583749 0
0.113820816 0.0312926647 0
0.139925706 0.0258225855 0
0.171109031 0.01652842 0
0.203699135 0.00582898268 0.000228672482
0.238047343 0 0.00219667062
0.271888351 0 0.00516786237
0.307987761 0 0.00935049114
0.338437797 0 0.0127219078
0.371252437 0 0.0167209136
0.409740693 0 0.0209207352
0.458737233 0 0.0234808129
0.510380747 0 0.0264441126
0.564133863 0 0.0298688648
0.619493449 0 0.0340692938
0.677360695 0 0.0393884981
0.737745623 0 0.0458452096
0.799209045 0 0.0546461421
0.859092213 0 0.0673259846
0.916047321 0 0.08423926
0.970233049 0 0.103511808
1 0 0.125184391
1 0 0.149246502
1 0 0.176103175
1 0 0.205665518
1 0 0.237769215
1 0 0.272457393
1 0 0.309798439
1 0 0.349180159
1 0 0.390372123
1 0 0.433198932
1 0 0.477346396
1 0 0.522750681
1 0 0.570321886
1 0 0.620006239
1 0 0.671007262
1 0 0.721609477
1 0 0.770580586
1 0 0.81732756
1 0 0.861495382
1 0 0.902537085
1 0 0.935806846
1 0 0.959024078
1 0 0.975698908
1 0 0.987929091
1 0 0.997110287
1 0 1
1 0 1
1 0 1
1 0 1
1 0 1
1 0 1
1 0 1
1 0 1
0 0.0980832233 0
0 0.0959878683 0
0 0.0938739102 0
0 0.0918462283 0
0 0.0897085365 0
0 0.0875496259 0
0 0.0853669151 0
0 0.0832755935 0
0 0.0796322335 0
0.00446149147 0.0758097809 0
0.0476193823 0.0709046478 0
0.0809378983 0.0671879887 0
0.108702203 0.0633866648 0
0.136601221 0.0586564395 0
0.165898597 0.0526880329 0
0.196389671 0.0445843683 0
0.232471208 0.0297239209 0
0.270502647 0.0120691036 0
0.311702589 0 0
0.352764808 0 0.00197895429
0.39607065 0 0.00690375759
0.438484258 0 0.0123417991
0.475511485 0 0.0175776411
0.515277777 0 0.0242337304
0.563585912 0 0.0298175134
0.619024439 0 0.034141602
0.676968305 0 0.039298732
0.737394446 0 0.0459069907
0.798897401 0 0.0545498067
0.858855034 0 0.0673648658
0.915848185 0 0.0841327703
0.970070545 0 0.103533576
1 0 0.125201623
1 0 0.149166182
1 0 0.176021126
1 0 0.205606259
1 0 0.237710946
1 0 0.272401143
1 0 0.309743849
1 0 0.349126088
1 0 0.390319261
1 0 0.43316436
1 0 0.477312386
1 0 0.522717151
1 0 0.570288779
1 0 0.619989874
1 0 0.670974866
1 0 0.721609477
1 0 0.770564658
1 0 0.81731174
1 0 0.861495382
1 0 0.902537085
1 0 0.935806846
1 0 0.959024078
1 0 0.975698908
1 0 0.987929091
1 0 0.997110287
1 0 1
1 0 1
1 0 1
1 0 1
1 0 1
1 0 1
1 0 1
1 0 1
0 0.124203445 0
0 0.12228402 0
0 0.120342914 0
0 0.118401762 0
0 0.116420629 0
0 0.114457395 0
0 0.112472031 0
0 0.1104664 0
0 0.107203453 0
0 0.103771319 0
0.0245699489 0.0994090068 0
0.0695258552 0.0951590738 0
0.101139766 0.0916711525 0
0.130978914 0.0876958553 0
0.161901989 0.0825986549 0
0.193890334 0.0764933571 0
0.227594477 0.0685419512 0
0.263750502 0.0563532009 0
0.306518197 0.0332725293 0
0.351134241 0.00523652071 0
0.399668544 0 0
0.446769847 0 0
0.49544668 0 0.00619349282
0.540633316 0 0.0134260513
0.580886854 0 0.02097036
0.623526499 0 0.0311725486
0.676540081 0 0.0393727658
0.737043688 0 0.045816081
0.798585314 0 0.0546040699
0.858581799 0 0.0672651902
0.915630809 0 0.0840562086
0.969890461 0 0.10342949
1 0 0.125119831
1 0 0.149085851
1 0 0.175962517
1 0 0.205609174
1 0 0.237632826
1 0 0.27234489
1 0 0.309688305
1 0 0.349072015
1 0 0.390266396
1 0 0.433129787
1 0 0.477312386
1 0 0.522717664
1 0 0.570256132
1 0 0.619989874
1 0 0.670958668
1 0 0.721593424
1 0 0.77054873
1 0 0.81731174
1 0 0.861479655
1 0 0.902521438
1 0 0.935806846
1 0 0.959024078
1 0 0.975683391
1 0 0.987929091
1 0 0.997110287
1 0 1
1 0 1
1 0 1
1 0 1
1 0 1
1 0 1
1 0 1
1 0 1
0 0.148777478 0
0 0.146987084 0
0 0.145175906 0
0 0.143363213 0
0 0.141548986 0
0 0.13971703 0
0 0.137881866 0
0 0.136027245 0
0 0.133066148 0
0 0.129724877 0
0 0.126264288 0
0.0489742341 0.121872023 0
0.089954183 0.117811167 0
0.123492331 0.114153956 0
0.156012645 0.109887315 0
0.189906498 0.104177918 0
0.224591433 0.0976483044 0
0.261269974 0.089125801 0
0.299720132 0.0773076989 0
0.345904276 0.0544650086 0
0.39524153 0.018713957 0
0.44783672 0 0
0.499314219 0 0
0.55029377 0 0
0.602692356 0 0.00935560086
0.644219033 0 0.0185202497
0.688399363 0 0.0306163883
0.736656034 0 0.0457011003
0.79827365 0 0.0545077458
0.858326715 0 0.0671914146
0.915431208 0 0.0840859543
0.969728335 0 0.103348622
1 0 0.125040179
1 0 0.149005508
1 0 0.175880448
1 0 0.205530643
1 0 0.237635354
1 0 0.27234489
1 0 0.30963371
1 0 0.349036797
1 0 0.390267127
1 0 0.43309586
1 0 0.477278376
1 0 0.522684134
1 0 0.570239578
1 0 0.619957144
1 0 0.670958668
1 0 0.721577713
1 0 0.770532802
1 0 0.81731174
1 0 0.861463928
1 0 0.902505791
1 0 0.935806846
1 0 0.959024078
1 0 0.975683391
1 0 0.987929091
1 0 0.997110287
1 0 1
1 0 1
1 0 1
1 0 1
1 0 1
1 0 1
1 0 1
1 0 1
0 0.174803834 0
0 0.173138275 0
0 0.171400091 0
0 0.169713403 0
0 0.168025547 0
0 0.166336512 0
0 0.164628674 0
0 0.162919611 0
0 0.160464455 0
0 0.156792577 0
0 0.15383627 0
0.0112777218 0.150150413 0
0.0691559403 0.146020974 0
0.111445769 0.141781247 0
0.147820781 0.137700351 0
0.183242226 0.133027996 0
0.219985936 0.126836646 0
0.257659483 0.119627441 0
0.297727315 0.110323093 0
0.339717478 0.0980213376 0
0.388996765 0.0755357193 0
0.442767054 0.0357059191 0
0.497873819 0 0
0.553512248 0 0
0.606385516 0 0
0.660835721 0 0.00282876828
0.709200268 0 0.0155106686
0.754689583 0 0.0307045634
0.801823945 0 0.0511246914
0.858016974 0 0.0670976787
0.915195769 0 0.0839848404
0.969530093 0 0.103272582
1 0 0.124962672
1 0 0.149018906
1 0 0.175887162
1 0 0.205471374
1 0 0.237577076
1 0 0.272288634
1 0 0.309579114
1 0 0.348982721
1 0 0.390231884
1 0 0.433043999
1 0 0.477244939
1 0 0.522650603
1 0 0.570206471
1 0 0.619940778
1 0 0.67094247
1 0 0.721545606
1 0 0.770516874
1 0 0.81729592
1 0 0.861463928
1 0 0.902505791
1 0 0.935806846
1 0 0.959024078
1 0 0.975683391
