Luts/Hasselblad/Hasselblad_Standard_Phocus_X2D_VLog_sRGB_65.cube
TITLE "Hasselblad Standard Phocus X2D ColorCorrect from V-Log to sRGB"
#LUMIXPHOTOSTYLE VLOG
# INPUT_COLORSPACE Panasonic V-Log / V-Gamut
# OUTPUT_COLORSPACE sRGB primaries / D65 / sRGB transfer function
LUT_3D_SIZE 9
0 0 0
0.0210628445 0 0.00108258994
0.223023648 0 0.0109489399
0.568596628 0 0.0302564788
1 0 0.125762003
1 0 0.390670193
1 0 0.770692081
1 0 0.997125769
1 0 1
0 0.0376749859 0
0.00558911537 0.0175821869 0
0.216286097 0 0.0104064344
0.564608618 0 0.0299615029
1 0 0.125288236
1 0 0.390407365
1 0 0.770580586
1 0 0.997110287
1 0 1
0 0.265916655 0
0 0.254959525 0
0.186751778 0.225246641 0
0.596732334 0.105222007 0
1 0 0.123826263
1 0 0.390056387
1 0 0.770469089
1 0 0.997110287
1 0 1
0 0.612790324 0
0 0.607937349 0
0 0.593638371 0
0.485460709 0.545936018 0
1 0.403319239 0
1 0 0.37451416
1 0 0.770103044
1 0 0.997094806
1 0 1
0 0.957659723 0
0 0.95707782 0
0 0.955898608 0
0 0.945953889 0
0.872146911 0.908882594 0
1 0.818249141 0
1 0 0.747327475
1 0 0.997032881
1 0 1
0 1 0
0 1 0
0 1 0
0 1 0
0.717718301 1 0
1 0.990880325 0
1 0.981781826 0
1 0 0.992742894
1 0 1
0 1 0
0 1 0
0 1 0
0 1 0
0 1 0
0.987328155 1 0
1 1 0
1 1 0
1 0 1
0 1 0
0 1 0
0 1 0
0 1 0
0 1 0
0.4657773 1 0
1 1 0
1 1 0
1 1 0
0 1 0
0 1 0
0 1 0
0 1 0
0 1 0
0 1 0
0.957690219 1 0
1 1 0
1 1 0
0 0 0
0.00514280326 0 0.00619384439
0.213227866 0 0.0164596242
0.564379134 0 0.0299870033
1 0 0.125296848
1 0 0.390372123
1 0 0.770580586
1 0 0.997110287
1 0 1
0 0.0143469681 0
0 0 0
0.207245822 0 0.0100578111
0.56035075 0 0.0296728343
1 0 0.12470152
1 0 0.390091634
1 0 0.770485018
1 0 0.997110287
1 0 1
0 0.252073834 0
0 0.240866377 0
0.18153706 0.211337976 0
0.595027751 0.0745310443 0
1 0 0.124162267
1 0 0.389740603
1 0 0.770357591
1 0 0.997110287
1 0 1
0 0.606647981 0
0 0.601727173 0
0 0.587570588 0
0.482931597 0.539510394 0
1 0.391966113 0
1 0 0.376352068
1 0 0.769991539
1 0 0.997079325
1 0 1
0 0.956909369 0
0 0.956312112 0
0 0.9552094 0
0 0.945185323 0
0.871190328 0.907690226 0
1 0.815314827 0
1 0 0.747983193
1 0 0.997017399
1 0 1
0 1 0
0 1 0
0 1 0
0 1 0
0.715396328 1 0
1 0.990850609 0
1 0.981671156 0
1 0 0.992773871
1 0 1
0 1 0
0 1 0
0 1 0
0 1 0
0 1 0
0.987260625 1 0
1 1 0
1 1 0
1 0 1
0 1 0
0 1 0
0 1 0
0 1 0
0 1 0
0.45921027 1 0
1 1 0
1 1 0
1 1 0
0 1 0
0 1 0
0 1 0
0 1 0
0 1 0
0 1 0
0.957461265 1 0
1 1 0
1 1 0
0 0 0
0 0 0
0.120310442 0 0.150084425
0.5220677 0 0.218452111
1 0 0.266718498
1 0 0.431211454
1 0 0.770453161
1 0 0.997110287
1 0 1
0 0 0
0 0 0
0.114878711 0 0.143499143
0.519624539 0 0.211846233
1 0 0.26042458
1 0 0.427075537
1 0 0.770341662
1 0 0.997110287
1 0 1
0 0.205325688 0.119576128
0 0.191258268 0.126998196
0.156723073 0.156890355 0.157722778
0.588767267 0 0.182724345
1 0 0.252552837
1 0 0.421943651
1 0 0.770230161
1 0 0.997094806
1 0 1
0 0.595702958 0
0 0.590710799 0
0 0.57597076 0
0.472325959 0.52558449 0
1 0.353434363 0
1 0 0.396775421
1 0 0.769864102
1 0 0.997079325
1 0 1
0 0.955837347 0
0 0.955224716 0
0 0.954244437 0
0 0.944129026 0
0.86985855 0.906107526 0
1 0.811677638 0
1 0 0.748798666
1 0 0.997017399
1 0 1
0 1 0
0 1 0
0 1 0
0 1 0
0.712519678 1 0
1 0.990805122 0
1 0.981560484 0
1 0 0.992820336
1 0 1
0 1 0
0 1 0
0 1 0
0 1 0
0 1 0
0.987170582 1 0
1 1 0
1 1 0
1 0 1
0 1 0
0 1 0
0 1 0
0 1 0
0 1 0
0.450945649 1 0
1 1 0
1 1 0
1 1 0
0 1 0
0 1 0
0 1 0
0 1 0
0 1 0
0 1 0
0.957140681 1 0
1 1 0
1 1 0
0 0 0
0 0 0
0 0 0
0.350143771 0 0.417704543
0.966832958 0 0.546274001
1 0 0.635481398
1 0 0.831661558
1 0 0.997094806
1 0 1
0 0 0
0 0 0
0 0 0
0.346782582 0 0.414017086
0.966221904 0 0.542960264
1 0 0.632840427
1 0 0.83044573
1 0 0.997079325
1 0 1
0 0.0251576891 0.151647822
0 0.0175433075 0.114961411
0.0504423883 0.0083776712 0.212090061
0.432859455 0 0.471126749
0.965483335 0 0.538871989
1 0 0.629676213
1 0 0.828945405
1 0 0.997079325
1 0 1
0 0.516023626 0.364722686
0 0.509364385 0.368995869
0 0.499892079 0.37821946
0.43115448 0.431638433 0.433425103
1 0.0810772365 0.479073134
1 0 0.618776361
1 0 0.824348043
1 0 0.997063843
1 0 1
0 0.951119215 0
0 0.950429709 0
0 0.949556272 0
0 0.938757416 0
0.8567697 0.894732429 0
1 0.770471402 0.182379165
1 0 0.794157613
1 0 0.997001918
1 0 1
0 1 0
0 1 0
0 1 0
0 1 0
0.695787724 1 0
1 0.990626822 0
1 0.981181962 0
1 0 0.992975217
1 0 1
0 1 0
0 1 0
0 1 0
0 1 0
0 1 0
0.986885288 1 0
1 1 0
1 1 0
1 0 1
0 1 0
0 1 0
0 1 0
0 1 0
0 1 0
0.424342382 1 0
1 1 0
1 1 0
1 1 0
0 1 0
0 1 0
0 1 0
0 1 0
0 1 0
0 1 0
0.956178594 1 0
1 1 0
1 1 0
0 0 0
0 0 0
0 0 0
0 0 0
0.757025926 0 0.814000424
1 0 0.926341738
1 0 0.968051439
1 0 1
1 0 1
0 0 0
0 0 0
0 0 0
0 0 0
0.75555005 0 0.81283665
1 0 0.925718406
1 0 0.96778745
1 0 1
1 0 1
0 0 0
0 0 0
0 0 0
0 0 0
0.753728862 0 0.811377591
1 0 0.92492346
1 0 0.967476865
1 0 1
1 0 1
0 0.14165033 0.511126017
0 0.135395013 0.495143096
0 0.12743511 0.474557301
0.258676642 0.0113054946 0.665436764
0.9141009 0 0.880307004
1 0 0.922475785
1 0 0.966529515
1 0 1
1 0 1
0 0.895482173 0.737206126
0 0.893735905 0.73859922
0 0.89155291 0.740296773
0 0.883494906 0.751254497
0.806298442 0.806861676 0.808743698
1 0.532698348 0.862358864
1 0 0.961774574
1 0 1
1 0 1
0 1 0
0 1 0
0 1 0
0 1 0
0.582806398 1 0
0.997065872 0.988243416 0.391648791
1 0.973369339 0.623058557
1 0 1
1 0 1
0 1 0
0 1 0
0 1 0
0 1 0
0 1 0
0.984985411 1 0
1 1 0
1 1 0
1 0 1
0 1 0
0 1 0
0 1 0
0 1 0
0 1 0
0.313167435 1 0
1 1 0
1 1 0
1 1 0
0 1 0
0 1 0
0 1 0
0 1 0
0 1 0
0 1 0
0.952853195 1 0
1 1 0
1 1 0
0 0 0
0 0 0
0 0 0
0 0 0
0 0 0
1 0 1
1 0 1
1 0 1
1 0 1
0 0 0
0 0 0
0 0 0
0 0 0
0 0 0
1 0 1
1 0 1
1 0 1
1 0 1
0 0 0
0 0 0
0 0 0
0 0 0
0 0 0
1 0 1
1 0 1
1 0 1
1 0 1
0 0 0
0 0 0
0 0 0
0 0 0
0 0 0
1 0 1
1 0 1
1 0 1
1 0 1
0 0.385291758 0.920081923
0 0.381527728 0.916842861
0 0.376895748 0.912658169
0 0.369861954 0.90584983
0.654782017 0.173000784 0.986098015
1 0 1
1 0 1
1 0 1
1 0 1
0 1 0.970701362
0 1 0.970768949
0 1 0.970854864
0 1 0.971077082
0 1 0.972693164
0.974591368 0.974767177 0.974851872
1 0.914727302 0.983285086
1 0 1
1 0 1
0 1 0
0 1 0
0 1 0
0 1 0
0 1 0
0.971763974 1 0
1 0.99778872 0.839339607
1 0.994032408 0.944549513
1 0 1
0 1 0
0 1 0
0 1 0
0 1 0
0 1 0
0 1 0
1 1 0
1 1 0
1 1 0
0 1 0
0 1 0
0 1 0
0 1 0
0 1 0
0 1 0
0.939397291 1 0
1 1 0
1 1 0
0 0 0
0 0 0
0 0 0
0 0 0
0 0 0
0 0 0
1 0 1
1 0 1
1 0 1
0 0 0
0 0 0
0 0 0
0 0 0
0 0 0
0 0 0
1 0 1
1 0 1
1 0 1
0 0 0
0 0 0
0 0 0
0 0 0
0 0 0
0 0 0
1 0 1
1 0 1
1 0 1
0 0 0
0 0 0
0 0 0
0 0 0
0 0 0
0 0 0
1 0 1
1 0 1
1 0 1
0 0 0
0 0 0
0 0 0
0 0 0
0 0 0
0 0 0
1 0 1
1 0 1
1 0 1
0 0.766241635 1
0 0.764898356 1
0 0.763271054 1
0 0.758243535 1
0 0.755063535 1
1 0.515412685 1
1 0 1
1 0 1
1 0 1
0 1 0.998978229
0 1 0.998994205
0 1 0.998994205
0 1 0.999011305
0 1 0.999045504
0 1 0.998355952
0.994188111 0.994311167 0.994197999
1 0.985796781 0.99559648
1 0 1
0 1 0
0 1 0
0 1 0
0 1 0
0 1 0
0 1 0
1 1 0
0.99953352 0.999144473 0.97808871
1 0.998339022 0.989326385
0 1 0
0 1 0
0 1 0
0 1 0
0 1 0
0 1 0
0 1 0
1 1 0
1 1 0
0 0 0
0 0 0
0 0 0
0 0 0
0 0 0
0 0 0
0 0 0
1 0 1
1 0 1
0 0 0
0 0 0
0 0 0
0 0 0
0 0 0
0 0 0
0 0 0
1 0 1
1 0 1
0 0 0
0 0 0
0 0 0
0 0 0
0 0 0
0 0 0
0 0 0
1 0 1
1 0 1
0 0 0
0 0 0
0 0 0
0 0 0
0 0 0
0 0 0
0 0 0
1 0 1
1 0 1
0 0 0
0 0 0
0 0 0
0 0 0
0 0 0
0 0 0
0 0 0
1 0 1
1 0 1
0 0 0
0 0 0
0 0 0
0 0 0
0 0 0
0 0 0
0 0 0
1 0 1
1 0 1
0 0.991927164 1
0 0.991850238 1
0 0.991773311 1
0 0.991527761 1
0 0.990698479 1
0 0.9904221 1
1 0.901271996 1
1 0 1
1 0 1
0 1 1
0 1 1
0 1 1
0 1 1
0 1 1
0 1 1
0.643034943 1 1
0.998335904 0.998458215 0.998311762
1 0.99644118 0.998656328
0 1 0
0 1 0
0 1 0
0 1 0
0 1 0
0 1 0
0 1 0
1 1 0
0.99975091 0.999762301 0.994734453
0 0 0
0 0 0
0 0 0
0 0 0
0 0 0
0 0 0
0 0 0
0 0 0
1 0 1
0 0 0
0 0 0
0 0 0
0 0 0
0 0 0
0 0 0
0 0 0
0 0 0
1 0 1
0 0 0
0 0 0
0 0 0
0 0 0
0 0 0
0 0 0
0 0 0
0 0 0
1 0 1
0 0 0
0 0 0
0 0 0
0 0 0
0 0 0
0 0 0
0 0 0
0 0 0
1 0 1
0 0 0
0 0 0
0 0 0
0 0 0
0 0 0
0 0 0
0 0 0
0 0 0
1 0 1
0 0 0
0 0 0
0 0 0
0 0 0
0 0 0
0 0 0
0 0 0
0 0 0
1 0 1
0 0 0
0 0 0
0 0 0
0 0 0
0 0 0
0 0 0
0 0 0
0 0 0
1 0 1
0 1 1
0 1 1
0 1 1
0 1 1
0 1 1
0 1 1
0 1 1
1 0.984193492 1
1 0 1
0 1 1
0 1 1
0 1 1
0 1 1
0 1 1
0 1 1
0 1 1
0.957874141 1 0.999711151
0.999457847 0.999579675 0.999416736
