Luts/Hasselblad/Hasselblad_Standard_Phocus_X2D_VLog_CC.cube
TITLE "Hasselblad Standard Phocus X2D ColorCorrect from V-Log"
#LUMIXPHOTOSTYLE VLOG
LUT_3D_SIZE 5
0 0 0
0.191668574 0.024383917 0.0463416495
0.839078355 0 0.179034104
0.99485771 0 0.744472419
0.999572747 0 0.992477302
0.0200656138 0.263874266 0
0.208163577 0.232471199 0.0308995193
0.837674525 0 0.17769131
0.99485771 0 0.744258793
0.999572747 0 0.992477302
0 0.924681468 0
0 0.92292668 0
0.864057374 0.89828336 0
0.995056077 0 0.722133211
0.999572747 0 0.992462043
0 0.996673533 0
0 0.996673533 0
0.329976349 0.996627756 0
0.995376516 0.996047913 0
0.999588006 0 0.991760128
0 0.999725338 0
0 0.999725338 0
0 0.999725338 0
0.954970626 0.999710079 0
0.999618524 0.999679561 0
0 0 0
0.119462882 0 0.161394675
0.83010605 0 0.282902266
0.99485771 0 0.744243534
0.999572747 0 0.992477302
0 0.210543984 0.145845731
0.173403525 0.173464561 0.174166476
0.828824292 0 0.271335927
0.99485771 0 0.744029908
0.999572747 0 0.992477302
0 0.922865644 0
0 0.921278706 0
0.861600671 0.8954757 0
0.995025559 0 0.723537041
0.999572747 0 0.992462043
0 0.996673533 0
0 0.996673533 0
0.315892271 0.996627756 0
0.995376516 0.996047913 0
0.999588006 0 0.991760128
0 0.999725338 0
0 0.999725338 0
0 0.999725338 0
0.95460441 0.999710079 0
0.999618524 0.999679561 0
0 0 0
0 0 0
0.63260853 0 0.78080415
0.994628824 0 0.936095216
0.999572747 0 0.992462043
0 0 0
0 0 0
0.629846647 0 0.778225376
0.994628824 0 0.935530632
0.999572747 0 0.992462043
0 0.866529335 0.737468528
0 0.862684062 0.739971008
0.801724269 0.801968414 0.803830014
0.994705119 0 0.929930571
0.999572747 0 0.992462043
0 0.996643015 0
0 0.996643015 0
0.0715342947 0.996597238 0
0.995330739 0.996002136 0
0.999588006 0 0.991790646
0 0.999725338 0
0 0.999725338 0
0 0.999725338 0
0.951750973 0.999710079 0
0.999618524 0.999664302 0
0 0 0
0 0 0
0 0 0
0.988784619 0 0.993560693
0.999557488 0 0.997009232
0 0 0
0 0 0
0 0 0
0.98876936 0 0.993545434
0.999557488 0 0.996993973
0 0 0
0 0 0
0 0 0
0.988693065 0 0.993514916
0.999557488 0 0.996993973
0 0.995407034 0.992462043
0 0.995407034 0.992477302
0 0.995361257 0.992523079
0.9940795 0.9940795 0.994125277
0.999572747 0 0.996826123
0 0.999725338 0
0 0.999725338 0
0 0.999710079 0
0.556069276 0.999710079 0
0.999618524 0.999664302 0
0 0 0
0 0 0
0 0 0
0 0 0
0.999160754 0 0.999481193
0 0 0
0 0 0
0 0 0
0 0 0
0.999160754 0 0.999481193
0 0 0
0 0 0
0 0 0
0 0 0
0.999160754 0 0.999481193
0 0 0
0 0 0
0 0 0
0 0 0
0.999160754 0 0.999481193
0 0.999618524 0.999404898
0 0.999618524 0.999404898
0 0.999618524 0.999404898
0 0.999618524 0.999404898
0.99952697 0.99952697 0.99952697
