Luts/Hasselblad/Hasselblad_Standard_Phocus_X2D_VLog_CC_65.cube
TITLE "Hasselblad Standard Phocus X2D ColorCorrect from V-Log"
#LUMIXPHOTOSTYLE VLOG
LUT_3D_SIZE 65
0 0 0
0 0 0
0 0 0
0 0 0
0 0 0
0 0 0
0 0 0
0 0 0
0.0445105669 0.00889600977 0.0147402152
0.0649271382 0.0122224765 0.0208590829
0.0823529412 0.0147402152 0.0252384222
0.0985122454 0.0168307012 0.0287785153
0.114030671 0.0183871214 0.032089723
0.130693523 0.0200656138 0.0354009308
0.149095903 0.0213626307 0.0388647288
0.169375143 0.0230411231 0.042481117
0.191668574 0.024383917 0.0463416495
0.216021973 0.0256656748 0.0504158083
0.242618448 0.0268711376 0.0547035935
0.271946288 0.0278324559 0.0592813001
0.304539559 0.0283970397 0.0641489281
0.340215152 0.0283970397 0.0693980316
0.378530556 0.0278324559 0.0749980926
0.419287404 0.0262760357 0.0810406653
0.462043183 0.0232700084 0.0875104906
0.506538491 0.0177767605 0.0944838636
0.55350576 0 0.102067597
0.602929732 0 0.110627909
0.653498131 0 0.120363165
0.703089952 0 0.13229572
0.750621805 0 0.146257725
0.79609369 0 0.161867704
0.839078355 0 0.179034104
0.878889143 0 0.198046845
0.909590295 0 0.218860151
0.931074998 0 0.241702907
0.946532387 0 0.266895552
0.957930877 0 0.294789044
0.966491188 0 0.325535973
0.973022049 0 0.358739605
0.978072786 0 0.394216831
0.98205539 0 0.43183032
0.985198749 0 0.471213855
0.987716487 0 0.512306401
0.989761196 0 0.555931945
0.99142443 0 0.60202945
0.992797742 0 0.649835966
0.993926909 0 0.697749294
0.99485771 0 0.744472419
0.99563592 0 0.789410239
0.996292058 0 0.8321355
0.996841382 0 0.872053101
0.997314412 0 0.904554818
0.997695888 0 0.927290761
0.998031586 0 0.943663691
0.998321508 0 0.955718318
0.998565652 0 0.964766918
0.998764019 0 0.971663996
0.998947127 0 0.976989395
0.999099718 0 0.981185626
0.99922179 0 0.984496834
0.999328603 0 0.987151904
0.999435416 0 0.989288167
0.999511711 0 0.991042954
0.999572747 0 0.992477302
0 0 0
0 0 0
0 0 0
0 0 0
0 0 0
0 0 0
0 0 0
0 0 0
0.0431219959 0.00817883574 0.0143587396
0.0638590066 0.0122224765 0.0203402762
0.0813916228 0.0147402152 0.0248264286
0.0976119631 0.0165102617 0.028595407
0.11309987 0.0183871214 0.0319218738
0.129884794 0.0198062104 0.0352483406
0.148271916 0.0213626307 0.0387273976
0.168596933 0.0230411231 0.0423437858
0.190936141 0.024383917 0.0462195773
0.215335317 0.0256656748 0.0503089952
0.241977569 0.0268711376 0.0545967803
0.271381704 0.0278324559 0.0591897459
0.303959716 0.0283970397 0.0641489281
0.339681086 0.0283970397 0.0693980316
0.378042267 0.0278324559 0.0749980926
0.418799115 0.0262760357 0.0809491112
0.461646448 0.0232700084 0.0874341955
0.506187533 0.0180819409 0.0943923095
0.553185321 0 0.101991302
0.602639811 0 0.110536355
0.653253986 0 0.120363165
0.702891585 0 0.132234684
0.750453956 0 0.14618143
0.795956359 0 0.161791409
0.838956283 0 0.179034104
0.878812848 0 0.197985809
0.909544518 0 0.218799115
0.93104448 0 0.241641871
0.946517128 0 0.266849775
0.957915618 0 0.294743267
0.966475929 0 0.325490196
0.97300679 0 0.358709087
0.978072786 0 0.394186313
0.982040131 0 0.431784543
0.985198749 0 0.471183337
0.987716487 0 0.512306401
0.989761196 0 0.555901427
0.99142443 0 0.60202945
0.992797742 0 0.649820706
0.993926909 0 0.697734035
0.99485771 0 0.74445716
0.99563592 0 0.78939498
0.996292058 0 0.832120241
0.996841382 0 0.872037842
0.997314412 0 0.904539559
0.997695888 0 0.927290761
0.998031586 0 0.943663691
0.998321508 0 0.955718318
0.998565652 0 0.964766918
0.998764019 0 0.971663996
0.998947127 0 0.976989395
0.999099718 0 0.981185626
0.99922179 0 0.984496834
0.999328603 0 0.987151904
0.999435416 0 0.989288167
0.999511711 0 0.991042954
0.999572747 0 0.992477302
0 0 0
0 0 0
0 0 0
0 0 0
0 0 0
0 0 0
0 0 0
0 0 0
0.0417029068 0.00817883574 0.013962005
0.0627908751 0.0117494469 0.0200656138
0.0804303044 0.0143587396 0.0246128023
0.0967116808 0.0165102617 0.0283970397
0.112260624 0.0180819409 0.0317540246
0.12901503 0.0198062104 0.0350957504
0.147508965 0.0213626307 0.0385900664
0.167879759 0.0228122377 0.0422217136
0.190264744 0.024383917 0.0460975051
0.214648661 0.0256656748 0.050186923
0.241382467 0.0268711376 0.0544899672
0.270771344 0.0276493477 0.0590829328
0.303395132 0.0283970397 0.0640573739
0.339147021 0.0283970397 0.0693064775
0.377569238 0.0278324559 0.0749065385
0.418371862 0.0262760357 0.080857557
0.461249714 0.0234988937 0.0873426413
0.505806058 0.0180819409 0.0943160143
0.552834363 0 0.101991302
0.602319371 0 0.11046006
0.653009842 0 0.12028687
0.702677958 0 0.132158389
0.750270848 0 0.14618143
0.795819028 0 0.161730373
0.838834211 0 0.178957809
0.878721294 0 0.197924773
0.909483482 0 0.218753338
0.931013962 0 0.241641871
0.946501869 0 0.266849775
0.957900359 0 0.294743267
0.966475929 0 0.325444419
0.97300679 0 0.35866331
0.978072786 0 0.394186313
0.982040131 0 0.431754025
0.985198749 0 0.471183337
0.987716487 0 0.512275883
0.989761196 0 0.555870909
0.99142443 0 0.602014191
0.992797742 0 0.649820706
0.993926909 0 0.697718776
0.99485771 0 0.744441901
0.99563592 0 0.78939498
0.996292058 0 0.832104982
0.996841382 0 0.872037842
0.997314412 0 0.904539559
0.997695888 0 0.927290761
0.998031586 0 0.943663691
0.998321508 0 0.955718318
0.998565652 0 0.964766918
0.998764019 0 0.971663996
0.998947127 0 0.976989395
0.999099718 0 0.981170367
0.99922179 0 0.984496834
0.999328603 0 0.987151904
0.999435416 0 0.989288167
0.999511711 0 0.991042954
0.999572747 0 0.992477302
0 0 0
0 0 0
0 0 0
0 0 0
0 0 0
0 0 0
0 0 0
0 0 0
0.0401007095 0.00817883574 0.0135500114
0.0616922255 0.0117494469 0.0198062104
0.079453727 0.0143587396 0.024383917
0.0957961395 0.0165102617 0.0282139315
0.111406119 0.0180819409 0.0315861753
0.128206302 0.0198062104 0.0349431601
0.146746014 0.0213626307 0.0384527352
0.167147326 0.0228122377 0.0420843824
0.189532311 0.024383917 0.045975433
0.214007782 0.0256656748 0.0500801099
0.240726329 0.0268711376 0.054383154
0.270160983 0.0276493477 0.0589761196
0.30281529 0.0282139315 0.0639658198
0.338612955 0.0283970397 0.0692149233
0.377035172 0.0278324559 0.0748149844
0.417929351 0.0262760357 0.080857557
0.460822461 0.0234988937 0.0872663462
0.5054551 0.0180819409 0.0943160143
0.552529183 0 0.101899748
0.60202945 0 0.11046006
0.65273518 0 0.120210575
0.702464332 0 0.132082094
0.750102998 0 0.146120394
0.795666438 0 0.161669337
0.838727398 0 0.178896773
0.87862974 0 0.197924773
0.909437705 0 0.218753338
0.930983444 0 0.241596094
0.946471351 0 0.266803998
0.957900359 0 0.294682231
0.96646067 0 0.325444419
0.97300679 0 0.358617533
0.978072786 0 0.394140536
0.982040131 0 0.431723507
0.985198749 0 0.47113756
0.987716487 0 0.512260624
0.989761196 0 0.55585565
0.99142443 0 0.601983673
0.992797742 0 0.649790188
0.993926909 0 0.697703517
0.99485771 0 0.744426642
0.99563592 0 0.789379721
0.996292058 0 0.832104982
0.996841382 0 0.872022583
0.997314412 0 0.904539559
0.997695888 0 0.927290761
0.998031586 0 0.943663691
0.998321508 0 0.955718318
0.998565652 0 0.964766918
0.998764019 0 0.971663996
0.998947127 0 0.976989395
0.999099718 0 0.981170367
0.99922179 0 0.984496834
0.999328603 0 0.987151904
0.999435416 0 0.989288167
0.999511711 0 0.991042954
0.999572747 0 0.992477302
0 0 0
0 0 0
0 0 0
0 0 0
0 0 0
0 0 0
0 0 0
0 0 0
0.0385900664 0.0073853666 0.0131227588
0.060593576 0.0117494469 0.019531548
0.0784771496 0.0143587396 0.0241702907
0.0948958572 0.0161745632 0.0280308232
0.110536355 0.0180819409 0.0314183261
0.127382315 0.019531548 0.0347905699
0.145906767 0.0211184863 0.038315404
0.166369116 0.0228122377 0.0419623102
0.188845655 0.0241702907 0.0458533608
0.213321126 0.0256656748 0.0499580377
0.240085451 0.0266727703 0.0542763409
0.269550622 0.0276493477 0.0588845655
0.302235447 0.0282139315 0.0638590066
0.338078889 0.0283970397 0.0691081102
0.376546883 0.0278324559 0.0747234302
0.417486839 0.026474403 0.0807812619
0.460440986 0.0234988937 0.0872663462
0.505073625 0.0180819409 0.0942397192
0.552178225 0 0.101823453
0.601724269 0 0.110383764
0.652491035 0 0.120210575
0.702250706 0 0.132005798
0.74991989 0 0.146044099
0.795529107 0 0.161593042
0.838605325 0 0.178835737
0.878538186 0 0.197863737
0.909391928 0 0.218692302
0.930952926 0 0.241535058
0.946456092 0 0.266742962
0.9578851 0 0.294636454
0.966445411 0 0.325398642
0.972991531 0 0.358571756
0.978057527 0 0.394110018
0.982040131 0 0.431723507
0.98518349 0 0.471107042
0.987716487 0 0.512230106
0.989761196 0 0.55585565
0.99142443 0 0.601968414
0.992797742 0 0.649774929
0.993926909 0 0.697688258
0.99485771 0 0.744426642
0.99563592 0 0.789364462
0.996292058 0 0.832089723
0.996841382 0 0.872022583
0.997314412 0 0.904539559
0.997695888 0 0.927290761
0.998031586 0 0.943663691
0.998321508 0 0.955718318
0.998565652 0 0.964766918
0.998764019 0 0.971663996
0.998947127 0 0.976989395
0.999099718 0 0.981170367
0.99922179 0 0.984496834
0.999328603 0 0.987151904
0.999435416 0 0.989288167
0.999511711 0 0.991042954
0.999572747 0 0.992477302
0 0 0
0 0 0
0 0 0
0 0 0
0 0 0
0 0 0
0 0 0
0 0 0
0.0370183871 0.0073853666 0.0126802472
0.0594949264 0.0112458991 0.0192416266
0.0775005722 0.013962005 0.0239566644
0.0939040208 0.0161745632 0.0278324559
0.109605554 0.0177767605 0.0312504768
0.126497292 0.019531548 0.0346379797
0.145143816 0.0211184863 0.0381628138
0.165636683 0.0228122377 0.041824979
0.188113222 0.0241702907 0.0457312886
0.212680247 0.0254520485 0.0498512245
0.239490349 0.0266727703 0.0541695277
0.269001297 0.0276493477 0.0588845655
0.301655604 0.0282139315 0.0637674525
0.337544823 0.0283970397 0.069016556
0.376058595 0.0278324559 0.0746318761
0.417044327 0.026474403 0.0806897078
0.460044251 0.0234988937 0.0871747921
0.504722667 0.0180819409 0.0941481651
0.551857786 0 0.101823453
0.601434348 0 0.110307469
0.652231632 0 0.120149538
0.702037079 0 0.132005798
0.749736782 0 0.145983062
0.795391775 0 0.161593042
0.838498512 0 0.178835737
0.878446632 0 0.197802701
0.909330892 0 0.218631266
0.930907149 0 0.241489281
0.946440833 0 0.266697185
0.957869841 0 0.294590677
0.966445411 0 0.325352865
0.972991531 0 0.358571756
0.978057527 0 0.39406424
0.982040131 0 0.431677729
0.98518349 0 0.471076524
0.987716487 0 0.512199588
0.989761196 0 0.555825132
0.99142443 0 0.601937896
0.992797742 0 0.64975967
0.993926909 0 0.697688258
0.99485771 0 0.744411383
0.99563592 0 0.789364462
0.996292058 0 0.832089723
0.996841382 0 0.872022583
0.997314412 0 0.904539559
0.997695888 0 0.927290761
0.998031586 0 0.943663691
0.998321508 0 0.955718318
0.998565652 0 0.964751659
0.998764019 0 0.971663996
0.998947127 0 0.976989395
0.999099718 0 0.981170367
0.99922179 0 0.984496834
0.999328603 0 0.987151904
0.999435416 0 0.989288167
0.999511711 0 0.991042954
0.999572747 0 0.992477302
0 0 0
0 0 0
0 0 0
0 0 0
0 0 0
0 0 0
0 0 0
0 0 0
0.0354009308 0.0073853666 0.0117494469
0.0582589456 0.0112458991 0.0189669642
0.0764324407 0.013962005 0.023727779
0.0929884794 0.0161745632 0.0276493477
0.10873579 0.0177767605 0.0310826276
0.125688563 0.019531548 0.0344853895
0.144365606 0.0211184863 0.0380254826
0.164843214 0.0225833524 0.0417029068
0.187426566 0.0241702907 0.0456092164
0.211993591 0.0254520485 0.0497291524
0.23884947 0.0266727703 0.0540627146
0.268390936 0.0276493477 0.0587777523
0.301060502 0.0282139315 0.0636758984
0.336995499 0.0283970397 0.0689250019
0.375570306 0.0278324559 0.0746318761
0.416601816 0.026474403 0.0805981537
0.459647517 0.0234988937 0.087083238
0.50437171 0.0183871214 0.0941481651
0.551537346 0.00392156863 0.101747158
0.601144427 0 0.110231174
0.65195697 0 0.120073243
0.701838712 0 0.131944762
0.749568933 0 0.145906767
0.795239185 0 0.161532006
0.83837644 0 0.178774701
0.878355077 0 0.197741665
0.909269856 0 0.218585489
0.930876631 0 0.241489281
0.946425574 0 0.266651408
0.957854582 0 0.2945449
0.966430152 0 0.325307088
0.972991531 0 0.358541238
0.978057527 0 0.394033722
0.982024872 0 0.431647211
0.98518349 0 0.471046006
0.987716487 0 0.512199588
0.989761196 0 0.555794614
0.99142443 0 0.601937896
0.992797742 0 0.649729152
0.993926909 0 0.69765774
0.99485771 0 0.744396124
0.99563592 0 0.789364462
0.996292058 0 0.832089723
0.996841382 0 0.872007324
0.997314412 0 0.9045243
0.997695888 0 0.927290761
0.998031586 0 0.943663691
0.998321508 0 0.955718318
0.998565652 0 0.964751659
0.998764019 0 0.971648737
0.998947127 0 0.976989395
0.999099718 0 0.981170367
0.99922179 0 0.984496834
0.999328603 0 0.987151904
0.999435416 0 0.989288167
0.999511711 0 0.991042954
0.999572747 0 0.992477302
0.00889600977 0.0347905699 0.00392156863
0.0073853666 0.0310826276 0
0.00648508431 0.0270695048 0
0.00538643473 0.0223392081 0
0.00392156863 0.0158236057 0
0 0 0
0 0 0
0 0 0
0.0337071794 0.00648508431 0.0112458991
0.057129778 0.0112458991 0.0186770428
0.0754406043 0.013962005 0.0234988937
0.0920729381 0.0158236057 0.0274509804
0.107881285 0.0177767605 0.0308995193
0.124864576 0.019531548 0.0343327993
0.14352636 0.0211184863 0.0378881514
0.16412604 0.0225833524 0.0415655756
0.186678874 0.0241702907 0.0454871443
0.211352712 0.0254520485 0.0496223392
0.238193332 0.0266727703 0.0539559014
0.267765316 0.0276493477 0.0586709392
0.300526436 0.0282139315 0.0635690852
0.336461433 0.0283970397 0.0689250019
0.375082017 0.0278324559 0.074540322
0.416128786 0.026474403 0.0805981537
0.459220264 0.0234988937 0.087083238
0.503990234 0.0183871214 0.09407187
0.551201648 0.00392156863 0.101670863
0.600839246 0 0.110231174
0.651712825 0 0.119996948
0.701625086 0 0.131868467
0.749385824 0 0.145906767
0.795101854 0 0.161455711
0.838254368 0 0.178713664
0.878263523 0 0.197680629
0.909224079 0 0.218524453
0.930846113 0 0.241428244
0.946395056 0 0.266651408
0.957839322 0 0.2945449
0.966430152 0 0.325261311
0.972976272 0 0.35849546
0.978057527 0 0.394033722
0.982024872 0 0.431616693
0.98518349 0 0.471046006
0.987716487 0 0.51216907
0.989761196 0 0.555779355
0.99142443 0 0.601922637
0.992797742 0 0.649729152
0.993926909 0 0.697642481
0.99485771 0 0.744380865
0.99563592 0 0.789349203
0.996292058 0 0.832074464
0.996841382 0 0.872007324
0.997314412 0 0.9045243
0.997695888 0 0.927275502
0.998031586 0 0.943663691
0.998321508 0 0.955718318
0.998565652 0 0.964751659
0.998764019 0 0.971648737
0.998947127 0 0.976989395
0.999099718 0 0.981170367
0.99922179 0 0.984496834
0.999328603 0 0.987151904
0.999435416 0 0.989288167
0.999511711 0 0.991042954
0.999572747 0 0.992477302
0.0151064317 0.0680857557 0.00538643473
0.0147402152 0.0658884565 0.00538643473
0.0143587396 0.0637674525 0.00538643473
0.013962005 0.0614938582 0.00538643473
0.0135500114 0.0592813001 0.00538643473
0.0131227588 0.0569161517 0.00538643473
0.0126802472 0.0545967803 0.00538643473
0.0122224765 0.0522011139 0.00538643473
0.0367284657 0.048813611 0.0143587396
0.0612039368 0.045975433 0.0154726482
0.0802471962 0.0435034714 0.0147402152
0.0993209735 0.03900206 0.0203402762
0.117250324 0.0337071794 0.0252384222
0.134843977 0.028595407 0.0307316701
0.153093767 0.0230411231 0.0361486229
0.168993668 0.023727779 0.0406347753
0.186617838 0.0241702907 0.0452429999
0.210666056 0.0254520485 0.049500267
0.23759823 0.0266727703 0.0538490883
0.267154955 0.0276493477 0.0585793851
0.299946593 0.0282139315 0.0634775311
0.335927367 0.0283970397 0.0688334478
0.37457847 0.0278324559 0.0744487678
0.415686275 0.026474403 0.0805065995
0.458823529 0.0234988937 0.0870069429
0.503639277 0.0183871214 0.0939803159
0.550881209 0.00392156863 0.101670863
0.600549325 0 0.110154879
0.651468681 0 0.119996948
0.70141146 0 0.131792172
0.749217975 0 0.145845731
0.794949264 0 0.161394675
0.838147555 0 0.178652628
0.878187228 0 0.197680629
0.909178302 0 0.218524453
0.930815595 0 0.241382467
0.946379797 0 0.266590372
0.957824063 0 0.294499123
0.966414893 0 0.325261311
0.972976272 0 0.358449683
0.978042267 0 0.393987945
0.982024872 0 0.431616693
0.98518349 0 0.471015488
0.987716487 0 0.512138552
0.989761196 0 0.555748836
0.99142443 0 0.601892119
0.992797742 0 0.649713893
0.993926909 0 0.697627222
0.99485771 0 0.744365606
0.99563592 0 0.789333944
0.996292058 0 0.832059205
0.996841382 0 0.871992065
0.997314412 0 0.9045243
0.997695888 0 0.927275502
0.998031586 0 0.943663691
0.998321508 0 0.955718318
0.998565652 0 0.964751659
0.998764019 0 0.971648737
0.998947127 0 0.976989395
0.999099718 0 0.981170367
0.99922179 0 0.984496834
0.999328603 0 0.987151904
0.999435416 0 0.989288167
0.999511711 0 0.991042954
0.999572747 0 0.992477302
0.0189669642 0.09407187 0
0.0186770428 0.0921492332 0
0.0183871214 0.0903028916 0
0.0180819409 0.0883649958 0.00392156863
0.0180819409 0.086411841 0.00392156863
0.0177767605 0.0845197223 0.00392156863
0.0174715801 0.0825207904 0.00392156863
0.0171663996 0.0805981537 0.00392156863
0.0367284657 0.0778667887 0.0161745632
0.0630807965 0.0746318761 0.0211184863
0.0823529412 0.0725413901 0.0213626307
0.0998092622 0.0705119402 0.0208590829
0.116411078 0.0686503395 0.0174715801
0.134035248 0.0662699321 0.019531548
0.155611505 0.0614023041 0.0246128023
0.178835737 0.0556649119 0.0302128634
0.203875792 0.0485847257 0.0359960327
0.229053178 0.0413061723 0.0427405203
0.256305791 0.0312504768 0.0503089952
0.279758907 0.0296787976 0.0561837186
0.305256733 0.0291447318 0.0623941405
0.335393301 0.0283970397 0.0687418936
0.374090181 0.0278324559 0.0743572137
0.415243763 0.026474403 0.0804303044
0.458442054 0.023727779 0.0869153887
0.503288319 0.0183871214 0.0939040208
0.550530251 0.00392156863 0.101579309
0.600244144 0 0.110078584
0.651209277 0 0.119920653
0.701197833 0 0.131715877
0.749034867 0 0.145769436
0.794796674 0 0.161333639
0.838025483 0 0.178576333
0.878095674 0 0.197619593
0.909117266 0 0.218463416
0.930785077 0 0.241321431
0.946349279 0 0.266544594
0.957808804 0 0.294438087
0.966414893 0 0.325215534
0.972961013 0 0.358449683
0.978042267 0 0.393957427
0.982024872 0 0.431570916
0.98518349 0 0.47098497
0.987716487 0 0.512108034
0.989761196 0 0.555748836
0.99142443 0 0.601861601
0.992782483 0 0.649698634
0.993926909 0 0.697611963
0.99485771 0 0.744365606
0.99563592 0 0.789318685
0.996292058 0 0.832059205
0.996841382 0 0.871992065
0.997314412 0 0.904509041
0.997695888 0 0.927275502
0.998031586 0 0.943663691
0.998321508 0 0.955703059
0.998565652 0 0.964751659
0.998764019 0 0.971648737
0.998947127 0 0.976989395
0.999099718 0 0.981170367
0.99922179 0 0.984496834
0.999328603 0 0.987151904
0.999435416 0 0.989288167
0.999511711 0 0.991042954
0.999572747 0 0.992477302
0.0211184863 0.117708095 0
0.0211184863 0.115953307 0
0.0208590829 0.114183261 0
0.0208590829 0.112489509 0
0.0205996796 0.110704204 0
0.0203402762 0.108903639 0
0.0203402762 0.107087816 0
0.0200656138 0.105348287 0
0.0371709773 0.102555886 0.0174715801
0.0624856947 0.100053407 0.0220950637
0.0839093614 0.0969558251 0.0252384222
0.101503014 0.0949721523 0.0252384222
0.11808957 0.0931563287 0.0248264286
0.135912108 0.0910658427 0.0234988937
0.15553521 0.0887006943 0.0189669642
0.176668956 0.085725185 0.0203402762
0.202227817 0.0799877928 0.0266727703
0.229877165 0.0729991608 0.0322423133
0.260471504 0.0638590066 0.0391546502
0.291599908 0.0545967803 0.046692607
0.324940871 0.0432440681 0.0555580987
0.358068208 0.0315861753 0.0639658198
0.387426566 0.0298619059 0.0713511864
0.419165332 0.0270695048 0.0793621729
0.457999542 0.023727779 0.0868390936
0.502906844 0.0183871214 0.0939040208
0.550209812 0.00538643473 0.101503014
0.599954223 0 0.110078584
0.650949874 0 0.119844358
0.700999466 0 0.131715877
0.748867018 0 0.145693141
0.794659342 0 0.161333639
0.83790341 0 0.178576333
0.87800412 0 0.197558556
0.909071489 0 0.21840238
0.930754559 0 0.241275654
0.94633402 0 0.266498817
0.957793545 0 0.294392309
0.966399634 0 0.325169757
0.972961013 0 0.358403906
0.978042267 0 0.39391165
0.982024872 0 0.431540398
0.98518349 0 0.470954452
0.987716487 0 0.512077516
0.989761196 0 0.555718318
0.99142443 0 0.601846342
0.992782483 0 0.649668116
0.993926909 0 0.697611963
0.99485771 0 0.744350347
0.99563592 0 0.789303426
0.996292058 0 0.832059205
0.996841382 0 0.871992065
0.997314412 0 0.904509041
0.997695888 0 0.927275502
0.998031586 0 0.943663691
0.998321508 0 0.955703059
0.998565652 0 0.964751659
0.998764019 0 0.971648737
0.998947127 0 0.976989395
0.999099718 0 0.981170367
0.99922179 0 0.984496834
0.999328603 0 0.987151904
0.999435416 0 0.989288167
0.999511711 0 0.991042954
0.999572747 0 0.992477302
0.0228122377 0.139772641 0
0.0225833524 0.138139925 0
0.0225833524 0.136491951 0
0.0223392081 0.134843977 0
0.0223392081 0.133165484 0
0.0220950637 0.131502251 0
0.0220950637 0.129823758 0
0.0220950637 0.128130007 0
0.0367284657 0.125535973 0.0158236057
0.0620889601 0.123155566 0.0220950637
0.0835584039 0.120210575 0.0258640421
0.102784771 0.117555505 0.0280308232
0.119615473 0.115648127 0.0280308232
0.137346456 0.113649195 0.0270695048
0.157030594 0.11123827 0.0262760357
0.178454261 0.108659495 0.0220950637
0.201861601 0.105577173 0.0158236057
0.22761883 0.10093843 0.0223392081
0.258701457 0.0928206302 0.0293278401
0.291950866 0.0835584039 0.0368810559
0.328831922 0.0715342947 0.0445105669
0.365316243 0.0595864805 0.0536202029
0.403540093 0.0441290913 0.0644541085
0.439520867 0.0298619059 0.0740825513
0.471976806 0.0256656748 0.0828717479
0.506569009 0.0192416266 0.092652781
0.549858854 0.00538643473 0.101503014
0.599664302 0 0.110002289
0.650690471 0 0.119844358
0.700770581 0 0.131639582
0.748683909 0 0.145632105
0.794506752 0 0.161257343
0.837796597 0 0.178515297
0.877912566 0 0.19749752
0.909010452 0 0.218356603
0.930724041 0 0.241275654
0.946318761 0 0.266437781
0.957778286 0 0.294346532
0.966399634 0 0.32512398
0.972961013 0 0.358358129
0.978042267 0 0.393865873
0.982024872 0 0.43150988
0.98518349 0 0.470954452
0.987701228 0 0.512077516
0.989745937 0 0.5556878
0.99142443 0 0.601846342
0.992782483 0 0.649652857
0.993926909 0 0.697596704
0.99485771 0 0.744335088
0.99563592 0 0.789303426
0.996292058 0 0.832043946
0.996841382 0 0.871976806
0.997314412 0 0.904509041
0.997695888 0 0.927275502
0.998031586 0 0.943648432
0.998321508 0 0.955703059
0.998565652 0 0.964751659
0.998764019 0 0.971648737
0.998947127 0 0.976989395
0.999099718 0 0.981170367
0.99922179 0 0.984496834
0.999328603 0 0.987151904
0.999435416 0 0.989288167
0.999511711 0 0.991042954
0.999572747 0 0.992477302
0.023727779 0.160799573 0
0.0234988937 0.159258412 0
0.0234988937 0.157701991 0
0.0234988937 0.156145571 0
0.0234988937 0.154589151 0
0.0232700084 0.153017472 0
0.0232700084 0.151445792 0
0.0232700084 0.149858854 0
0.0354009308 0.14743267 0.0107118334
0.0616922255 0.145006485 0.0211184863
0.0824292363 0.142610819 0.0254520485
0.102632181 0.139635309 0.0282139315
0.120668345 0.137071794 0.0298619059
0.138780804 0.135057603 0.0296787976
0.158251316 0.132875563 0.0283970397
0.179919127 0.130037385 0.0274509804
0.20328069 0.127168688 0.0230411231
0.228885328 0.123674372 0.0131227588
0.25647364 0.119081407 0.0174715801
0.290226596 0.11046006 0.0270695048
0.327183948 0.100053407 0.0343327993
0.367360952 0.086411841 0.0433813993
0.407446403 0.0719920653 0.052979324
0.44774548 0.0554512856 0.0645456626
0.489662013 0.0296787976 0.077332723
0.523430228 0.0223392081 0.0872663462
0.559578851 0.0101472496 0.0981002518
0.599343862 0 0.109910735
0.650431067 0 0.119768063
0.700556954 0 0.131578546
0.74851606 0 0.145632105
0.794369421 0 0.161196307
0.837674525 0 0.178454261
0.877821012 0 0.197436484
0.908964675 0 0.218295567
0.930678264 0 0.241214618
0.946288243 0 0.266437781
0.957778286 0 0.294346532
0.966384375 0 0.325078202
0.972945754 0 0.358327611
0.978027008 0 0.393865873
0.982009613 0 0.431479362
0.98518349 0 0.470923934
0.987701228 0 0.512046998
0.989745937 0 0.555672541
0.99142443 0 0.601815824
0.992782483 0 0.649652857
0.99391165 0 0.697581445
0.99485771 0 0.744319829
0.99563592 0 0.789303426
0.996292058 0 0.832028687
0.996841382 0 0.871961547
0.997314412 0 0.904509041
0.997695888 0 0.927275502
0.998031586 0 0.943648432
0.998321508 0 0.955703059
0.998565652 0 0.964751659
0.998764019 0 0.971648737
0.998947127 0 0.976989395
0.999099718 0 0.981170367
0.99922179 0 0.984496834
0.999328603 0 0.987151904
0.999435416 0 0.989288167
0.999511711 0 0.991042954
0.999572747 0 0.992477302
0.0241702907 0.183321889 0
0.0239566644 0.181872282 0
0.0239566644 0.180361639 0
0.0239566644 0.178896773 0
0.0239566644 0.177431907 0
