Luts/Hasselblad/Hasselblad_Nature_Phocus_X2D_VLog_65.cube
TITLE "Hasselblad Nature Phocus X2D ColorCorrect from V-Log"
#LUMIXPHOTOSTYLE VLOG
# INPUT_COLORSPACE Panasonic V-Log / V-Gamut
# OUTPUT_COLORSPACE Hasselblad RGB / D50 / Phocus film-curve code values
LUT_3D_SIZE 65
0 0 0
0 0 0
0 0 0
0 0 0
0 0 0
0 0 0
0 0 0
0 0 0
0.0237735561 0.00407415885 0.00694285496
0.0372320134 0.00569161517 0.0101014725
0.0497749294 0.00694285496 0.0124666209
0.0622262913 0.0080109865 0.0144350347
0.0748302434 0.00880445563 0.0163271534
0.0890363928 0.0096894789 0.0182497902
0.1054551 0.0103761349 0.0203097581
0.124345769 0.0112764172 0.0225223163
0.145998322 0.0120088502 0.0249179828
0.170580606 0.0127107652 0.0275120165
0.198428321 0.0133669032 0.0303196765
0.230167086 0.0139009689 0.0333714809
0.266514076 0.0142214084 0.0366826886
0.307392996 0.0142214084 0.0403601129
0.352285039 0.0139009689 0.0443732357
0.400885023 0.0130464637 0.048798352
0.452475776 0.0113984894 0.05366598
0.506477455 0.0084992752 0.0590524147
0.563439384 0 0.0650492103
0.622858015 0 0.0720073243
0.682597086 0 0.080155642
0.739559014 0 0.0904402228
0.792065309 0 0.102876326
0.839749752 0 0.117250324
0.881925689 0 0.133623255
0.917845426 0 0.152346075
0.943022812 0 0.173510338
0.95912108 0 0.197451743
0.969817655 0 0.224628061
0.977187762 0 0.255527581
0.982406348 0 0.290455482
0.986205844 0 0.328984512
0.989028763 0 0.370901045
0.991180285 0 0.415960937
0.99282826 0 0.463584344
0.994110018 0 0.513481346
0.995147631 0 0.566369116
0.995956359 0 0.621789883
0.996627756 0 0.678324559
0.997177081 0 0.733531701
0.997619593 0 0.785412375
0.997985809 0 0.83291371
0.99829099 0 0.875333791
0.998550393 0 0.911909667
0.998779278 0 0.939055467
0.998947127 0 0.956389715
0.999099718 0 0.967895018
0.999237049 0 0.975799191
0.999343862 0 0.981383993
0.999435416 0 0.985427634
0.99952697 0 0.988433661
0.999588006 0 0.990707256
0.999649042 0 0.992462043
0.99969482 0 0.993820096
0.999740597 0 0.994903487
0.999786374 0 0.995773251
0.999801633 0 0.996475166
0 0 0
0 0 0
0 0 0
0 0 0
0 0 0
0 0 0
0 0 0
0 0 0
0.0229190509 0.00372320134 0.00674448768
0.0364843214 0.00569161517 0.0098268101
0.0490577554 0.00694285496 0.0122529946
0.0615091173 0.00784313725 0.0143434806
0.0740520333 0.00880445563 0.0162355993
0.0883344778 0.00955214771 0.0181582361
0.104707408 0.0103761349 0.020233463
0.123613336 0.0112764172 0.0224307622
0.145265888 0.0120088502 0.0248416876
0.169878691 0.0127107652 0.0274509804
0.197741665 0.0133669032 0.0302433814
0.229541466 0.0139009689 0.0333104448
0.265857939 0.0142214084 0.0366826886
0.306767376 0.0142214084 0.0403601129
0.351705196 0.0139009689 0.0443732357
0.400289921 0.0130464637 0.0487373159
0.451987488 0.0113984894 0.0536202029
0.506050202 0.00865186542 0.0589761196
0.563042649 0 0.0649881743
0.622522316 0 0.0719462882
0.682322423 0 0.080155642
0.739345388 0 0.0903791867
0.7918822 0 0.102800031
0.839612421 0 0.117189288
0.881803616 0 0.133623255
0.917769131 0 0.152285039
0.942992294 0 0.173449302
0.959105821 0 0.197390707
0.969802396 0 0.224582284
0.977172503 0 0.255481804
0.982406348 0 0.290394446
0.986205844 0 0.328953994
0.989028763 0 0.370870527
0.991165026 0 0.41591516
0.99282826 0 0.463553826
0.994110018 0 0.513481346
0.995147631 0 0.566323339
0.995956359 0 0.621789883
0.996627756 0 0.6783093
0.997177081 0 0.733516442
0.997619593 0 0.785397116
0.997985809 0 0.832898451
0.99829099 0 0.875318532
0.998550393 0 0.911894408
0.998779278 0 0.939055467
0.998947127 0 0.956389715
0.999099718 0 0.967895018
0.999237049 0 0.975799191
0.999343862 0 0.981383993
0.999435416 0 0.985427634
0.99952697 0 0.988433661
0.999588006 0 0.990707256
0.999649042 0 0.992462043
0.99969482 0 0.993820096
0.999740597 0 0.994903487
0.999786374 0 0.995773251
0.999801633 0 0.996475166
0 0 0
0 0 0
0 0 0
0 0 0
0 0 0
0 0 0
0 0 0
0 0 0
0.0220340276 0.00372320134 0.00654612039
0.0357518883 0.00544747082 0.0096894789
0.0483558404 0.00674448768 0.0121309224
0.0608072023 0.00784313725 0.0142214084
0.0733653773 0.00865186542 0.0161287861
0.0875715267 0.00955214771 0.0180666819
0.104005493 0.0103761349 0.0201571679
0.12292668 0.011154345 0.0223544671
0.144609751 0.0120088502 0.0247653925
0.169176776 0.0127107652 0.0273746853
0.197116045 0.0133669032 0.0301670863
0.228870069 0.0138094148 0.0332341497
0.265232319 0.0142214084 0.0366216526
0.306157015 0.0142214084 0.0402990768
0.351155871 0.0139009689 0.0442969406
0.399786374 0.0130464637 0.0486610208
0.451514458 0.0115205615 0.0535439078
0.505577173 0.00865186542 0.0589150835
0.562615396 0 0.0649881743
0.622140841 0 0.0718699931
0.682032502 0 0.0800946059
0.739101244 0 0.0903181506
0.791683833 0 0.102800031
0.839459831 0 0.117128252
0.881681544 0 0.13354696
0.917692836 0 0.152224002
0.942946517 0 0.173403525
0.959075303 0 0.197390707
0.969802396 0 0.224582284
0.977172503 0 0.255481804
0.982406348 0 0.290348669
0.986205844 0 0.328892958
0.989028763 0 0.370870527
0.991165026 0 0.415869383
0.99282826 0 0.463553826
0.994110018 0 0.513435569
0.995147631 0 0.566292821
0.995956359 0 0.621774624
0.996627756 0 0.6783093
0.997177081 0 0.733485924
0.997619593 0 0.785366598
0.997985809 0 0.832898451
0.99829099 0 0.875303273
0.998550393 0 0.911894408
0.998779278 0 0.939055467
0.998947127 0 0.956389715
0.999099718 0 0.967895018
0.999237049 0 0.975799191
0.999343862 0 0.981383993
0.999435416 0 0.985427634
0.99952697 0 0.988433661
0.999588006 0 0.990707256
0.999649042 0 0.992462043
0.99969482 0 0.993820096
0.999740597 0 0.994903487
0.999786374 0 0.995773251
0.999801633 0 0.996475166
0 0 0
0 0 0
0 0 0
0 0 0
0 0 0
0 0 0
0 0 0
0 0 0
0.0210574502 0.00372320134 0.00634775311
0.0350041962 0.00544747082 0.00955214771
0.0476234073 0.00674448768 0.0120088502
0.0600747692 0.00784313725 0.0141145953
0.0726634623 0.00865186542 0.016037232
0.0868696117 0.00955214771 0.0179903868
0.103318837 0.0103761349 0.0200656138
0.122224765 0.011154345 0.022278172
0.143877317 0.0120088502 0.0246890974
0.168520638 0.0127107652 0.0272983902
0.19641413 0.0133669032 0.0301060502
0.228198672 0.0138094148 0.0331578546
0.264576181 0.0141145953 0.0365606165
0.305531395 0.0142214084 0.0402227817
0.350514992 0.0139009689 0.0442359045
0.399252308 0.0130464637 0.0486610208
0.450995651 0.0115205615 0.0534828717
0.50514992 0.00865186542 0.0589150835
0.56224918 0 0.0649271382
0.621789883 0 0.0718699931
0.681712062 0 0.0800183108
0.738857099 0 0.0902418555
0.791500725 0 0.102754253
0.83930724 0 0.117067216
0.88158999 0 0.133485924
0.917616541 0 0.152224002
0.94290074 0 0.173403525
0.959060044 0 0.19734493
0.969771878 0 0.224521248
0.977172503 0 0.255420768
0.982391089 0 0.290348669
0.986205844 0 0.328847181
0.989028763 0 0.370809491
0.991165026 0 0.415838865
0.99282826 0 0.46349279
0.994110018 0 0.51342031
0.995147631 0 0.566277562
0.995956359 0 0.621728847
0.996627756 0 0.678278782
0.997177081 0 0.733470665
0.997619593 0 0.785351339
0.997985809 0 0.832883192
0.99829099 0 0.875303273
0.998550393 0 0.911894408
0.998779278 0 0.939055467
0.998947127 0 0.956389715
0.999099718 0 0.967895018
0.999237049 0 0.975799191
0.999343862 0 0.981383993
0.999435416 0 0.985427634
0.99952697 0 0.988433661
0.999588006 0 0.990707256
0.999649042 0 0.992462043
0.99969482 0 0.993820096
0.999740597 0 0.994903487
0.999786374 0 0.995773251
0.999801633 0 0.996475166
0 0 0
0 0 0
0 0 0
0 0 0
0 0 0
0 0 0
0 0 0
0 0 0
0.0201571679 0.00335698482 0.0061341268
0.0342565042 0.00544747082 0.00941481651
0.0469062333 0.00674448768 0.0118867781
0.0593728542 0.00767528801 0.0140230411
0.0719462882 0.00865186542 0.0159456779
0.0861676967 0.00941481651 0.0178988327
0.102555886 0.0102388037 0.0199893187
0.121492332 0.011154345 0.0222018769
0.143205921 0.0118867781 0.0246128023
0.167818723 0.0127107652 0.0272220951
0.195727474 0.01326009 0.0300297551
0.227527276 0.0138094148 0.0330968185
0.263920043 0.0141145953 0.0364843214
0.304921035 0.0142214084 0.0401464866
0.349935149 0.0139009689 0.0441748684
0.398718242 0.0131532769 0.0486152438
0.450522621 0.0115205615 0.0534828717
0.504692149 0.00865186542 0.0588693065
0.561821927 0 0.0648661021
0.621423667 0 0.071808957
0.681422141 0 0.0800183108
0.738612955 0 0.0901808194
0.791302358 0 0.102677958
0.839169909 0 0.11700618
0.881467918 0 0.133424887
0.917540246 0 0.152162966
0.942870222 0 0.173342489
0.959029526 0 0.197268635
0.969771878 0 0.224460212
0.977157244 0 0.255359731
0.98237583 0 0.290287633
0.986190585 0 0.328786145
0.989013504 0 0.370778973
0.991165026 0 0.415838865
0.992813001 0 0.463447013
0.994110018 0 0.513389792
0.995147631 0 0.566277562
0.995956359 0 0.621713588
0.996627756 0 0.678248264
0.997177081 0 0.733455406
0.997619593 0 0.785351339
0.997985809 0 0.832867933
0.99829099 0 0.875288014
0.998550393 0 0.911894408
0.998779278 0 0.939055467
0.998947127 0 0.956389715
0.999099718 0 0.967895018
0.999237049 0 0.975799191
0.999343862 0 0.981383993
0.999435416 0 0.985427634
0.99952697 0 0.988433661
0.999588006 0 0.990707256
0.999649042 0 0.992462043
0.99969482 0 0.993820096
0.999740597 0 0.994903487
0.999786374 0 0.995773251
0.999801633 0 0.996475166
0 0 0
0 0 0
0 0 0
0 0 0
0 0 0
0 0 0
0 0 0
0 0 0
0.0192111086 0.00335698482 0.00590524147
0.0335088121 0.00520332647 0.00926222629
0.0461890593 0.00654612039 0.0117647059
0.0585946441 0.00767528801 0.0139009689
0.0711680781 0.0084992752 0.0158388647
0.0853894865 0.00941481651 0.0178072786
0.10186923 0.0102388037 0.0198977646
0.120805676 0.011154345 0.0221103227
0.142488746 0.0118867781 0.0245365072
0.167162585 0.0125886931 0.027161059
0.195101854 0.01326009 0.02995346
0.226932174 0.0138094148 0.0330968185
0.263263905 0.0141145953 0.0364232853
0.304295415 0.0142214084 0.0400854505
0.349370565 0.0139009689 0.0440985733
0.398184176 0.0131532769 0.0485389487
0.450049592 0.0115205615 0.0534218357
0.504264897 0.00865186542 0.0587930114
0.561440452 0 0.0648661021
0.621072709 0 0.071747921
0.681132219 0 0.0799725338
0.73838407 0 0.0901808194
0.79110399 0 0.102616922
0.839032578 0 0.11700618
0.881376364 0 0.133424887
0.917463951 0 0.15210193
0.942824445 0 0.173281453
0.958999008 0 0.197222858
0.969756619 0 0.224414435
0.977141985 0 0.255313954
0.98237583 0 0.290241855
0.986190585 0 0.328786145
0.989013504 0 0.370717937
0.991165026 0 0.415777829
0.992813001 0 0.463416495
0.994110018 0 0.513344015
0.995147631 0 0.566231785
0.995956359 0 0.62168307
0.996627756 0 0.678233005
0.997177081 0 0.733455406
0.997619593 0 0.78533608
0.997985809 0 0.832867933
0.99829099 0 0.875288014
0.998550393 0 0.911894408
0.998779278 0 0.939055467
0.998947127 0 0.956389715
0.999099718 0 0.967895018
0.999237049 0 0.975799191
0.999343862 0 0.981368734
0.999435416 0 0.985427634
0.99952697 0 0.988433661
0.999588006 0 0.990707256
0.999649042 0 0.992462043
0.99969482 0 0.993820096
0.999740597 0 0.994903487
0.999786374 0 0.995773251
0.999801633 0 0.996475166
0 0 0
0 0 0
0 0 0
0 0 0
0 0 0
0 0 0
0 0 0
0 0 0
0.0182497902 0.00335698482 0.00544747082
0.0326695659 0.00520332647 0.00910963607
0.0454108492 0.00654612039 0.0116426337
0.0578927291 0.00767528801 0.0138094148
0.0704661631 0.0084992752 0.0157473106
0.0847028305 0.00941481651 0.0177157244
0.101167315 0.0102388037 0.0198062104
0.120057984 0.0110322728 0.0220340276
0.14181735 0.0118867781 0.0244602121
0.16646067 0.0125886931 0.0270695048
0.194430457 0.01326009 0.0298924239
0.226260777 0.0138094148 0.0330205234
0.262592508 0.0141145953 0.0363622492
0.303669795 0.0142214084 0.0400244144
0.348790723 0.0139009689 0.0440985733
0.39766537 0.0131532769 0.0484779126
0.449561303 0.0115205615 0.0533455406
0.503837644 0.00880445563 0.0587930114
0.561043717 0.00175478752 0.064805066
0.620737011 0 0.0716868849
0.68081178 0 0.0799114977
0.738155184 0 0.0901350423
0.790920882 0 0.102555886
0.838879988 0 0.116945144
0.881254292 0 0.133363851
0.917372396 0 0.152040894
0.942778668 0 0.173220417
0.958983749 0 0.197222858
0.96974136 0 0.224353399
0.977141985 0 0.255268177
0.98237583 0 0.290196078
0.986190585 0 0.328755627
0.989013504 0 0.370687419
0.991165026 0 0.415747311
0.992813001 0 0.463385977
0.994110018 0 0.513344015
0.995147631 0 0.566201266
0.995956359 0 0.62168307
0.996627756 0 0.678202487
0.997177081 0 0.733424887
0.997619593 0 0.785320821
0.997985809 0 0.832867933
0.99829099 0 0.875288014
0.998550393 0 0.911879149
0.998779278 0 0.939040208
0.998947127 0 0.956389715
0.999099718 0 0.967895018
0.999237049 0 0.975799191
0.999343862 0 0.981368734
0.999435416 0 0.985427634
0.99952697 0 0.988433661
0.999588006 0 0.990707256
0.999649042 0 0.992462043
0.99969482 0 0.993820096
0.999740597 0 0.994903487
0.999786374 0 0.995773251
0.999801633 0 0.996475166
0.00407415885 0.0178988327 0.00175478752
0.00335698482 0.0157473106 0
0.0029297322 0.0134889754 0
0.00242618448 0.0108949416 0
0.00175478752 0.00749217975 0
0 0 0
0 0 0
0 0 0
0.0172579538 0.0029297322 0.00520332647
0.0319218738 0.00520332647 0.00895704585
0.0446936751 0.00654612039 0.0115205615
0.057175555 0.00749217975 0.0137026017
0.0697642481 0.0084992752 0.0156404974
0.0839856565 0.00941481651 0.0176241703
0.100404364 0.0102388037 0.0197299153
0.119371328 0.0110322728 0.0219577325
0.141069657 0.0118867781 0.024383917
0.165804532 0.0125886931 0.0270084688
0.193728542 0.01326009 0.0298161288
0.225574121 0.0138094148 0.0329594873
0.261982147 0.0141145953 0.0362859541
0.303044175 0.0142214084 0.0400244144
0.34821088 0.0139009689 0.0440375372
0.397085527 0.0131532769 0.0484779126
0.449042496 0.0115205615 0.0533455406
0.503379873 0.00880445563 0.0587319753
0.560646983 0.00175478752 0.0647440299
0.620370794 0 0.0716868849
0.680521859 0 0.0798352026
0.73791104 0 0.0900587472
0.790722515 0 0.102555886
0.838742657 0 0.116868849
0.881147478 0 0.133302815
0.917296101 0 0.151979858
0.942732891 0 0.17315938
0.958953231 0 0.197161822
0.969726101 0 0.224353399
0.977126726 0 0.255268177
0.98237583 0 0.290135042
0.986175326 0 0.328694591
0.989013504 0 0.370687419
0.991165026 0 0.415701534
0.992813001 0 0.463385977
0.994110018 0 0.513313497
0.995147631 0 0.566186007
0.995956359 0 0.621667811
0.996627756 0 0.678202487
0.997177081 0 0.733409628
0.997619593 0 0.785305562
0.997985809 0 0.832852674
0.99829099 0 0.875272755
0.998550393 0 0.911879149
0.998779278 0 0.939040208
0.998947127 0 0.956374456
0.999099718 0 0.967895018
0.999237049 0 0.975799191
0.999343862 0 0.981368734
0.999435416 0 0.985427634
0.99952697 0 0.988433661
0.999588006 0 0.990707256
0.999649042 0 0.992462043
0.99969482 0 0.993820096
0.999740597 0 0.994903487
0.999786374 0 0.995773251
0.999801633 0 0.996475166
0.00712596323 0.0394293126 0.00242618448
0.00694285496 0.0378881514 0.00242618448
0.00674448768 0.0364232853 0.00242618448
0.00654612039 0.034866865 0.00242618448
0.00634775311 0.0333714809 0.00242618448
0.0061341268 0.0317845426 0.00242618448
0.00590524147 0.0302433814 0.00242618448
0.00569161517 0.0286717021 0.00242618448
0.0190432593 0.026489662 0.00674448768
0.0346684977 0.0246890974 0.00730907149
0.0482185092 0.0231479362 0.00694285496
0.0628671702 0.0204013123 0.0098268101
0.0775310903 0.0172579538 0.0124666209
0.09266804 0.0143434806 0.0155489433
0.109117266 0.0112764172 0.0186923018
0.123979553 0.0116426337 0.0213931487
0.141008621 0.0118867781 0.0242313268
0.165102617 0.0125886931 0.0269321736
0.193102922 0.01326009 0.0297550927
0.224917983 0.0138094148 0.0328984512
0.261341268 0.0141145953 0.036224918
0.302433814 0.0142214084 0.0399633783
0.347615778 0.0139009689 0.0439765011
0.39656672 0.0131532769 0.0484016175
0.448569467 0.0115205615 0.0532845045
0.502952621 0.00880445563 0.0586556802
0.560250248 0.00175478752 0.0647440299
0.620019837 0 0.0716258488
0.680231937 0 0.0798352026
0.737666896 0 0.0899977111
0.790539406 0 0.10249485
0.838574807 0 0.116807813
0.881040665 0 0.133257038
0.917235065 0 0.151979858
0.942702373 0 0.17315938
0.958937972 0 0.197116045
0.969710842 0 0.224292363
0.977126726 0 0.255207141
0.982360571 0 0.290135042
0.986175326 0 0.328648814
0.989013504 0 0.370626383
0.991165026 0 0.415701534
0.992813001 0 0.4633402
0.994110018 0 0.51326772
0.995147631 0 0.56614023
0.995956359 0 0.621622034
0.996627756 0 0.678187228
0.997177081 0 0.733394369
0.997619593 0 0.785290303
0.997985809 0 0.832837415
0.99829099 0 0.875257496
0.998550393 0 0.91186389
0.998779278 0 0.939040208
0.998947127 0 0.956374456
0.999099718 0 0.967895018
0.999237049 0 0.975799191
0.999343862 0 0.981368734
0.999435416 0 0.985427634
0.99952697 0 0.988433661
0.999588006 0 0.990707256
0.999649042 0 0.992462043
0.99969482 0 0.993820096
0.999740597 0 0.994903487
0.999786374 0 0.995773251
0.999801633 0 0.996475166
0.00910963607 0.0587319753 0
0.00895704585 0.0572365911 0
0.00880445563 0.0558175021 0
0.00865186542 0.054322118 0.00175478752
0.00865186542 0.0528419928 0.00175478752
0.0084992752 0.0514076448 0.00175478752
0.00833142596 0.0499122606 0.00175478752
0.00817883574 0.0484779126 0.00175478752
0.0190432593 0.0464637217 0.00767528801
0.0359502556 0.0440985733 0.0102388037
0.0497749294 0.0426031891 0.0103761349
0.0632486458 0.0411535821 0.0101014725
0.0768139162 0.0398260472 0.00833142596
0.091966125 0.0381628138 0.00941481651
0.111436637 0.0348058289 0.0121309224
0.133424887 0.0309300374 0.0152437629
0.158205539 0.0263370718 0.0186007477
0.184100099 0.0218051423 0.0226749065
0.2131075 0.0158388647 0.0274509804
0.238788434 0.0149538415 0.0312962539
0.267322805 0.014648661 0.0354772259
0.301808194 0.0142214084 0.0398870832
0.347035935 0.0139009689 0.043900206
0.396032654 0.0131532769 0.0483558404
0.448111696 0.0116426337 0.0532234684
0.502525368 0.00880445563 0.0585946441
0.559838254 0.00175478752 0.0646677348
0.61965362 0 0.0715648127
0.679926757 0 0.0797741665
0.737422751 0 0.089921416
0.790341039 0 0.102433814
0.838422217 0 0.116762036
0.880918593 0 0.133180743
0.91715877 0 0.151918822
0.942656596 0 0.173098344
0.958907454 0 0.197055009
0.969695583 0 0.224246586
0.977111467 0 0.255146105
0.982360571 0 0.290089265
0.986175326 0 0.328648814
0.989013504 0 0.370595865
0.991165026 0 0.415655756
0.992813001 0 0.463309682
0.994110018 0 0.513237201
0.995147631 0 0.56614023
0.995956359 0 0.621591516
0.996627756 0 0.678171969
0.997177081 0 0.73337911
0.997619593 0 0.785290303
0.997985809 0 0.832822156
0.99829099 0 0.875257496
0.998550393 0 0.91186389
0.998779278 0 0.939024949
0.998947127 0 0.956374456
0.999099718 0 0.967895018
0.999237049 0 0.975783932
0.999343862 0 0.981368734
0.999435416 0 0.985427634
0.99952697 0 0.988433661
0.999588006 0 0.990707256
0.999649042 0 0.992462043
0.99969482 0 0.993820096
0.999740597 0 0.994903487
0.999786374 0 0.995773251
0.999801633 0 0.996475166
0.0102388037 0.0779125658 0
0.0102388037 0.0764324407 0
0.0101014725 0.0749523156 0
0.0101014725 0.0735484855 0
0.0099641413 0.0720836194 0
0.0098268101 0.0706034943 0
0.0098268101 0.0691081102 0
0.0096894789 0.0677042802 0
0.0193026627 0.0654459449 0.00833142596
0.035538262 0.063447013 0.0107728695
0.0509498741 0.0609903105 0.0124666209
0.0646066987 0.0594338903 0.0124666209
0.0782330053 0.0580148013 0.0122529946
0.0936140993 0.0563973449 0.0115205615
0.111360342 0.0545815213 0.00910963607
0.131334401 0.0523231861 0.0098268101
0.156542306 0.0480201419 0.01326009
0.184969863 0.0429236286 0.0164187076
0.21762417 0.0364843214 0.0204928664
0.25195697 0.0302433814 0.0251468681
0.289768826 0.022995346 0.0308690013
0.328191043 0.016037232 0.0365606165
0.362829023 0.0150453956 0.0417486839
0.400732433 0.0134889754 0.0475623713
0.44757763 0.0116426337 0.0531624323
0.502067597 0.00880445563 0.0585946441
0.55944152 0.00242618448 0.0646066987
0.619302663 0 0.0715648127
0.679621576 0 0.0797131304
0.737209125 0 0.089921416
0.79017319 0 0.102357519
0.838284886 0 0.116762036
0.88081178 0 0.133180743
0.917082475 0 0.151857786
0.942626078 0 0.173037308
0.958892195 0 0.196993973
0.969680323 0 0.224200809
0.977096208 0 0.255085069
0.982360571 0 0.290028229
0.986175326 0 0.328587778
0.989013504 0 0.370534829
0.991165026 0 0.415609979
0.992813001 0 0.463263905
0.994110018 0 0.513206683
0.995147631 0 0.566109712
0.995956359 0 0.621576257
0.996627756 0 0.678126192
0.997177081 0 0.73337911
0.997619593 0 0.785275044
0.997985809 0 0.832806897
0.99829099 0 0.875257496
0.998550393 0 0.91186389
0.998779278 0 0.939024949
0.998947127 0 0.956374456
0.999099718 0 0.967895018
0.999237049 0 0.975783932
0.999343862 0 0.981368734
0.999435416 0 0.985427634
0.99952697 0 0.988433661
0.999588006 0 0.990707256
0.999649042 0 0.992462043
0.99969482 0 0.993820096
0.999740597 0 0.994903487
0.999786374 0 0.995773251
0.999801633 0 0.996475166
0.011154345 0.0970473793 0
0.0110322728 0.0955825132 0
0.0110322728 0.0941329061 0
0.0108949416 0.09266804 0
0.0108949416 0.0912031739 0
0.0107728695 0.0897383078 0
0.0107728695 0.0882734417 0
0.0107728695 0.0868085756 0
0.0190432593 0.0845654994 0.00749217975
0.0352788586 0.0825360494 0.0107728695
0.0506904707 0.0800183108 0.0128175784
0.0656290532 0.0777752346 0.0140230411
0.0795147631 0.0761882963 0.0140230411
0.0948805982 0.0745098039 0.0134889754
0.112748913 0.0725108721 0.0130464637
0.133058671 0.070405127 0.0107728695
0.156176089 0.0678873884 0.00749217975
0.182604715 0.0641489281 0.0108949416
0.215701534 0.0577553979 0.0147554742
0.252353704 0.0506904707 0.0191348135
0.294239719 0.0418707561 0.0237735561
0.336705577 0.0335698482 0.0296025025
0.382024872 0.0235446708 0.0368810559
0.425238422 0.0150453956 0.0437018387
0.464515145 0.0127107652 0.050171664
0.506507973 0.00926222629 0.0576333257
0.559014267 0.00242618448 0.0646066987
0.618966964 0 0.0715037766
0.679331655 0 0.0797131304
0.736949722 0 0.0898603799
0.789974823 0 0.102311742
0.838132296 0 0.11668574
0.880704967 0 0.133119707
0.916990921 0 0.15179675
0.942580301 0 0.172991531
0.958861677 0 0.196993973
0.969680323 0 0.224124514
0.977096208 0 0.255039292
0.982360571 0 0.289982452
0.986175326 0 0.328542
0.989013504 0 0.370489052
0.991165026 0 0.415579461
0.992813001 0 0.463263905
0.994110018 0 0.513206683
0.995132372 0 0.566063935
0.995956359 0 0.621576257
0.996627756 0 0.678110933
0.997177081 0 0.733348592
0.997619593 0 0.785259785
0.997985809 0 0.832806897
0.99829099 0 0.875242237
0.998550393 0 0.911848631
0.998779278 0 0.939024949
0.998947127 0 0.956374456
0.999099718 0 0.967879759
0.999237049 0 0.975783932
0.999343862 0 0.981368734
0.999435416 0 0.985427634
0.99952697 0 0.988433661
0.999588006 0 0.990707256
0.999649042 0 0.992462043
0.99969482 0 0.993820096
0.999740597 0 0.994903487
0.999786374 0 0.995773251
0.999801633 0 0.996475166
0.0116426337 0.116258488 0
0.0115205615 0.11482414 0
0.0115205615 0.113374533 0
0.0115205615 0.111924926 0
0.0115205615 0.110490578 0
0.0113984894 0.10904097 0
0.0113984894 0.107591363 0
0.0113984894 0.106141756 0
0.0182497902 0.103944457 0.00494392309
0.0350041962 0.101747158 0.0102388037
0.0498359655 0.0995803769 0.0125886931
0.065506981 0.0969253071 0.0141145953
0.0804150454 0.0946364538 0.0150453956
0.096162356 0.0928664073 0.0149538415
0.11387808 0.0909437705 0.0142214084
0.13447776 0.0884565499 0.0137026017
0.157610437 0.0859693294 0.0112764172
0.18393225 0.0829785611 0.0061341268
0.213290608 0.0790722515 0.00833142596
0.250431067 0.0718699931 0.0134889754
0.292347601 0.063447013 0.0176241703
0.339101244 0.0528419928 0.0230716411
0.386694133 0.0422064546 0.0291752499
0.435172045 0.0308079652 0.036957351
0.485969329 0.0149538415 0.0460669871
0.52698558 0.0108949416 0.0534828717
0.570778973 0.0046692607 0.0618905928
0.618585489 0 0.0714274815
0.679026474 0 0.0796520943
0.736705577 0 0.0898146029
0.789791714 0 0.102311742
0.837994965 0 0.116624704
0.880598154 0 0.133058671
0.916914626 0 0.151735714
0.942534524 0 0.172930495
0.958831159 0 0.196932937
0.969649805 0 0.224124514
0.977096208 0 0.255039292
0.982345312 0 0.289921416
0.986160067 0 0.328496223
0.988998245 0 0.370489052
0.991149767 0 0.415548943
0.992813001 0 0.463233387
0.994110018 0 0.513160906
0.995132372 0 0.566048676
0.995956359 0 0.62153048
0.996627756 0 0.678110933
0.997161822 0 0.733333333
0.997619593 0 0.785244526
0.997985809 0 0.832806897
0.99829099 0 0.875226978
0.998550393 0 0.911833371
0.998779278 0 0.939024949
0.998947127 0 0.956374456
0.999099718 0 0.967879759
0.999237049 0 0.975783932
0.999343862 0 0.981368734
