Luts/Hasselblad/Hasselblad_Portrait_Phocus_X2D_VLog_65.cube
TITLE "Hasselblad Portrait Phocus X2D from V-Log"
#LUMIXPHOTOSTYLE VLOG
LUT_3D_SIZE 9
0 0 0
0.0445105669 0.00889600977 0.0147402152
0.191668574 0.024383917 0.0463416495
0.462043183 0.0232700084 0.0875104906
0.839078355 0 0.179034104
1 0 0.394216831
1 0 0.744472419
1 0 1
1 0 1
0.0151064317 0.0680857557 0.00538643473
0.0367284657 0.048813611 0.0143587396
0.186617838 0.0241702907 0.0452429999
0.458823529 0.0234988937 0.0870069429
0.838147555 0 0.178652628
1 0 0.393987945
1 0 0.744365606
1 0 1
1 0 1
0.0200656138 0.263874266 0
0.0211184863 0.254062715 0
0.208163577 0.232471199 0.0308995193
0.492164492 0.177370871 0
0.837674525 0 0.17769131
1 0 0.393682765
1 0 0.744258793
1 0 1
1 0 1
0 0.587029831 0
0 0.58237583 0
0.173785 0.569787137 0
0.49204242 0.53510338 0
0.86318761 0.443869688 0
1 0 0.380315862
1 0 0.743907836
1 0 1
1 0 1
0 0.936629282 0
0 0.935729 0
0 0.933974212 0
0.429587243 0.926161593 0
0.864057374 0.900663767 0
1 0.819562066 0
1 0 0.722133211
1 0 1
1 0 1
0 1 0
0 1 0
0 1 0
0.114885176 1 0
0.801541161 1 0
1 1 0
1 1 0
1 0 0.996765087
1 0 1
0 1 0
0 1 0
0 1 0
0 1 0
0.329976349 1 0
1 1 0
1 1 0
1 1 0
1 0 1
0 1 0
0 1 0
0 1 0
0 1 0
0 1 0
0.685984588 1 0
1 1 0
1 1 0
1 1 0
0 1 0
0 1 0
0 1 0
0 1 0
0 1 0
0 1 0
0.98751812 1 0
1 1 0
1 1 0
0 0 0
0.0239566644 0 0.0298619059
0.184313725 0.0213626307 0.0523079271
0.458640421 0.023727779 0.0870069429
0.838086519 0 0.178652628
1 0 0.393957427
1 0 0.744365606
1 0 1
1 0 1
0.00889600977 0.043884947 0
0 0 0
0.179858091 0.023727779 0.0442511635
0.455390249 0.0239566644 0.0864881361
0.837155718 0 0.178194858
1 0 0.393713283
1 0 0.744274052
1 0 1
1 0 1
0.0213626307 0.25148394 0
0.0220950637 0.241489281 0
0.200793469 0.220111391 0.0314183261
0.48938735 0.161394675 0.0147402152
0.835996033 0 0.177752346
1 0 0.393408103
1 0 0.74415198
1 0 1
1 0 1
0 0.581139849 0
0 0.576424811 0
0.166491188 0.563897154 0
0.488334478 0.528969253 0
0.862623026 0.434851606 0
1 0 0.381887541
1 0 0.743801022
1 0 1
1 0 1
0 0.935484855 0
0 0.934584573 0
0 0.932951858 0
0.425543603 0.92495613 0
0.86301976 0.89921416 0
1 0.816815442 0
1 0 0.722758831
1 0 1
1 0 1
0 1 0
0 1 0
0 1 0
0.104158083 1 0
0.800228885 1 0
1 1 0
1 1 0
1 0 0.996826123
1 0 1
0 1 0
0 1 0
0 1 0
0 1 0
0.323704891 1 0
1 1 0
1 1 0
1 1 0
1 0 1
0 1 0
0 1 0
0 1 0
0 1 0
0 1 0
0.683436332 1 0
1 1 0
1 1 0
1 1 0
0 1 0
0 1 0
0 1 0
0 1 0
0 1 0
0 1 0
0.987228199 1 0
1 1 0
1 1 0
0 0 0
0 0 0
0.119462882 0 0.161394675
0.426016632 0 0.226062409
0.83010605 0 0.282902266
1 0 0.429663539
1 0 0.744243534
1 0 1
1 0 1
0 0 0
0 0 0
0.115419242 0 0.155748836
0.423971923 0 0.220386053
0.829526207 0 0.277744717
1 0 0.426016632
1 0 0.744136721
1 0 1
1 0 1
0 0.210543984 0.145845731
0 0.198275731 0.150347143
0.173403525 0.173464561 0.174166476
0.481040665 0.0917372396 0.199237049
0.828824292 0 0.271335927
1 0 0.421499962
1 0 0.744029908
1 0 1
1 0 1
0 0.570656901 0
0 0.565880827 0
0.14290074 0.552544442 0
0.477195392 0.515556573 0.057129778
0.862333104 0.405371176 0.117555505
1 0 0.39952697
1 0 0.74367895
1 0 1
1 0 1
0 0.933882658 0
0 0.932951858 0
0 0.931502251 0
0.418554971 0.923231861 0
0.861600671 0.897322042 0
1 0.81341268 0
1 0 0.723537041
1 0 1
1 0 1
0 1 0
0 1 0
0 1 0
0.0904707408 1 0
0.79859617 1 0
1 1 0
1 1 0
1 0 0.996902419
1 0 1
0 1 0
0 1 0
0 1 0
0 1 0
0.315892271 1 0
1 1 0
1 1 0
1 1 0
1 0 1
0 1 0
0 1 0
0 1 0
0 1 0
0 1 0
0.680277714 1 0
1 1 0
1 1 0
1 1 0
0 1 0
0 1 0
0 1 0
0 1 0
0 1 0
0 1 0
0.986861982 1 0
1 1 0
1 1 0
0 0 0
0 0 0
0 0 0
0.297962921 0 0.401480125
0.796826123 0 0.528633555
1 0 0.615960937
1 0 0.803143359
1 0 1
1 0 1
0 0 0
0 0 0
0 0 0
0.295277333 0 0.398062104
0.796246281 0 0.525551232
1 0 0.613488975
1 0 0.801968414
1 0 1
1 0 1
0.0218661784 0.0601052873 0.162798505
0.0192416266 0.0507515068 0.131578546
0.0830395972 0.0485847257 0.215045396
0.362966354 0 0.451529717
0.795544366 0 0.521751736
1 0 0.610528725
1 0 0.800518807
1 0 1
1 0 1
0 0.496437018 0.374502174
0 0.490196078 0.377523461
0 0.481361105 0.384573129
0.429587243 0.42980087 0.431433585
0.858213169 0.257984283 0.472571908
1 0 0.600350958
1 0 0.796078431
1 0 1
1 0 1
0 0.926970321 0
0 0.925978485 0
0 0.924757763 0
0.369283589 0.914534218 0
0.849698634 0.884443427 0.201739528
1 0.775738155 0.31528191
1 0 0.766994736
1 0 1
1 0 1
0 1 0
0 1 0
0 1 0
0 1 0
0.78924239 1 0
1 1 0
1 1 0
1 0 0.997131304
1 0 1
0 1 0
0 1 0
0 1 0
0 1 0
0.291508354 1 0
1 1 0
1 1 0
1 1 0
1 0 1
0 1 0
0 1 0
0 1 0
0 1 0
0 1 0
0.670481422 1 0
1 1 0
1 1 0
1 1 0
0 1 0
0 1 0
0 1 0
0 1 0
0 1 0
0 1 0
0.985748074 1 0
1 1 0
1 1 0
0 0 0
0 0 0
0 0 0
0 0 0
0.63260853 0 0.78080415
1 0 0.896589609
1 0 0.954787518
1 0 1
1 0 1
0 0 0
0 0 0
0 0 0
0 0 0
0.631372549 0 0.779659724
1 0 0.895857176
1 0 0.954375525
1 0 1
1 0 1
0 0 0
0 0 0
0 0 0
0 0 0
0.629846647 0 0.778225376
1 0 0.894956893
1 0 0.953871977
1 0 1
1 0 1
0.0337071794 0.16583505 0.488654917
0.0338597696 0.160189212 0.473609522
0.0338597696 0.153017472 0.4542916
0.258609903 0.115037766 0.634821088
0.762920577 0 0.846936751
1 0 0.89219501
1 0 0.952315557
1 0 1
1 0 1
0 0.866529335 0.737468528
0 0.864820325 0.738597696
0 0.862684062 0.739971008
0.044632639 0.854886702 0.749385824
0.801724269 0.801968414 0.803830014
1 0.571938659 0.84414435
1 0 0.9447776
1 0 1
1 0 1
0 1 0
0 1 0
0 1 0
0 1 0
0.730495155 1 0
1 1 0.477943084
1 1 0.656656748
1 0 1
1 0 1
0 1 0
0 1 0
0 1 0
0 1 0
0.0715342947 1 0
1 1 0
1 1 0
1 1 0
1 0 1
0 1 0
0 1 0
0 1 0
0 1 0
0 1 0
0.635919738 1 0
1 1 0
1 1 0
1 1 0
0 1 0
0 1 0
0 1 0
0 1 0
0 1 0
0 1 0
0.981872282 1 0
1 1 0
1 1 0
0 0 0
0 0 0
0 0 0
0 0 0
0 0 0
0.960662242 0 1
1 0 1
1 0 1
1 0 1
0 0 0
0 0 0
0 0 0
0 0 0
0 0 0
0.960448615 0 1
1 0 1
1 0 1
1 0 1
0 0 0
0 0 0
0 0 0
0 0 0
0 0 0
0.960204471 0 1
1 0 1
1 0 1
1 0 1
0 0 0
0 0 0
0 0 0
0 0 0
0 0 0
0.959456779 0 1
1 0 1
1 0 1
1 0 1
0.0151064317 0.387197681 0.886991684
0.0151064317 0.383764401 0.88346685
0.0151064317 0.379537652 0.879011215
0.0147402152 0.373113603 0.872114137
0.576897841 0.261966888 0.980514229
1 0 1
1 0 1
1 0 1
1 0 1
0 1 1
0 1 1
0 1 1
0 1 1
0.170489052 1 1
1 1 1
1 0.92683299 1
1 0 1
1 0 1
0 1 0
0 1 0
0 1 0
0 1 0
0 1 0
1 1 0
1 1 0.850034333
1 1 0.974135958
1 0 1
0 1 0
0 1 0
0 1 0
0 1 0
0 1 0
0.243579767 1 0
1 1 0
1 1 0
1 1 0
0 1 0
0 1 0
0 1 0
0 1 0
0 1 0
0 1 0
0.966247044 1 0
1 1 0
1 1 0
0 0 0
0 0 0
0 0 0
0 0 0
0 0 0
0 0 0
1 0 1
1 0 1
1 0 1
0 0 0
0 0 0
0 0 0
0 0 0
0 0 0
0 0 0
1 0 1
1 0 1
1 0 1
0 0 0
0 0 0
0 0 0
0 0 0
0 0 0
0 0 0
1 0 1
1 0 1
1 0 1
0 0 0
0 0 0
0 0 0
0 0 0
0 0 0
0 0 0
1 0 1
1 0 1
1 0 1
0 0 0
0 0 0
0 0 0
0 0 0
0 0 0
0 0 0
1 0 1
1 0 1
1 0 1
0.0272678721 0.743938354 1
0.0272678721 0.742641337 1
0.0270695048 0.741069657 1
0.0268711376 0.736217288 1
0.0268711376 0.733150225 1
0.93089189 0.554665446 1
1 0 1
1 0 1
1 0 1
0 1 1
0 1 1
0 1 1
0 1 1
0 1 1
0.419028 1 1
1 1 1
1 1 1
1 0 1
0 1 0
0 1 0
0 1 0
0 1 0
0 1 0
0 1 0
1 1 0
1 1 1
1 1 1
0 1 0
0 1 0
0 1 0
0 1 0
0 1 0
0 1 0
0.556069276 1 0
1 1 0
1 1 0
0 0 0
0 0 0
0 0 0
0 0 0
0 0 0
0 0 0
0 0 0
1 0 1
1 0 1
0 0 0
0 0 0
0 0 0
0 0 0
0 0 0
0 0 0
0 0 0
1 0 1
1 0 1
0 0 0
0 0 0
0 0 0
0 0 0
0 0 0
0 0 0
0 0 0
1 0 1
1 0 1
0 0 0
0 0 0
0 0 0
0 0 0
0 0 0
0 0 0
0 0 0
1 0 1
1 0 1
0 0 0
0 0 0
0 0 0
0 0 0
0 0 0
0 0 0
0 0 0
1 0 1
1 0 1
0 0 0
0 0 0
0 0 0
0 0 0
0 0 0
0 0 0
0 0 0
1 0 1
1 0 1
0.0493934539 1 1
0.0493934539 1 1
0.0493934539 1 1
0.0492713817 1 1
0.048813611 1 1
0.0487067979 1 1
1 0.909147784 1
1 0 1
1 0 1
0 1 1
0 1 1
0 1 1
0 1 1
0 1 1
0 1 1
0.788494697 1 1
1 1 1
1 1 1
0 1 0
0 1 0
0 1 0
0 1 0
0 1 0
0 1 0
0 1 0
1 1 0
1 1 1
0 0 0
0 0 0
0 0 0
0 0 0
0 0 0
0 0 0
0 0 0
0 0 0
1 0 1
0 0 0
0 0 0
0 0 0
0 0 0
0 0 0
0 0 0
0 0 0
0 0 0
1 0 1
0 0 0
0 0 0
0 0 0
0 0 0
0 0 0
0 0 0
0 0 0
0 0 0
1 0 1
0 0 0
0 0 0
0 0 0
0 0 0
0 0 0
0 0 0
0 0 0
0 0 0
1 0 1
0 0 0
0 0 0
0 0 0
0 0 0
0 0 0
0 0 0
0 0 0
0 0 0
1 0 1
0 0 0
0 0 0
0 0 0
0 0 0
0 0 0
0 0 0
0 0 0
0 0 0
1 0 1
0 0 0
0 0 0
0 0 0
0 0 0
0 0 0
0 0 0
0 0 0
0 0 0
1 0 1
0.0971999695 1 1
0.0971999695 1 1
0.0971236744 1 1
0.0970321202 1 1
0.0967879759 1 1
0.0958876936 1 1
0.0956435492 1 1
1 1 1
1 0 1
0 1 1
0 1 1
0 1 1
0 1 1
0 1 1
0 1 1
0 1 1
1 1 1
1 1 1
