Luts/Hasselblad/Hasselblad_Nature_Phocus_X2D_VLog.cube
TITLE "Hasselblad Nature Phocus X2D ColorCorrect from V-Log"
#LUMIXPHOTOSTYLE VLOG
# INPUT_COLORSPACE Panasonic V-Log / V-Gamut
# OUTPUT_COLORSPACE Hasselblad RGB / D50 / Phocus film-curve code values
LUT_3D_SIZE 5
0 0 0
0.145998322 0.0120088502 0.0249179828
0.881925689 0 0.133623255
0.997619593 0 0.785412375
0.999801633 0 0.996475166
0.0096894789 0.221332113 0
0.16255436 0.187685969 0.0156404974
0.880598154 0 0.132326238
0.997619593 0 0.785168231
0.999801633 0 0.996475166
0 0.954467079 0
0 0.953170062 0
0.904844739 0.934035248 0
0.997711147 0 0.760875868
0.999801633 0 0.996475166
0 0.998474098 0
0 0.998474098 0
0.295551995 0.998458839 0
0.997863737 0.998184176 0
0.999816892 0 0.996124208
0 0.999877928 0
0 0.999877928 0
0 0.999877928 0
0.975310903 0.999862669 0
0.999832151 0.999862669 0
0 0 0
0.0793926909 0 0.116807813
0.873380636 0 0.242267491
0.997619593 0 0.785152972
0.999801633 0 0.996475166
0 0.164980545 0.10249485
0.128191043 0.128252079 0.128923476
0.872144656 0 0.229495689
0.997619593 0 0.784924086
0.999801633 0 0.996475166
0 0.953124285 0
0 0.95194934 0
0.90264744 0.931746395 0
0.997695888 0 0.762432288
0.999801633 0 0.996475166
0 0.998474098 0
0 0.998474098 0
0.27940795 0.998458839 0
0.997863737 0.998184176 0
0.999816892 0 0.996124208
0 0.999877928 0
0 0.999877928 0
0 0.999877928 0
0.975082017 0.999862669 0
0.999832151 0.999862669 0
0 0 0
0 0 0
0.658091096 0 0.824032959
0.997512779 0 0.962676432
0.999801633 0 0.996475166
0 0 0
0 0 0
0.654840925 0 0.821347372
0.997512779 0 0.962279698
0.999801633 0 0.996475166
0 0.907057298 0.777782864
0 0.903624018 0.780514229
0.845441367 0.845685512 0.847562371
0.997543297 0 0.958297093
0.999801633 0 0.996475166
0 0.998458839 0
0 0.998458839 0
0.0418707561 0.99844358 0
0.997848478 0.998153658 0
0.999816892 0 0.996139467
0 0.999877928 0
0 0.999877928 0
0 0.999877928 0
0.973250935 0.999862669 0
0.999832151 0.99984741 0
0 0 0
0 0 0
0 0 0
0.994659342 0 0.996993973
0.999801633 0 0.998626688
0 0 0
0 0 0
0 0 0
0.994644083 0 0.996993973
0.999801633 0 0.998626688
0 0 0
0 0 0
0 0 0
0.994613565 0 0.996978714
0.999801633 0 0.998626688
0 0.997878996 0.996475166
0 0.997878996 0.996475166
0 0.997863737 0.996505684
0.997253376 0.997253376 0.997268635
0.999801633 0 0.998550393
0 0.999877928 0
0 0.999877928 0
0 0.999862669 0
0.566536965 0.999862669 0
0.999832151 0.99984741 0
0 0 0
0 0 0
0 0 0
0 0 0
0.999618524 0 0.999771115
0 0 0
0 0 0
0 0 0
0 0 0
0.999618524 0 0.999771115
0 0 0
0 0 0
0 0 0
0 0 0
0.999618524 0 0.999771115
0 0 0
0 0 0
0 0 0
0 0 0
0.999618524 0 0.999771115
0 0.999832151 0.999725338
0 0.999832151 0.999725338
0 0.999832151 0.999725338
0 0.999832151 0.999725338
0.999786374 0.999786374 0.999786374
