Luts/Hasselblad/Hasselblad_Nature_Phocus_X2D_VLog_Rec709_65.cube
TITLE "Hasselblad Nature Phocus X2D ColorCorrect from V-Log to Rec.709"
#LUMIXPHOTOSTYLE VLOG
# INPUT_COLORSPACE Panasonic V-Log / V-Gamut
# OUTPUT_COLORSPACE Rec.709 primaries / D65 / BT.709 OETF
LUT_3D_SIZE 65
0 0 0
0 0 0
0 0 0
0 0 0
0 0 0
0 0 0
0 0 0
0 0 0
0.00185338646 0 6.76889521e-05
0.00497989611 0 0.000147413329
0.00944236927 0 0.000219257123
0.0154431402 0 0.000279100954
0.0231875308 0 0.000337795833
0.034005017 0 0.000388923918
0.0493693055 0 0.000431140973
0.0709630578 0 0.000453865187
0.099867069 0 0.000446836636
0.133062319 0 0.00039406991
0.17060713 0 0.000272039692
0.213332229 0 4.48621256e-05
0.262187071 0 0
0.317051407 0 0
0.377213736 0 0
0.442255101 0 0
0.511208592 0 0
0.583294934 0 0
0.659242466 0 0
0.738365589 0 0
0.817832402 0 0
0.893528227 0 0
0.963236972 0 0
1 0 0
1 0 0.00682398996
1 0 0.0216914423
1 0 0.0441680375
1 0 0.0761816164
1 0 0.1159527
1 0 0.158517666
1 0 0.204417737
1 0 0.253305975
1 0 0.305138304
1 0 0.359801748
1 0 0.416755394
1 0 0.475786509
1 0 0.537833286
1 0 0.6024225
1 0 0.667963059
1 0 0.731700189
1 0 0.791405055
1 0 0.845934434
1 0 0.894536844
1 0 0.936380573
1 0 0.967401474
1 0 0.987195813
1 0 1
1 0 1
1 0 1
1 0 1
1 0 1
1 0 1
1 0 1
1 0 1
1 0 1
1 0 1
1 0 1
0 0 0
0 0 0
0 0 0
0 0 0
0 0 0
0 0 0
0 0 0
0 0 0
0.00171122125 0 6.40198253e-05
0.00476163993 0 0.00013775958
0.00914459681 0 0.000210300395
0.0150552675 0 0.000277207638
0.0226586794 0 0.000335902265
0.033419137 0 0.000386997074
0.0486009323 0 0.000431004486
0.0700453156 0 0.000452444411
0.0988766496 0 0.000447947925
0.132114786 0 0.000397851401
0.169681857 0 0.000274430923
0.212490551 0 4.98428711e-05
0.261305474 0 0
0.316212142 0 0
0.376437041 0 0
0.44145932 0 0
0.510556473 0 0
0.582724659 0 0
0.658713937 0 0
0.737918871 0 0
0.81746707 0 0
0.893244545 0 0
0.962994096 0 0
1 0 0
1 0 0.00683978777
1 0 0.0216327781
1 0 0.0440916403
1 0 0.0760895937
1 0 0.115887948
1 0 0.158456823
1 0 0.204338469
1 0 0.253267631
1 0 0.305100862
1 0 0.359747282
1 0 0.416719072
1 0 0.475786509
1 0 0.537779746
1 0 0.6024225
1 0 0.667945405
1 0 0.7316826
1 0 0.791387516
1 0 0.845916934
1 0 0.894519374
1 0 0.936363126
1 0 0.967401474
1 0 0.987195813
1 0 1
1 0 1
1 0 1
1 0 1
1 0 1
1 0 1
1 0 1
1 0 1
1 0 1
1 0 1
1 0 1
0 0 0
0 0 0
0 0 0
0 0 0
0 0 0
0 0 0
0 0 0
0 0 0
0.00156833538 0 6.01811377e-05
0.00455505526 0 0.000134424622
0.00886038502 0 0.000206817243
0.0146785809 0 0.000272831813
0.0222001787 0 0.00033261444
0.0327858259 0 0.000385162994
0.04788559 0 0.000430382041
0.0691935129 0 0.000452604114
0.0979893941 0 0.000447900376
0.131167289 0 0.000399390159
0.168838833 0 0.000275488385
0.211588669 0 5.35993974e-05
0.260465133 0 0
0.315393586 0 0
0.375701518 0 0
0.440786051 0 0
0.509924211 0 0
0.582093732 0 0
0.658144512 0 0
0.737411258 0 0
0.817081664 0 0
0.892920303 0 0
0.962730639 0 0
1 0 0
1 0 0.0067818671
1 0 0.021574146
1 0 0.0440375744
1 0 0.0760939615
1 0 0.115887948
1 0 0.158456823
1 0 0.204279015
1 0 0.253190939
1 0 0.305100862
1 0 0.359692089
1 0 0.416719072
1 0 0.475732557
1 0 0.537744053
1 0 0.602404761
1 0 0.667945405
1 0 0.731647422
1 0 0.791352438
1 0 0.845916934
1 0 0.894501904
1 0 0.936363126
1 0 0.967401474
1 0 0.987195813
1 0 1
1 0 1
1 0 1
1 0 1
1 0 1
1 0 1
1 0 1
1 0 1
1 0 1
1 0 1
1 0 1
0 0 0
0 0 0
0 0 0
0 0 0
0 0 0
0 0 0
0 0 0
0 0 0
0.0014184423 0 5.65983043e-05
0.00434698318 0 0.000130811987
0.00856651499 0 0.000203104143
0.0142909709 0 0.000269640274
0.0217341555 0 0.000330207483
0.0322089599 0 0.000384153941
0.0471914652 0 0.000428068007
0.0683258758 0 0.000452504082
0.0969988599 0 0.000448958962
0.130281571 0 0.000400089341
0.16789284 0 0.000280631659
0.210685403 0 5.69241051e-05
0.259585129 0 0
0.314554607 0 0
0.374843281 0 0
0.440071657 0 0
0.509231365 0 0
0.581523657 0 0
0.657656649 0 0
0.736944 0 0
0.816655718 0 0
0.892596118 0 0
0.962487636 0 0
1 0 0
1 0 0.00673477542
1 0 0.0215845021
1 0 0.0440439938
1 0 0.0760255132
1 0 0.115802791
1 0 0.158373765
1 0 0.204280206
1 0 0.253133418
1 0 0.305025976
1 0 0.359655294
1 0 0.416646428
1 0 0.475714573
1 0 0.537726206
1 0 0.602351545
1 0 0.667910097
1 0 0.731629833
1 0 0.791334899
1 0 0.845899434
1 0 0.894501904
1 0 0.936363126
1 0 0.967401474
1 0 0.987195813
1 0 1
1 0 1
1 0 1
1 0 1
1 0 1
1 0 1
1 0 1
1 0 1
1 0 1
1 0 1
1 0 1
0 0 0
0 0 0
0 0 0
0 0 0
0 0 0
0 0 0
0 0 0
0 0 0
0.00128954431 0 5.29675482e-05
0.00414417578 0 0.000127244338
0.00828398002 0 0.000199359711
0.0139271728 0 0.000267663064
0.0212635391 0 0.000327893254
0.03164024 0 0.000382189651
0.0464293295 0 0.000428439111
0.0674268464 0 0.000452747549
0.0960935307 0 0.000449552139
0.129333985 0 0.000401581027
0.166969285 0 0.000283402801
0.209782034 0 6.29919913e-05
0.258703808 0 0
0.31373608 0 0
0.374066789 0 0
0.439356672 0 0
0.508599438 0 0
0.580913023 0 0
0.657087435 0 0
0.736456642 0 0
0.816270085 0 0
0.892271874 0 0
0.962224492 0 0
1 0 0
1 0 0.00669166199
1 0 0.0215259012
1 0 0.0439676555
1 0 0.0759122043
1 0 0.115714046
1 0 0.158292145
1 0 0.204202121
1 0 0.253057717
1 0 0.304989378
1 0 0.359655294
1 0 0.416592576
1 0 0.475678605
1 0 0.537726206
1 0 0.602333806
1 0 0.667874788
1 0 0.731612244
1 0 0.791334899
1 0 0.845881933
1 0 0.894484433
1 0 0.936363126
1 0 0.967401474
1 0 0.987195813
1 0 1
1 0 1
1 0 1
1 0 1
1 0 1
1 0 1
1 0 1
1 0 1
1 0 1
1 0 1
1 0 1
0 0 0
0 0 0
0 0 0
0 0 0
0 0 0
0 0 0
0 0 0
0 0 0
0.00115929813 0 4.88745998e-05
0.00394887855 0 0.00012346723
0.00800895111 0 0.000196012209
0.0135272483 0 0.000263732106
0.0207617028 0 0.000325198118
0.031013364 0 0.000380430481
0.0457468319 0 0.000426102219
0.0665900034 0 0.000450710653
0.0951235439 0 0.000450334907
0.128450477 0 0.000404912319
0.166126169 0 0.000284400899
0.208981036 0 7.81383252e-05
0.257822393 0 0
0.312896999 0 0
0.373310786 0 0
0.43864255 0 0
0.507967731 0 0
0.580343214 0 0
0.656579008 0 0
0.735989597 0 0
0.815884618 0 0
0.891967674 0 0
0.961961285 0 0
1 0 0
1 0 0.00670350322
1 0 0.0214673323
1 0 0.0438934906
1 0 0.075845992
1 0 0.115649265
1 0 0.158231286
1 0 0.20414266
1 0 0.253057717
1 0 0.304914489
1 0 0.359581701
1 0 0.416556253
1 0 0.475624652
1 0 0.537672665
1 0 0.602298329
1 0 0.667857134
1 0 0.731612244
1 0 0.79131736
1 0 0.845881933
1 0 0.894484433
1 0 0.936363126
1 0 0.967401474
1 0 0.987195813
1 0 1
1 0 1
1 0 1
1 0 1
1 0 1
1 0 1
1 0 1
1 0 1
1 0 1
1 0 1
1 0 1
0 0 0
0 0 0
0 0 0
0 0 0
0 0 0
0 0 0
0 0 0
0 0 0
0.00103485086 0 4.00831961e-05
0.00373333357 0 0.000119638655
0.00771370663 0 0.000192551946
0.0131718947 0 0.000261381873
0.0203124524 0 0.000322777164
0.0304659458 0 0.000377939912
0.045054838 0 0.00042390828
0.0656878052 0 0.000451507495
0.0942154462 0 0.000450428897
0.127502896 0 0.000404175262
0.165221221 0 0.000288799598
0.208077684 0 8.13570527e-05
0.256920449 0 0
0.312057899 0 0
0.372534021 0 0
0.437948772 0 0
0.507315688 0 0
0.579772623 0 0
0.656050124 0 0
0.735542865 0 0
0.815458611 0 0
0.891663649 0 0
0.961718342 0 0
1 0 0
1 0 0.0066604175
1 0 0.0214108661
1 0 0.0438193593
1 0 0.0758481756
1 0 0.115562283
1 0 0.158168976
1 0 0.204083196
1 0 0.253019367
1 0 0.304877043
1 0 0.359544905
1 0 0.41651993
1 0 0.475624652
1 0 0.537636972
1 0 0.602298329
1 0 0.667821825
1 0 0.731577066
1 0 0.791299822
1 0 0.845881933
1 0 0.894484433
1 0 0.936345678
1 0 0.967384042
1 0 0.987195813
1 0 1
1 0 1
1 0 1
1 0 1
1 0 1
1 0 1
1 0 1
1 0 1
1 0 1
1 0 1
1 0 1
0 0.000694833386 0
0 0.000524480369 0
0 0.000373117867 0
0 0.000233243703 0
0 0.000102346058 0
0 0 0
0 0 0
0 0 0
0.000916277741 0 3.66436828e-05
0.00354684647 0 0.00011564304
0.00744696396 0 0.000188891332
0.0128167225 0 0.000258537866
0.0198685956 0 0.000319224702
0.029899836 0 0.00037568143
0.04430906 0 0.00042377817
0.0648627465 0 0.00045113765
0.093204043 0 0.000451600442
0.126616937 0 0.000406963329
0.164275165 0 0.000291363601
0.207153688 0 8.76902635e-05
0.256100572 0 0
0.311218522 0 0
0.371757488 0 0
0.437173098 0 0
0.506622583 0 0
0.579162027 0 0
0.655521572 0 0
0.735055279 0 0
0.815073251 0 0
0.89133946 0 0
0.961454883 0 0
1 0 0
1 0 0.00661538868
1 0 0.0213523613
1 0 0.0437452617
1 0 0.075758467
1 0 0.115564072
1 0 0.158170423
1 0 0.204003907
1 0 0.252943663
1 0 0.304877043
1 0 0.359489709
1 0 0.41651993
1 0 0.475588683
1 0 0.537619125
1 0 0.60228059
1 0 0.667821825
1 0 0.731559477
1 0 0.791282283
1 0 0.845864433
1 0 0.894466963
1 0 0.936345678
1 0 0.967384042
1 0 0.98717839
1 0 1
1 0 1
1 0 1
1 0 1
1 0 1
1 0 1
1 0 1
1 0 1
1 0 1
1 0 1
1 0 1
0 0.00395012229 0
0 0.00361834581 0
0 0.00331768168 0
0 0.00301372264 0
0 0.0027366269 0
0 0.00245843039 0
0 0.00220377113 0
0 0.00195959799 0
0.000388055522 0.00160193017 0
0.00363504935 0.00123845506 0
0.00829104583 0.000867412125 0
0.0154384961 0.000285540708 0
0.0248614368 0 2.58824296e-05
0.0370389964 0 0.00012183152
0.0532182676 0 0.000234745238
0.0705010662 0 0.000331922934
0.0931223395 0 0.000433372113
0.125669182 0 0.000408353867
0.163431871 0 0.000294737822
0.206270741 0 9.32174791e-05
0.255239592 0 0
0.310399858 0 0
0.370960499 0 0
0.436479358 0 0
0.505990854 0 0
0.578592203 0 0
0.654992797 0 0
0.734588226 0 0
0.814687611 0 0
0.891015211 0 0
0.961211939 0 0
1 0 0
1 0 0.00658508891
1 0 0.0213606419
1 0 0.0437495402
1 0 0.0756901167
1 0 0.115477076
1 0 0.158087335
1 0 0.204005099
1 0 0.252886134
1 0 0.304802151
1 0 0.359489709
1 0 0.416465445
1 0 0.47553473
1 0 0.537565584
1 0 0.602227373
1 0 0.667804171
1 0 0.731541887
1 0 0.791264744
1 0 0.845846933
1 0 0.894449492
1 0 0.936328231
1 0 0.967384042
1 0 0.98717839
1 0 1
1 0 1
1 0 1
1 0 1
1 0 1
1 0 1
1 0 1
1 0 1
1 0 1
1 0 1
1 0 1
0 0.00949242235 0
0 0.00896882731 0
0 0.00848690367 0
0 0.0079946599 0
0 0.00752292702 0
0 0.00708096631 0
0 0.0066357044 0
0 0.00622337062 0
0 0.00562771139 0
0.00231473443 0.00486932841 0
0.00733831565 0.00430364632 0
0.0140844436 0.0036940946 0
0.0228032116 0.00304643724 0
0.0349477099 0.00220021737 0
0.0545070353 0.000746427393 0
0.0819739071 0 0
0.115906454 0 0
0.15110198 0 0
0.190356739 0 0
0.224925791 0 0
0.263273396 0 0
0.309560767 0 0
0.370184 0 0
0.435765078 0 0
0.505378856 0 0
0.578022318 0 0
0.654443954 0 0
0.734100853 0 0
0.814281896 0 0
0.890691019 0 0
0.960948729 0 0
1 0 0
1 0 0.00652739413
1 0 0.0213021684
1 0 0.043675476
1 0 0.075600469
1 0 0.115412268
1 0 0.158005687
1 0 0.203945628
1 0 0.252886134
1 0 0.304764703
1 0 0.359434512
1 0 0.416429122
1 0 0.475498761
1 0 0.537565584
1 0 0.602191895
1 0 0.667786517
1 0 0.731524298
1 0 0.791264744
1 0 0.845829432
1 0 0.894449492
1 0 0.936328231
1 0 0.96736661
1 0 0.98717839
1 0 1
1 0 1
1 0 1
1 0 1
1 0 1
1 0 1
1 0 1
1 0 1
1 0 1
1 0 1
1 0 1
0 0.0176775261 0
0 0.0169468877 0
0 0.0162333682 0
0 0.0155717383 0
0 0.0148976453 0
0 0.0142330136 0
0 0.0135779569 0
0 0.0129786071 0
0 0.01200583 0
0 0.011074561 0
0.00525115925 0.00991594115 0
0.0123699016 0.00906862025 0
0.0214222731 0.00820793036 0
0.0341068533 0.00714923756 0
0.0521017713 0.0058321576 0
0.0768416246 0.00412872656 0
0.111985909 0.00133275464 0
0.151165923 0 0
0.195760537 0 0
0.242291435 0 0
0.293298377 0 0
0.344935747 0 0
0.3913344 0 0
0.442052505 0 0
0.504665568 0 0
0.577411484 0 0
0.65391504 0 0
0.733633575 0 0
0.813876178 0 0
0.890407095 0 0
0.960726113 0 0
1 0 0
1 0 0.00654119843
1 0 0.0212437271
1 0 0.0435993065
1 0 0.0755086727
1 0 0.115347452
1 0 0.157924031
1 0 0.20386633
1 0 0.252809426
1 0 0.304689808
1 0 0.359379315
1 0 0.416374636
1 0 0.475462791
1 0 0.53752989
1 0 0.602174156
1 0 0.667733553
1 0 0.731524298
1 0 0.791247204
1 0 0.845811932
1 0 0.894449492
1 0 0.936328231
1 0 0.96736661
1 0 0.98717839
1 0 1
1 0 1
1 0 1
1 0 1
1 0 1
1 0 1
1 0 1
1 0 1
1 0 1
1 0 1
1 0 1
0 0.02865821 0
0 0.0277153523 0
0 0.0267988873 0
0 0.0258901897 0
0 0.0249981842 0
0 0.024123528 0
0 0.0232655019 0
0 0.0224243826 0
0 0.0211346084 0
0 0.0198975758 0
0.00127334202 0.0183544122 0
0.00935168828 0.0169112667 0
0.0188721265 0.0157603884 0
0.0318785314 0.0144456607 0
0.0504184971 0.0127840787 0
0.0760641158 0.0108204089 0
0.108834183 0.00832509255 0
0.145843215 0.00484799136 0
0.191693243 0 0
0.241860564 0 0
0.298745206 0 0
0.356038916 0 0
0.416945198 0 0
0.474822479 0 0
0.527294282 0 0
0.583338198 0 0
0.653345576 0 0
0.733186831 0 0
0.813490533 0 0
0.890062563 0 0
0.960462839 0 0
1 0 0
1 0 0.00649625818
1 0 0.0211873872
1 0 0.0435454099
1 0 0.0755130393
1 0 0.115236421
1 0 0.157861697
1 0 0.203806852
1 0 0.252751893
1 0 0.304633634
1 0 0.359342516
1 0 0.416374636
1 0 0.475462791
1 0 0.537476837
1 0 0.602174156
1 0 0.667715899
1 0 0.73148912
1 0 0.791229665
1 0 0.845811932
1 0 0.894432022
1 0 0.936310783
1 0 0.96736661
1 0 0.98717839
1 0 1
1 0 1
1 0 1
1 0 1
1 0 1
1 0 1
1 0 1
1 0 1
1 0 1
1 0 1
1 0 1
0 0.0426397135 0
0 0.0414912575 0
0 0.040347575 0
0 0.0392212953 0
0 0.0381239565 0
0 0.0370325214 0
0 0.0359579993 0
0 0.0349006993 0
0 0.0333030379 0
0 0.0316357277 0
0 0.0299555011 0
0.00425173753 0.0278864465 0
0.0148203173 0.0260220321 0
0.0284703636 0.0243881498 0
0.0472166826 0.0224835749 0
0.073775364 0.0199687623 0
0.107399436 0.0171237171 0
0.14490778 0.0135246807 0
0.186050063 0.00886465088 0
0.237581685 0.00141680224 0
0.295025184 0 0
0.35856865 0 0
0.422798667 0 0
0.487920388 0 0
0.555937475 0 0
0.610661779 0 0
0.669031594 0 0
0.732679188 0 0
0.813084812 0 0
0.889738251 0 0
0.960219642 0 0
1 0 0
1 0 0.00645134822
1 0 0.0211290099
1 0 0.0434714382
1 0 0.075423461
1 0 0.115240005
1 0 0.157861697
1 0 0.203728738
1 0 0.252695356
1 0 0.304634481
1 0 0.359306444
1 0 0.416338312
1 0 0.475408837
1 0 0.53745899
1 0 0.602120939
1 0 0.667715899
1 0 0.731471885
1 0 0.791212126
1 0 0.845811932
1 0 0.894414552
1 0 0.936293336
1 0 0.96736661
1 0 0.98717839
1 0 1
1 0 1
1 0 1
1 0 1
1 0 1
1 0 1
1 0 1
1 0 1
1 0 1
1 0 1
1 0 1
0 0.0619639177 0
0 0.0605691097 0
0 0.0591470756 0
0 0.0577870245 0
0 0.0564442026 0
0 0.0551327361 0
0 0.0538100996 0
0 0.0525187443 0
0 0.0507353927 0
0 0.0482571529 0
0 0.0463424929 0
0 0.0440056073 0
0.0076478642 0.0414538581 0
0.0226317533 0.0388825708 0
0.0422732397 0.0364626236 0
0.0689689422 0.0337171941 0
0.10432184 0.0301204932 0
0.142842672 0.0259970212 0
0.185672947 0.0208203777 0
0.23250168 0.0143836421 0
0.289537405 0.00440827984 0
0.354106021 0 0
0.422426697 0 0
0.493138997 0 0
0.56160983 0 0
0.632833754 0 0
0.696485519 0 0
0.756298658 0 0
0.817655744 0 0
0.889353213 0 0
0.959936226 0 0
1 0 0
1 0 0.00641041053
1 0 0.0211414244
1 0 0.0434778543
1 0 0.0753552085
1 0 0.115173376
1 0 0.157800807
1 0 0.203669254
1 0 0.25263782
1 0 0.304578307
1 0 0.359232845
1 0 0.416301988
1 0 0.475372867
1 0 0.537423295
1 0 0.6021032
1 0 0.667698244
1 0 0.731436707
1 0 0.791194587
1 0 0.845794432
1 0 0.894414552
1 0 0.936293336
1 0 0.96736661
1 0 0.98717839
1 0 1
