Luts/Hasselblad/Hasselblad_Standard_Phocus_X2D_VLog_sRGB.cube
TITLE "Hasselblad Standard Phocus X2D ColorCorrect from V-Log to sRGB"
#LUMIXPHOTOSTYLE VLOG
# INPUT_COLORSPACE Panasonic V-Log / V-Gamut
# OUTPUT_COLORSPACE sRGB primaries / D65 / sRGB transfer function
LUT_3D_SIZE 33
0 0 0
0 0 0
0 0 0
0 0 0
0.0210628445 0 0.00108258994
0.0729403019 0 0.00341270387
0.117536045 0 0.00551044476
0.165741894 0 0.00795413002
0.223023648 0 0.0109489399
0.290218796 0 0.0145844696
0.370337777 0 0.0188052531
0.464329689 0 0.0237717703
0.568596628 0 0.0302564788
0.680989202 0 0.0397412609
0.8019597 0 0.0550406924
0.91793127 0 0.0848295497
1 0 0.125762003
1 0 0.176616976
1 0 0.238210348
1 0 0.310182413
1 0 0.390670193
1 0 0.477600884
1 0 0.570520522
1 0 0.671152668
1 0 0.770692081
1 0 0.861574017
1 0 0.935853603
1 0 0.975698908
1 0 0.997125769
1 0 1
1 0 1
1 0 1
1 0 1
0 0 0
0 0 0
0 0 0
0 0 0
0.0182565083 0 0.000966985488
0.0702031859 0 0.00322714096
0.115079498 0 0.00540462524
0.163576915 0 0.00785104494
0.221149836 0 0.0108425463
0.288602313 0 0.014479216
0.368869283 0 0.0188185099
0.46311912 0 0.0237741139
0.567612383 0 0.0301065859
0.680170826 0 0.0397306581
0.801372858 0 0.0549922478
0.917514466 0 0.0847555437
1 0 0.125675445
1 0 0.176476432
1 0 0.238153369
1 0 0.310072309
1 0 0.390634957
1 0 0.477566877
1 0 0.570454311
1 0 0.67113647
1 0 0.770660226
1 0 0.861542563
1 0 0.935838018
1 0 0.975698908
1 0 0.997125769
1 0 1
1 0 1
1 0 1
1 0 1
0 0 0
0 0 0
0 0 0
0 0 0
0.0153985111 0 0.000850945694
0.0673917093 0 0.00310788791
0.11266846 0 0.00529300716
0.161399519 0 0.00775442411
0.219262168 0 0.0107428876
0.286911108 0 0.0143846937
0.367385853 0 0.0187161197
0.461831959 0 0.0236577904
0.566611061 0 0.0301174889
0.679371506 0 0.0395332554
0.800749272 0 0.0549501699
0.917098012 0 0.0845727342
1 0 0.125514142
1 0 0.176399454
1 0 0.238018303
1 0 0.310018681
1 0 0.390547593
1 0 0.477482431
1 0 0.570437758
1 0 0.671087877
1 0 0.770644298
1 0 0.861526836
1 0 0.935838018
1 0 0.975698908
1 0 0.997125769
1 0 1
1 0 1
1 0 1
1 0 1
0 0 0
0 0 0
0 0 0
0 0 0
0.0127174357 0 0.000656345304
0.064465358 0 0.002997955
0.110162599 0 0.00519014189
0.159293282 0 0.00764115752
0.217365539 0 0.0106383054
0.285293182 0 0.0142801191
0.365877862 0 0.0186274567
0.460601612 0 0.0236619155
0.565629142 0 0.0299481324
0.678588354 0 0.0395111835
0.800107635 0 0.0547909005
0.916681541 0 0.0843898305
1 0 0.125449605
1 0 0.176260537
1 0 0.237901794
1 0 0.309908565
1 0 0.390459495
1 0 0.477414414
1 0 0.570371546
1 0 0.671039283
1 0 0.770612442
1 0 0.861526836
1 0 0.935822432
1 0 0.975698908
1 0 0.997110287
1 0 1
1 0 1
1 0 1
1 0 1
0 0.0376749859 0
0 0.0326163793 0
0 0.0277795573 0
0 0.0231771884 0
0.00558911537 0.0175821869 0
0.0659692315 0.0109348359 0
0.120964906 0.000743896236 0.00198198118
0.171146144 0 0.00609448529
0.216286097 0 0.0104064344
0.283654519 0 0.0141770749
0.364447919 0 0.0185153838
0.459352349 0 0.0235417752
0.564608618 0 0.0299615029
0.677788346 0 0.0394973244
0.799520678 0 0.054742448
0.916264597 0 0.0843430139
1 0 0.125288236
1 0 0.176183536
1 0 0.237826217
1 0 0.309853979
1 0 0.390407365
1 0 0.477380405
1 0 0.570321886
1 0 0.671023085
1 0 0.770580586
1 0 0.861495382
1 0 0.935822432
1 0 0.975698908
1 0 0.997110287
1 0 1
1 0 1
1 0 1
1 0 1
0 0.0980832233 0
0 0.0938739102 0
0 0.0897085365 0
0 0.0853669151 0
0 0.0796322335 0
0.0476193823 0.0709046478 0
0.108702203 0.0633866648 0
0.165898597 0.0526880329 0
0.232471208 0.0297239209 0
0.311702589 0 0
0.39607065 0 0.00690375759
0.475511485 0 0.0175776411
0.563585912 0 0.0298175134
0.676968305 0 0.039298732
0.798897401 0 0.0545498067
0.915848185 0 0.0841327703
1 0 0.125201623
1 0 0.176021126
1 0 0.237710946
1 0 0.309743849
1 0 0.390319261
1 0 0.477312386
1 0 0.570288779
1 0 0.670974866
1 0 0.770564658
1 0 0.861495382
1 0 0.935806846
1 0 0.975698908
1 0 0.997110287
1 0 1
1 0 1
1 0 1
1 0 1
0 0.148777478 0
0 0.145175906 0
0 0.141548986 0
0 0.137881866 0
0 0.133066148 0
0 0.126264288 0
0.089954183 0.117811167 0
0.156012645 0.109887315 0
0.224591433 0.0976483044 0
0.299720132 0.0773076989 0
0.39524153 0.018713957 0
0.499314219 0 0
0.602692356 0 0.00935560086
0.688399363 0 0.0306163883
0.79827365 0 0.0545077458
0.915431208 0 0.0840859543
1 0 0.125040179
1 0 0.175880448
1 0 0.237635354
1 0 0.30963371
1 0 0.390267127
1 0 0.477278376
1 0 0.570239578
1 0 0.670958668
1 0 0.770532802
1 0 0.861463928
1 0 0.935806846
1 0 0.975683391
1 0 0.997110287
1 0 1
1 0 1
1 0 1
1 0 1
0 0.202874877 0
0 0.199730838 0
0 0.196566961 0
0 0.193451661 0
0 0.189842134 0
0 0.18342408 0
0.0266668894 0.17658232 0
0.134679496 0.167654168 0
0.212453067 0.158092795 0
0.293425648 0.143347208 0
0.383573487 0.119942389 0
0.492605346 0.0573149597 0
0.60869388 0 0
0.721638882 0 0
0.820484405 0 0.0331041934
0.914905793 0 0.0839190845
1 0 0.124887311
1 0 0.175743098
1 0 0.237520059
1 0 0.309523562
1 0 0.390179017
1 0 0.477210928
1 0 0.570173363
1 0 0.670910073
1 0 0.770500946
1 0 0.861448201
1 0 0.935791261
1 0 0.975683391
1 0 0.997110287
1 0 1
1 0 1
1 0 1
1 0 1
0 0.265916655 0
0 0.263210429 0
0 0.26050211 0
0 0.257706384 0
0 0.254959525 0
0 0.24846293 0
0 0.243666488 0
0.0669798647 0.235709085 0
0.186751778 0.225246641 0
0.277905738 0.213691511 0
0.375025152 0.195852358 0
0.479241993 0.168928572 0
0.596732334 0.105222007 0
0.724271378 0 0
0.844561888 0 0
0.941905459 0 0.0544362343
1 0 0.123826263
1 0 0.175588973
1 0 0.237326602
1 0 0.309414359
1 0 0.390056387
1 0 0.477091887
1 0 0.5701237
1 0 0.670845279
1 0 0.770469089
1 0 0.861416747
1 0 0.935775675
1 0 0.975683391
1 0 0.997110287
1 0 1
1 0 1
1 0 1
1 0 1
0 0.340791464 0
0 0.338404972 0
0 0.336050564 0
0 0.333644725 0
0 0.331237526 0
0 0.324923525 0
0 0.320990224 0
0 0.315116088 0
0.110357645 0.305062553 0
0.246274019 0.292388044 0
0.355260448 0.278211577 0
0.467077732 0.256768456 0
0.581120402 0.226303388 0
0.706645235 0.161917176 0
0.841630833 0 0
0.957396613 0 0
1 0 0.0893107175
1 0 0.170691293
1 0 0.237056197
1 0 0.309194972
1 0 0.389863251
1 0 0.476956408
1 0 0.570007818
1 0 0.670764285
1 0 0.770405376
1 0 0.861385293
1 0 0.935760089
1 0 0.975667874
1 0 0.997110287
1 0 1
1 0 1
1 0 1
1 0 1
0 0.425584139 0
0 0.423649637 0
0 0.421698016 0
0 0.419745667 0
0 0.417776168 0
0 0.412846265 0
0 0.408303922 0
0 0.404153045 0
0 0.397068098 0
0.159256374 0.385147987 0
0.31675422 0.370305944 0
0.441214664 0.353744743 0
0.563236935 0.329480846 0
0.687086686 0.295984313 0
0.819874463 0.230519566 0
0.950456832 0.0540098752 0
1 0 0
1 0 0.136159842
1 0 0.228737404
1 0 0.308919974
1 0 0.389688456
1 0 0.476820348
1 0 0.569858823
1 0 0.670667092
1 0 0.770325733
1 0 0.861338111
1 0 0.935728918
1 0 0.975667874
1 0 0.997110287
1 0 1
1 0 1
1 0 1
1 0 1
0 0.516192703 0
0 0.51470814 0
0 0.513207083 0
0 0.511689517 0
0 0.51018773 0
0 0.50714622 0
0 0.502222003 0
0 0.498355487 0
0 0.493367445 0
0 0.485247504 0
0.226191496 0.471729329 0
0.397726866 0.455387814 0
0.531977835 0.437437636 0
0.664655176 0.411427394 0
0.797762518 0.376020173 0
0.925372926 0.312393353 0
1 0.166380387 0
1 0 0
1 0 0.192449587
1 0 0.297146364
1 0 0.389372615
1 0 0.476565793
1 0 0.569693727
1 0 0.670505098
1 0 0.770230161
1 0 0.861275201
1 0 0.935713332
1 0 0.975652358
1 0 0.997094806
1 0 1
1 0 1
1 0 1
1 0 1
0 0.612790324 0
0 0.61158136 0
0 0.610372196 0
0 0.609146917 0
0 0.607937349 0
0 0.606472865 0
0 0.602088481 0
0 0.597652924 0
0 0.593638371 0
0 0.587859769 0
0 0.578693866 0
0.307243904 0.563670079 0
0.485460709 0.545936018 0
0.630081204 0.526689737 0
0.771989992 0.499203244 0
0.90048091 0.463810431 0
1 0.403319239 0
1 0.274448414 0
1 0 0.0329816958
1 0 0.256411752
1 0 0.37451416
1 0 0.476243749
1 0 0.569429284
1 0 0.670311074
1 0 0.770103044
1 0 0.861180836
1 0 0.935666574
1 0 0.975636841
1 0 0.997094806
1 0 1
1 0 1
1 0 1
1 0 1
0 0.71511354 0
0 0.714218569 0
0 0.713307799 0
0 0.712412635 0
0 0.711470255 0
0 0.710559187 0
0 0.708145499 0
0 0.704060764 0
0 0.69988281 0
0 0.695740913 0
0 0.689390412 0
0 0.679420776 0
0.392394792 0.663362499 0
0.579455345 0.644477157 0
0.733288785 0.623903635 0
0.870349375 0.595452051 0
0.987845708 0.559628435 0
1 0.502350266 0
1 0.383995344 0
1 0.111035454 0.0959926919
1 0 0.329500106
1 0 0.458813943
1 0 0.569098127
1 0 0.670068065
1 0 0.769911891
1 0 0.861055014
1 0 0.93560423
1 0 0.975605807
1 0 0.997079325
1 0 1
1 0 1
1 0 1
1 0 1
0 0.812106982 0
0 0.811501242 0
0 0.81087993 0
0 0.810258578 0
0 0.80965272 0
0 0.809031286 0
0 0.808285513 0
0 0.805544155 0
0 0.801875152 0
0 0.797992515 0
0 0.793936968 0
0 0.787454901 0
0.17648634 0.777560836 0
0.49000686 0.761770724 0
0.682200916 0.743266085 0
0.828518125 0.723687796 0
0.952941896 0.697091304 0
1 0.664638116 0
1 0.611391103 0
1 0.492761383 0
1 0.258235989 0.152562164
1 0 0.409086859
1 0 0.548930649
1 0 0.669712008
1 0 0.769657013
1 0 0.860897734
1 0 0.935526544
1 0 0.975574774
1 0 0.997063843
1 0 1
1 0 1
1 0 1
1 0 1
0 0.898437181 0
0 0.898036843 0
0 0.897651889 0
0 0.897251521 0
0 0.896851138 0
0 0.89646614 0
0 0.896065727 0
0 0.895080029 0
0 0.892599253 0
0 0.889280986 0
0 0.885733136 0
0 0.881643746 0
0 0.87518422 0
0.331557956 0.865567009 0
0.604680586 0.850514395 0
0.781440313 0.83352631 0
0.911866665 0.816050517 0
1 0.793697612 0
1 0.766791932 0
1 0.719992483 0
1 0.605388813 0
1 0.375639783 0.212483034
1 0 0.494763755
1 0 0.647329294
1 0 0.7693384
1 0 0.860677808
1 0 0.93541744
1 0 0.97554374
1 0 0.997048362
1 0 1
1 0 1
1 0 1
1 0 1
0 0.957659723 0
0 0.957521906 0
0 0.957368775 0
0 0.957215642 0
0 0.95707782 0
0 0.956924683 0
0 0.956771543 0
0 0.956572459 0
0 0.955898608 0
0 0.954404818 0
0 0.952139193 0
0 0.949419246 0
0 0.945953889 0
0 0.94067704 0
0.494578135 0.932895262 0
0.720937394 0.921499157 0
0.872146911 0.908882594 0
0.963165446 0.896574516 0
1 0.880281475 0
1 0.858131708 0
1 0.818249141 0
1 0.715672249 0
1 0.486336938 0.280874953
1 0 0.587269001
1 0 0.747327475
1 0 0.860378958
1 0 0.935277162
1 0 0.975481673
1 0 0.997032881
1 0 1
1 0 1
1 0 1
1 0 1
0 0.987571629 0
0 0.98751054 0
0 0.98744945 0
0 0.987403633 0
0 0.987342544 0
0 0.987281453 0
0 0.987220363 0
0 0.987143999 0
0 0.98703709 0
0 0.986624714 0
0 0.985435254 0
0 0.983420496 0
0 0.980748904 0
0 0.977283995 0
0.396076702 0.972218745 0
0.658295039 0.965532356 0
0.838096103 0.957139601 0
0.940349878 0.949551821 0
0.98617269 0.943383973 0
1 0.935359377 0
1 0.924112467 0
1 0.900111183 0
1 0.814913641 0
1 0.59917768 0.356394792
1 0 0.686924398
1 0 0.840153043
1 0 0.93509012
1 0 0.975419605
1 0 0.997001918
1 0 1
1 0 1
1 0 1
1 0 1
0 1 0
0 1 0
0 1 0
0 1 0
0 1 0
0 1 0
0 1 0
0 1 0
0 1 0
0 1 0
0 1 0
0 1 0
0 0.999874289 0
0 0.996746263 0
0.274677148 0.992705878 0
0.603834486 0.987315604 0
0.79844092 0.981219294 0
0.923407295 0.975169157 0
0.974167691 0.971052119 0
0.999421422 0.967666091 0
1 0.963273979 0
1 0.957245738 0
1 0.944964601 0
1 0.897833505 0
1 0.709475861 0.438542406
1 0 0.784043163
1 0 0.92072084
1 0 0.975310985
1 0 0.996955699
1 0 1
1 0 1
1 0 1
1 0 1
0 1 0
0 1 0
0 1 0
0 1 0
0 1 0
0 1 0
0 1 0
0 1 0
0 1 0
0 1 0
0 1 0
0 1 0
0 1 0
0 1 0
0 1 0
0.5414312 0.999846294 0
0.761467614 0.994321938 0
0.902453916 0.989161102 0
0.964876427 0.985756389 0
0.992561513 0.983394373 0
1 0.981383226 0
1 0.978795908 0
1 0.975309014 0
1 0.968428237 0
1 0.94369026 0
1 0.80868387 0.528596941
1 0 0.872236173
1 0 0.967905103
1 0 0.996909254
1 0 1
1 0 1
1 0 1
1 0 1
0 1 0
0 1 0
0 1 0
0 1 0
0 1 0
0 1 0
0 1 0
0 1 0
0 1 0
0 1 0
0 1 0
0 1 0
0 1 0
0 1 0
0 1 0
0.460346359 1 0
0.717718301 1 0
0.881074867 0.997345042 0
0.953679277 0.994315183 0
0.98707475 0.992328555 0
1 0.990880325 0
1 0.989629566 0
1 0.988030153 0
1 0.985893369 0
1 0.981781826 0
1 0.967594889 0
1 0.892096468 0.62843092
1 0 0.941047711
1 0 0.992742894
1 0 1
1 0 1
1 0 1
1 0 1
0 1 0
0 1 0
0 1 0
0 1 0
0 1 0
0 1 0
0 1 0
0 1 0
0 1 0
0 1 0
0 1 0
0 1 0
0 1 0
0 1 0
0 1 0
0.286237549 1 0
0.662223782 1 0
0.852559188 1 0
0.942614579 0.999515002 0
0.980516886 0.997797594 0
0.999893969 0.996574506 0
1 0.995651889 0
1 0.994846165 0
1 0.99380173 0
1 0.992444198 0
1 0.989855211 0
1 0.981150443 0
1 0.938636302 0.730122158
1 0.128530997 0.976348752
1 0 1
1 0 1
1 0 1
1 0 1
0 1 0
0 1 0
0 1 0
0 1 0
0 1 0
0 1 0
0 1 0
0 1 0
0 1 0
0 1 0
0 1 0
0 1 0
0 1 0
0 1 0
0 1 0
0 1 0
0.559045399 1 0
0.81134893 1 0
0.92856779 1 0
0.974200085 1 0
0.995847853 1 0
1 0.999409769 0
1 0.998802607 0
1 0.998264094 0
1 0.997570461 0
1 0.99665719 0
1 0.99496105 0
1 0.989259312 0
1 0.962444949 0.824017234
1 0.287616083 0.994592293
1 0 1
1 0 1
1 0 1
0 1 0
0 1 0
0 1 0
0 1 0
0 1 0
0 1 0
0 1 0
0 1 0
0 1 0
0 1 0
0 1 0
0 1 0
0 1 0
0 1 0
0 1 0
0 1 0
0.190659398 1 0
0.734580787 1 0
0.908811501 1 0
0.966431507 1 0
0.991974254 1 0
1 1 0
1 1 0
1 1 0
1 1 0
1 1 0
1 0.999472083 0
1 0.998328644 0
1 0.994316839 0
1 0.975635264 0.900604416
1 0.411003085 1
1 0 1
1 0 1
0 1 0
0 1 0
0 1 0
0 1 0
0 1 0
0 1 0
0 1 0
0 1 0
0 1 0
0 1 0
0 1 0
0 1 0
0 1 0
0 1 0
0 1 0
0 1 0
0 1 0
0.521054745 1 0
0.8650123 1 0
0.955927066 1 0
0.987328155 1 0
1 1 0
1 1 0
1 1 0
1 1 0
1 1 0
1 1 0
1 1 0
1 1 0
1 0.997501603 0.196539136
1 0.983626737 0.941487374
1 0.527549912 1
1 0 1
0 1 0
0 1 0
0 1 0
0 1 0
0 1 0
0 1 0
0 1 0
0 1 0
0 1 0
0 1 0
0 1 0
0 1 0
0 1 0
0 1 0
0 1 0
0 1 0
0 1 0
0 1 0
0.708514194 1 0
0.933986077 1 0
0.981239419 1 0
0.999705127 1 0
1 1 0
1 1 0
1 1 0
1 1 0
1 1 0
1 1 0
1 1 0
1 1 0
1 0.999487165 0.332800568
1 0.988732942 0.963423719
1 0.644171101 1
0 1 0
0 1 0
0 1 0
0 1 0
0 1 0
0 1 0
0 1 0
0 1 0
0 1 0
0 1 0
0 1 0
0 1 0
0 1 0
0 1 0
0 1 0
0 1 0
0 1 0
0 1 0
0 1 0
0.847777456 1 0
0.969040903 1 0
0.995942574 1 0
1 1 0
1 1 0
1 1 0
1 1 0
1 1 0
1 1 0
1 1 0
1 1 0
1 1 0
1 1 0.449385548
1 0.99209172 0.976127478
0 1 0
0 1 0
0 1 0
0 1 0
0 1 0
0 1 0
0 1 0
0 1 0
0 1 0
