Luts/Hasselblad/Hasselblad_Portrait_Phocus_X2D_VLog_65.cube
TITLE "Hasselblad Portrait Phocus X2D from V-Log"
#LUMIXPHOTOSTYLE VLOG
LUT_3D_SIZE 5
0 0 0
0.191668574 0.024383917 0.0463416495
0.839078355 0 0.179034104
1 0 0.744472419
1 0 1
0.0200656138 0.263874266 0
0.208163577 0.232471199 0.0308995193
0.837674525 0 0.17769131
1 0 0.744258793
1 0 1
0 0.936629282 0
0 0.933974212 0
0.864057374 0.900663767 0
1 0 0.722133211
1 0 1
0 1 0
0 1 0
0.329976349 1 0
1 1 0
1 0 1
0 1 0
0 1 0
0 1 0
0.98751812 1 0
1 1 0
0 0 0
0.119462882 0 0.161394675
0.83010605 0 0.282902266
1 0 0.744243534
1 0 1
0 0.210543984 0.145845731
0.173403525 0.173464561 0.174166476
0.828824292 0 0.271335927
1 0 0.744029908
1 0 1
0 0.933882658 0
0 0.931502251 0
0.861600671 0.897322042 0
1 0 0.723537041
1 0 1
0 1 0
0 1 0
0.315892271 1 0
1 1 0
1 0 1
0 1 0
0 1 0
0 1 0
0.986861982 1 0
1 1 0
0 0 0
0 0 0
0.63260853 0 0.78080415
1 0 0.954787518
1 0 1
0 0 0
0 0 0
0.629846647 0 0.778225376
1 0 0.953871977
1 0 1
0 0.866529335 0.737468528
0 0.862684062 0.739971008
0.801724269 0.801968414 0.803830014
1 0 0.9447776
1 0 1
0 1 0
0 1 0
0.0715342947 1 0
1 1 0
1 0 1
0 1 0
0 1 0
0 1 0
0.981872282 1 0
1 1 0
0 0 0
0 0 0
0 0 0
1 0 1
1 0 1
0 0 0
0 0 0
0 0 0
1 0 1
1 0 1
0 0 0
0 0 0
0 0 0
1 0 1
1 0 1
0 1 1
0 1 1
0 1 1
1 1 1
1 0 1
0 1 0
0 1 0
0 1 0
0.556069276 1 0
1 1 0
0 0 0
0 0 0
0 0 0
0 0 0
1 0 1
0 0 0
0 0 0
0 0 0
0 0 0
1 0 1
0 0 0
0 0 0
0 0 0
0 0 0
1 0 1
0 0 0
0 0 0
0 0 0
0 0 0
1 0 1
0 1 1
0 1 1
0 1 1
0 1 1
1 1 1
