Luts/Hasselblad/Hasselblad_Product_Phocus_X2D_VLog.cube
TITLE "Hasselblad Product Phocus X2D from V-Log"
#LUMIXPHOTOSTYLE VLOG
LUT_3D_SIZE 33
0 0 0
0 0 0
0 0 0
0 0 0
0.0445105669 0.00889600977 0.0147402152
0.0823529412 0.0147402152 0.0252384222
0.114030671 0.0183871214 0.032089723
0.149095903 0.0213626307 0.0388647288
0.191668574 0.024383917 0.0463416495
0.242618448 0.0268711376 0.0547035935
0.304539559 0.0283970397 0.0641489281
0.378530556 0.0278324559 0.0749980926
0.462043183 0.0232700084 0.0875104906
0.55350576 0 0.102067597
0.653498131 0 0.120363165
0.750621805 0 0.146257725
0.839078355 0 0.179034104
0.915083543 0 0.218860151
0.97270161 0 0.266895552
1 0 0.325535973
1 0 0.394216831
1 0 0.471213855
1 0 0.555931945
1 0 0.649835966
1 0 0.744472419
1 0 0.8321355
1 0 0.908476387
1 0 0.967681392
1 0 1
1 0 1
1 0 1
1 0 1
1 0 1
0 0 0
0 0 0
0 0 0
0 0 0
0.0417029068 0.00817883574 0.013962005
0.0804303044 0.0143587396 0.0246128023
0.112260624 0.0180819409 0.0317540246
0.147508965 0.0213626307 0.0385900664
0.190264744 0.024383917 0.0460975051
0.241382467 0.0268711376 0.0544899672
0.303395132 0.0283970397 0.0640573739
0.377569238 0.0278324559 0.0749065385
0.461249714 0.0234988937 0.0873426413
0.552834363 0 0.101991302
0.653009842 0 0.12028687
0.750270848 0 0.14618143
0.838834211 0 0.178957809
0.914946212 0 0.218753338
0.972625315 0 0.266849775
1 0 0.325444419
1 0 0.394186313
1 0 0.471183337
1 0 0.555870909
1 0 0.649820706
1 0 0.744441901
1 0 0.832104982
1 0 0.908461128
1 0 0.967681392
1 0 1
1 0 1
1 0 1
1 0 1
1 0 1
0 0 0
0 0 0
0 0 0
0 0 0
0.0385900664 0.0073853666 0.0131227588
0.0784771496 0.0143587396 0.0241702907
0.110536355 0.0180819409 0.0314183261
0.145906767 0.0211184863 0.038315404
0.188845655 0.0241702907 0.0458533608
0.240085451 0.0266727703 0.0542763409
0.302235447 0.0282139315 0.0638590066
0.376546883 0.0278324559 0.0747234302
0.460440986 0.0234988937 0.0872663462
0.552178225 0 0.101823453
0.652491035 0 0.120210575
0.74991989 0 0.146044099
0.838605325 0 0.178835737
0.914793622 0 0.218692302
0.97254902 0 0.266742962
1 0 0.325398642
1 0 0.394110018
1 0 0.471107042
1 0 0.55585565
1 0 0.649774929
1 0 0.744426642
1 0 0.832089723
1 0 0.908461128
1 0 0.967681392
1 0 1
1 0 1
1 0 1
1 0 1
1 0 1
0 0 0
0 0 0
0 0 0
0 0 0
0.0354009308 0.0073853666 0.0117494469
0.0764324407 0.013962005 0.023727779
0.10873579 0.0177767605 0.0310826276
0.144365606 0.0211184863 0.0380254826
0.187426566 0.0241702907 0.0456092164
0.23884947 0.0266727703 0.0540627146
0.301060502 0.0282139315 0.0636758984
0.375570306 0.0278324559 0.0746318761
0.459647517 0.0234988937 0.087083238
0.551537346 0.00392156863 0.101747158
0.65195697 0 0.120073243
0.749568933 0 0.145906767
0.83837644 0 0.178774701
0.914656291 0 0.218585489
0.972487984 0 0.266651408
1 0 0.325307088
1 0 0.394033722
1 0 0.471046006
1 0 0.555794614
1 0 0.649729152
1 0 0.744396124
1 0 0.832089723
1 0 0.908445869
1 0 0.967666133
1 0 1
1 0 1
1 0 1
1 0 1
1 0 1
0.0151064317 0.0680857557 0.00538643473
0.0143587396 0.0637674525 0.00538643473
0.0135500114 0.0592813001 0.00538643473
0.0126802472 0.0545967803 0.00538643473
0.0367284657 0.048813611 0.0143587396
0.0802471962 0.0435034714 0.0147402152
0.117250324 0.0337071794 0.0252384222
0.153093767 0.0230411231 0.0361486229
0.186617838 0.0241702907 0.0452429999
0.23759823 0.0266727703 0.0538490883
0.299946593 0.0282139315 0.0634775311
0.37457847 0.0278324559 0.0744487678
0.458823529 0.0234988937 0.0870069429
0.550881209 0.00392156863 0.101670863
0.651468681 0 0.119996948
0.749217975 0 0.145845731
0.838147555 0 0.178652628
0.914518959 0 0.218524453
0.972411688 0 0.266590372
1 0 0.325261311
1 0 0.393987945
1 0 0.471015488
1 0 0.555748836
1 0 0.649713893
1 0 0.744365606
1 0 0.832059205
1 0 0.908445869
1 0 0.967666133
1 0 1
1 0 1
1 0 1
1 0 1
1 0 1
0.0211184863 0.117708095 0
0.0208590829 0.114183261 0
0.0205996796 0.110704204 0
0.0203402762 0.107087816 0
0.0371709773 0.102555886 0.0174715801
0.0839093614 0.0969558251 0.0252384222
0.11808957 0.0931563287 0.0248264286
0.15553521 0.0887006943 0.0189669642
0.202227817 0.0799877928 0.0266727703
0.260471504 0.0638590066 0.0391546502
0.324940871 0.0432440681 0.0555580987
0.387426566 0.0298619059 0.0713511864
0.457999542 0.023727779 0.0868390936
0.550209812 0.00538643473 0.101503014
0.650949874 0 0.119844358
0.748867018 0 0.145693141
0.83790341 0 0.178576333
0.914366369 0 0.21840238
0.972335393 0 0.266498817
1 0 0.325169757
1 0 0.39391165
1 0 0.470954452
1 0 0.555718318
1 0 0.649668116
1 0 0.744350347
1 0 0.832059205
1 0 0.90843061
1 0 0.967666133
1 0 1
1 0 1
1 0 1
1 0 1
1 0 1
0.023727779 0.160799573 0
0.0234988937 0.157701991 0
0.0234988937 0.154589151 0
0.0232700084 0.151445792 0
0.0354009308 0.14743267 0.0107118334
0.0824292363 0.142610819 0.0254520485
0.120668345 0.137071794 0.0298619059
0.158251316 0.132875563 0.0283970397
0.20328069 0.127168688 0.0230411231
0.25647364 0.119081407 0.0174715801
0.327183948 0.100053407 0.0343327993
0.407446403 0.0719920653 0.052979324
0.489662013 0.0296787976 0.077332723
0.559578851 0.0101472496 0.0981002518
0.650431067 0 0.119768063
0.74851606 0 0.145632105
0.837674525 0 0.178454261
0.914229038 0 0.218295567
0.972274357 0 0.266437781
1 0 0.325078202
1 0 0.393865873
1 0 0.470923934
1 0 0.555672541
1 0 0.649652857
1 0 0.744319829
1 0 0.832028687
1 0 0.908415351
1 0 0.967650874
1 0 1
1 0 1
1 0 1
1 0 1
1 0 1
0.023727779 0.207873655 0
0.0239566644 0.205111772 0
0.0239566644 0.20233463 0
0.0239566644 0.199603265 0
0.0300297551 0.196475166 0
0.0806897078 0.191546502 0.0208590829
0.119157702 0.186678874 0.0282139315
0.160662242 0.18080415 0.0319218738
0.205828946 0.175524529 0.0289616236
0.259647517 0.168139162 0.0218661784
0.324345769 0.158175021 0
0.406012055 0.135347524 0.0256656748
0.496345464 0.0981765469 0.0504158083
0.58721294 0.0496223392 0.0812085145
0.668879225 0 0.111940185
0.748073548 0 0.145494774
0.837384604 0 0.178332189
0.914061189 0 0.218188754
0.972182803 0 0.266346227
1 0 0.324986648
1 0 0.393789578
1 0 0.470862898
1 0 0.555611505
1 0 0.64960708
1 0 0.744289311
1 0 0.832013428
1 0 0.908415351
1 0 0.967650874
1 0 1
1 0 1
1 0 1
1 0 1
1 0 1
0.0200656138 0.263874266 0
0.0203402762 0.261448081 0
0.0205996796 0.259021897 0
0.0208590829 0.256519417 0
0.0211184863 0.254062715 0
0.0775921263 0.248737316 0.00648508431
0.114885176 0.245181964 0.0189669642
0.158449683 0.239444572 0.0268711376
0.208163577 0.232471199 0.0308995193
0.262119478 0.225833524 0.0250400549
0.327595941 0.216479744 0.00889600977
0.403387503 0.204226749 0
0.492164492 0.177370871 0
0.59205005 0.131136034 0.0460975051
0.689570459 0.0719005112 0.0871747921
0.770748455 0 0.133028153
0.837674525 0 0.17769131
0.913817044 0 0.218066682
0.972060731 0 0.266193637
1 0 0.324895094
1 0 0.393682765
1 0 0.470756085
1 0 0.555565728
1 0 0.649546044
1 0 0.744258793
1 0 0.83198291
1 0 0.908400092
1 0 0.967635615
1 0 1
1 0 1
1 0 1
1 0 1
1 0 1
0 0.331700618 0
0 0.329518578 0
0 0.327367056 0
0 0.325169757 0
0 0.322972457 0
0.0708781567 0.317524987 0
0.109056229 0.314442664 0
0.151384756 0.30998703 0
0.204699779 0.302571145 0.0180819409
0.264026856 0.293904021 0.0239566644
0.329701686 0.285481041 0.00648508431
0.406012055 0.273563745 0
0.489662013 0.258396277 0
0.585152972 0.228000305 0
0.691203174 0.174364843 0.0463416495
0.784969863 0.101823453 0.0990768292
0.860715648 0 0.159929808
0.91653315 0 0.21481651
0.971892882 0 0.265980011
1 0 0.324711986
1 0 0.393514916
1 0 0.470634012
1 0 0.555458915
1 0 0.649469749
1 0 0.744197757
1 0 0.831952392
1 0 0.908369574
1 0 0.967635615
1 0 1
1 0 1
1 0 1
1 0 1
1 0 1
0 0.409964141 0
0 0.408163577 0
0 0.406347753 0
0 0.40453193 0
0 0.402700847 0
0.0558785382 0.398260472 0
0.100129702 0.394415198 0
0.142687114 0.391180285 0
0.194720378 0.385763333 0
0.259174487 0.376867323 0
0.330968185 0.36661326 0
0.407141222 0.356450752 0
0.490928511 0.342107271 0
0.582116426 0.323979553 0
0.683329519 0.289478904 0
0.785152972 0.226398108 0.0492713817
0.870176242 0.137499046 0.114656291
0.934660868 0 0.19313344
0.974959945 0 0.259739071
1 0 0.324483101
1 0 0.393362325
1 0 0.47051194
1 0 0.555321584
1 0 0.649378195
1 0 0.744121462
1 0 0.831906615
1 0 0.908339055
1 0 0.967620356
1 0 1
1 0 1
1 0 1
1 0 1
1 0 1
0 0.49500267 0
0 0.49359884 0
0 0.492179751 0
0 0.490745403 0
0 0.489326314 0
0.0254520485 0.486472877 0
0.0861524376 0.482093538 0
0.132234684 0.478904402 0
0.184634165 0.475028611 0
0.247104601 0.468848707 0
0.325032425 0.458823529 0
0.407858396 0.447547112 0
0.491279469 0.436285954 0
0.582940414 0.420370794 0
0.681223774 0.400030518 0
0.777904936 0.362386511 0
0.869459068 0.287754635 0.052979324
0.940321965 0.180163272 0.134615091
0.98643473 0 0.233463035
1 0 0.314900435
1 0 0.393087663
1 0 0.470283055
1 0 0.555168994
1 0 0.649225605
1 0 0.744029908
1 0 0.831845579
1 0 0.908308537
1 0 0.967589837
1 0 1
1 0 1
1 0 1
1 0 1
1 0 1
0 0.587029831 0
0 0.585870146 0
0 0.58471046 0
0 0.583535515 0
0 0.58237583 0
0 0.580972 0
0.0654154269 0.576897841 0
0.119691768 0.57300679 0
0.173785 0.569787137 0
0.236072328 0.565346761 0
0.310841535 0.558480201 0
0.401373312 0.54743267 0
0.49204242 0.53510338 0
0.583321889 0.522865644 0
0.682017243 0.505577173 0
0.776607919 0.483634699 0
0.86318761 0.443869688 0
0.93931487 0.360357061 0.0573434043
0.989105058 0.230487526 0.159853513
1 0 0.282551308
1 0 0.380315862
1 0 0.469993133
1 0 0.554924849
1 0 0.649042496
1 0 0.743907836
1 0 0.831754025
1 0 0.908247501
1 0 0.967559319
1 0 1
1 0 1
1 0 1
1 0 1
1 0 1
0 0.685847257 0
0 0.684977493 0
0 0.68409247 0
0 0.683222705 0
0 0.682307164 0
0 0.681422141 0
0.0220950637 0.67908751 0
0.0973678187 0.675364309 0
0.159456779 0.671808957 0
0.222919051 0.668619821 0
0.297322042 0.663889525 0
0.385290303 0.65662623 0
0.485160601 0.644892042 0
0.584130617 0.631723507 0
0.682383459 0.618387121 0
0.777325093 0.599282826 0
0.862455177 0.574807355 0
0.934447242 0.531944762 0
0.988311589 0.441702907 0.0628824292
1 0.290272374 0.191302358
1 0 0.342290379
1 0 0.454428931
1 0 0.554619669
1 0 0.648813611
1 0 0.743724727
1 0 0.831631952
1 0 0.908171206
1 0 0.967528801
1 0 1
1 0 1
1 0 1
1 0 1
1 0 1
0 0.780636301 0
0 0.780041199 0
0 0.779430838 0
0 0.778820478 0
0 0.778225376 0
0 0.777615015 0
0 0.776882582 0
0.0575417716 0.77425803 0
0.133974212 0.771023117 0
0.206591897 0.767910277 0
0.281208515 0.765041581 0
0.369695583 0.760570687 0
0.467734798 0.753765164 0
0.576577401 0.742656596 0
0.683222705 0.730144198 0
0.777660792 0.717250324 0
0.863096056 0.698496986 0
0.934096284 0.673685817 0
0.98533608 0.628946365 0
1 0.52964065 0.0699626154
1 0.361333639 0.229663539
1 0.0289616236 0.410635538
1 0 0.536095216
1 0 0.648477913
1 0 0.743480583
1 0 0.831479362
1 0 0.908079652
1 0 0.967483024
1 0 1
1 0 1
1 0 1
1 0 1
1 0 1
0 0.86582742 0
0 0.865430686 0
0 0.86504921 0
0 0.864652476 0
0 0.864255741 0
0 0.863874266 0
0 0.863477531 0
0 0.862500954 0
0.0886243992 0.860196841 0
0.177370871 0.857465476 0
0.261661707 0.85491722 0
0.350820172 0.852399481 0
0.450614176 0.848401617 0
0.557320516 0.842328527 0
0.675562676 0.832471199 0
0.778439002 0.821255818 0
0.863370718 0.809597925 0
0.934584573 0.792523079 0
0.985214008 0.769649805 0
1 0.727916381 0
1 0.626398108 0.078751812
1 0.4411841 0.2764477
1 0.0576485847 0.486991684
1 0 0.62745098
1 0 0.743175402
1 0 0.831265736
1 0 0.907942321
1 0 0.967406729
1 0 1
1 0 1
1 0 1
1 0 1
1 0 1
0 0.936629282 0
0 0.936400397 0
0 0.93618677 0
0 0.935957885 0
0 0.935729 0
0 0.935500114 0
0 0.935271229 0
0 0.934996567 0
0 0.933974212 0
0.12449836 0.932188907 0
0.228503853 0.930098421 0
0.327733272 0.928160525 0
0.429587243 0.926161593 0
0.538292515 0.922941939 0
0.655497063 0.918013275 0
0.771419852 0.909956512 0
0.864057374 0.900663767 0
0.934798199 0.890882734 0
0.985503929 0.876295109 0
1 0.856382086 0
1 0.819562066 0
1 0.725398642 0.0900587472
1 0.527885863 0.333913176
1 0.0853742275 0.571786069
1 0 0.722133211
1 0 0.830975814
1 0 0.907774472
1 0 0.967315175
1 0 1
1 0 1
1 0 1
1 0 1
1 0 1
0 0.986724651 0
0 0.986633097 0
0 0.986526284 0
0 0.986419471 0
0 0.986327916 0
0 0.986221103 0
0 0.98611429 0
0 0.985992218 0
0 0.98580911 0
0 0.985076677 0
0.167147326 0.983962768 0
0.288944839 0.98268101 0
0.403845274 0.981490806 0
0.515220874 0.980209049 0
0.635019455 0.978103304 0
0.752773327 0.974822614 0
0.857938506 0.969329366 0
0.935332265 0.962813764 0
0.98564126 0.955718318 0
1 0.944792859 0
1 0.929304952 0
1 0.899458305 0
1 0.817257954 0.104554818
1 0.623620966 0.401144427
1 0.11793698 0.665247578
1 0 0.81138323
1 0 0.907530327
1 0 0.967193103
1 0 1
1 0 1
1 0 1
1 0 1
1 0 1
0 1 0
0 1 0
0 1 0
0 1 0
0 1 0
0 1 0
0 1 0
0 1 0
0 1 0
0 1 0
0.0491645686 1 0
0.217380026 1 0
0.360738537 1 0
0.487388418 1 0
0.609689479 1 0
0.733196002 1 0
0.841519799 1 0
0.930556191 1 0
0.985976959 1 0
1 0.997711147 0
1 0.991638056 0
1 0.98220798 0
1 0.962050813 0
1 0.897489891 0.12292668
1 0.722163729 0.476661326
1 0.156893263 0.758068208
1 0 0.890699626
1 0 0.967025254
1 0 1
1 0 1
1 0 1
1 0 1
1 0 1
0 1 0
0 1 0
0 1 0
0 1 0
0 1 0
0 1 0
0 1 0
0 1 0
0 1 0
0 1 0
0 1 0
0.0800793469 1 0
0.2764477 1 0
0.441290913 1 0
0.578713664 1 0
0.708537423 1 0
0.823941405 1 0
0.917387655 1 0
0.98300145 1 0
1 1 0
1 1 0
1 1 0
1 1 0
1 1 0
1 0.960631724 0.146120394
1 0.813946746 0.560234989
1 0.20328069 0.84368658
1 0 0.954650187
1 0 1
1 0 1
1 0 1
1 0 1
1 0 1
0 1 0
0 1 0
0 1 0
0 1 0
0 1 0
0 1 0
0 1 0
0 1 0
0 1 0
0 1 0
0 1 0
0 1 0
0.114885176 1 0
0.346852827 1 0
0.528542 1 0
0.677500572 1 0
0.801541161 1 0
0.902876326 1 0
0.974425879 1 0
1 1 0
1 1 0
1 1 0
1 1 0
1 1 0
1 1 0
1 1 0.175005722
1 0.894468605 0.653009842
1 0.257923247 0.917601282
1 0 0.996765087
1 0 1
1 0 1
1 0 1
1 0 1
0 1 0
0 1 0
0 1 0
0 1 0
0 1 0
0 1 0
0 1 0
0 1 0
0 1 0
0 1 0
0 1 0
0 1 0
0 1 0
0.156145571 1 0
0.42652018 1 0
0.624460212 1 0
0.773022049 1 0
0.88392462 1 0
0.964354925 1 0
1 1 0
1 1 0
1 1 0
1 1 0
1 1 0
1 1 0
1 1 0
1 1 0.210482948
1 0.958297093 0.746456092
1 0.323338674 0.973785
1 0 1
1 0 1
1 0 1
1 0 1
0 1 0
0 1 0
0 1 0
0 1 0
0 1 0
0 1 0
0 1 0
0 1 0
0 1 0
0 1 0
0 1 0
0 1 0
0 1 0
0 1 0
0.204882887 1 0
0.51294728 1 0
0.723048753 1 0
0.859235523 1 0
0.950514992 1 0
1 1 0
1 1 0
1 1 0
1 1 0
1 1 0
1 1 0
1 1 0
1 1 0
1 1 0.253543908
1 0.999038682 0.833249409
1 0.398992905 1
1 0 1
1 0 1
1 0 1
0 1 0
0 1 0
0 1 0
0 1 0
0 1 0
0 1 0
0 1 0
0 1 0
0 1 0
0 1 0
0 1 0
0 1 0
0 1 0
0 1 0
0 1 0
0.261860075 1 0
0.608056764 1 0
0.814785992 1 0
0.931502251 1 0
0.99485771 1 0
1 1 0
1 1 0
1 1 0
1 1 0
1 1 0
1 1 0
1 1 0
1 1 0
1 1 0.306416419
1 1 0.908995193
1 0.482276646 1
1 0 1
1 0 1
0 1 0
0 1 0
0 1 0
0 1 0
0 1 0
0 1 0
0 1 0
0 1 0
0 1 0
0 1 0
0 1 0
0 1 0
0 1 0
0 1 0
0 1 0
0 1 0
0.329976349 1 0
0.707576104 1 0
0.895216297 1 0
0.983566033 1 0
1 1 0
1 1 0
1 1 0
1 1 0
1 1 0
1 1 0
1 1 0
1 1 0
1 1 0
1 1 0.369771878
1 1 0.967833982
1 0.573113603 1
1 0 1
0 1 0
0 1 0
0 1 0
0 1 0
0 1 0
0 1 0
0 1 0
0 1 0
0 1 0
0 1 0
0 1 0
0 1 0
0 1 0
0 1 0
0 1 0
0 1 0
0 1 0
0.407965209 1 0
0.801083391 1 0
0.958876936 1 0
1 1 0
1 1 0
1 1 0
1 1 0
1 1 0
1 1 0
1 1 0
1 1 0
1 1 0
1 1 0
1 1 0.442084382
1 1 1
1 0.671732662 1
0 1 0
0 1 0
0 1 0
0 1 0
0 1 0
0 1 0
0 1 0
0 1 0
0 1 0
0 1 0
0 1 0
0 1 0
0 1 0
0 1 0
0 1 0
0 1 0
0 1 0
0 1 0
0.49314107 1 0
0.883802548 1 0
0.999343862 1 0
1 1 0
1 1 0
1 1 0
1 1 0
1 1 0
1 1 0
1 1 0
1 1 0
1 1 0
1 1 0
1 1 0.521904326
1 1 1
0 1 0
0 1 0
0 1 0
0 1 0
0 1 0
0 1 0
0 1 0
0 1 0
0 1 0
