Luts/Hasselblad/Hasselblad_Standard_Phocus_X2D_VLog_Rec709.cube
TITLE "Hasselblad Standard Phocus X2D ColorCorrect from V-Log to Rec.709"
#LUMIXPHOTOSTYLE VLOG
# INPUT_COLORSPACE Panasonic V-Log / V-Gamut
# OUTPUT_COLORSPACE Rec.709 primaries / D65 / BT.709 OETF
LUT_3D_SIZE 33
0 0 0
0 0 0
0 0 0
0 0 0
0.00733613007 0 0.000377063059
0.0284593058 0 0.00118863525
0.0583335257 0 0.00191927256
0.103657289 0 0.00277040132
0.161084955 0 0.00381348526
0.229664092 0 0.00507973013
0.312833896 0 0.00654981727
0.412009211 0 0.00827964137
0.523717992 0 0.0105382473
0.645818465 0 0.0138417704
0.77891554 0 0.0198214109
0.90793874 0 0.0352244412
1 0 0.0652324606
1 0 0.114476904
1 0 0.176478847
1 0 0.250256114
1 0 0.334151164
1 0 0.42613497
1 0 0.525794115
1 0 0.635069053
1 0 0.74436012
1 0 0.845075523
1 0 0.927992014
1 0 0.972678227
1 0 0.996765846
1 0 1
1 0 1
1 0 1
1 0 1
0 0 0
0 0 0
0 0 0
0 0 0
0.00635869097 0 0.000336798351
0.0270198867 0 0.00112400421
0.0563600447 0 0.00188241591
0.101508372 0 0.00273449708
0.159190164 0 0.00377642865
0.22800082 0 0.00504307059
0.311297381 0 0.00655443457
0.410722116 0 0.00828045763
0.522656066 0 0.01048604
0.644923698 0 0.0138380775
0.778266051 0 0.0198004745
0.907472728 0 0.035179715
1 0 0.0651575176
1 0 0.114336813
1 0 0.17642097
1 0 0.250142293
1 0 0.334114152
1 0 0.426098737
1 0 0.525722657
1 0 0.635051361
1 0 0.744324968
1 0 0.845040523
1 0 0.927974562
1 0 0.972678227
1 0 0.996765846
1 0 1
1 0 1
1 0 1
1 0 1
0 0 0
0 0 0
0 0 0
0 0 0
0.00536325849 0 0.000296382014
0.0255865311 0 0.0010824687
0.054461539 0 0.00184353964
0.0993488476 0 0.00270084431
0.157282401 0 0.0037417178
0.226261333 0 0.00501014873
0.30974567 0 0.00651877235
0.409353852 0 0.00823994249
0.521575853 0 0.0104898375
0.644049844 0 0.0137693227
0.777575934 0 0.0197822999
0.907007123 0 0.0350693743
1 0 0.0650179938
1 0 0.114260086
1 0 0.176283776
1 0 0.250086855
1 0 0.334022388
1 0 0.426008765
1 0 0.525704792
1 0 0.634998287
1 0 0.744307391
1 0 0.845023023
1 0 0.927974562
1 0 0.972678227
1 0 0.996765846
1 0 1
1 0 1
1 0 1
1 0 1
0 0 0
0 0 0
0 0 0
0 0 0
0.00442944742 0 0.00022860324
0.0241427859 0 0.00104417937
0.0525284653 0 0.00180771196
0.0972615511 0 0.00266139387
0.15536664 0 0.00370529213
0.224597862 0 0.00497372569
0.308168715 0 0.00648789127
0.408046236 0 0.00824137924
0.520516708 0 0.0104308511
0.643193739 0 0.0137616351
0.776865882 0 0.0197135956
0.906541516 0 0.0349591792
1 0 0.06496222
1 0 0.114121627
1 0 0.176165437
1 0 0.249973024
1 0 0.333929854
1 0 0.425936297
1 0 0.525633333
1 0 0.634945213
1 0 0.744272239
1 0 0.845023023
1 0 0.927957111
1 0 0.972678227
1 0 0.996748428
1 0 1
1 0 1
1 0 1
1 0 1
0 0.0131220926 0
0 0.011360194 0
0 0.00967554241 0
0 0.00807255012 0
0.00194667331 0.00612382671 0
0.0248786278 0.00380857286 0
0.0611546037 0.000259096986 0.000690318522
0.109028773 0 0.00212269225
0.154276786 0 0.0036245321
0.222913713 0 0.0049378357
0.306673794 0 0.00644885659
0.406718771 0 0.00819953471
0.519416062 0 0.010435508
0.642319284 0 0.013756808
0.776216377 0 0.0196927223
0.906075395 0 0.0349310057
1 0 0.0648228835
1 0 0.114044884
1 0 0.176088674
1 0 0.249916599
1 0 0.3338751
1 0 0.425900063
1 0 0.525579738
1 0 0.634927521
1 0 0.744237086
1 0 0.844988022
1 0 0.927957111
1 0 0.972678227
1 0 0.996748428
1 0 1
1 0 1
1 0 1
1 0 1
0 0.0437756744 0
0 0.040942206 0
0 0.0382465771 0
0 0.035550198 0
0 0.0321635763 0
0.0167632091 0.0273846277 0
0.0514206388 0.0236229046 0
0.103812896 0.0188195171 0
0.170653726 0.0103527588 0
0.251827898 0 0
0.339826444 0 0.00240455953
0.423909144 0 0.00612224342
0.518313209 0 0.0103853568
0.641423012 0 0.0136876388
0.775526722 0 0.0196098598
0.905609885 0 0.0348046482
1 0 0.0647481683
1 0 0.113883022
1 0 0.175971598
1 0 0.249802759
1 0 0.333782562
1 0 0.425827594
1 0 0.525544008
1 0 0.634874857
1 0 0.74421951
1 0 0.844988022
1 0 0.92793966
1 0 0.972678227
1 0 0.996748428
1 0 1
1 0 1
1 0 1
1 0 1
0 0.0868651562 0
0 0.0833142284 0
0 0.079751076 0
0 0.0762264985 0
0 0.0717384719 0
0 0.0656683354 0
0.0384025812 0.0585570161 0
0.094013688 0.052318586 0
0.162671079 0.0434777813 0
0.239452953 0.0308468548 0
0.338954776 0.00651801907 0
0.449306982 0 0
0.560586167 0 0.00325852971
0.653923926 0 0.0106636027
0.774836582 0 0.0195917948
0.905143759 0 0.0347765479
1 0 0.0646090355
1 0 0.113742827
1 0 0.175894825
1 0 0.249688912
1 0 0.333727806
1 0 0.425791359
1 0 0.525490909
1 0 0.634857165
1 0 0.744184357
1 0 0.844953022
1 0 0.92793966
1 0 0.972660798
1 0 0.996748428
1 0 1
1 0 1
1 0 1
1 0 1
0 0.140765535 0
0 0.137606066 0
0 0.134429809 0
0 0.131305441 0
0 0.127689328 0
0 0.121270125 0
0.00928800328 0.114442359 0
0.0732243523 0.10555678 0
0.150409593 0.0960725925 0
0.232965609 0.0815131942 0
0.326701685 0.060305197 0
0.442139527 0.0208188562 0
0.567091769 0 0
0.690361061 0 0
0.799436001 0 0.0115300983
0.904556437 0 0.0346764956
1 0 0.0644774543
1 0 0.113605954
1 0 0.175777731
1 0 0.249575059
1 0 0.333635264
1 0 0.4257195
1 0 0.525419448
1 0 0.63480409
1 0 0.744149205
1 0 0.844935522
1 0 0.927922208
1 0 0.972660798
1 0 0.996748428
1 0 1
1 0 1
1 0 1
1 0 1
0 0.204725834 0
0 0.201957907 0
0 0.199189724 0
0 0.196334196 0
0 0.193530567 0
0 0.186907646 0
0 0.182025197 0
0.0253803826 0.173938979 0
0.124596716 0.163334161 0
0.217010536 0.151658593 0
0.317741227 0.133712852 0
0.427883727 0.10682339 0
0.554130251 0.0488359696 0
0.693252208 0 0
0.82615933 0 0
0.934770009 0 0.0195611034
1 0 0.0635684664
1 0 0.113452374
1 0 0.175581263
1 0 0.249462184
1 0 0.333506469
1 0 0.425592674
1 0 0.525365852
1 0 0.634733323
1 0 0.744114052
1 0 0.844900521
1 0 0.927904757
1 0 0.972660798
1 0 0.996748428
1 0 1
1 0 1
1 0 1
1 0 1
0 0.282002514 0
0 0.279520077 0
0 0.277072193 0
0 0.274572054 0
0 0.27207174 0
0 0.265519443 0
0 0.261442088 0
0 0.255359179 0
0.0526774664 0.244966301 0
0.184678713 0.231897108 0
0.297078616 0.217324385 0
0.414931861 0.195376662 0
0.537241838 0.16440387 0
0.673909262 0.0998620994 0
0.822903094 0 0
0.952134848 0 0
1 0 0.0379947173
1 0 0.10857628
1 0 0.175306666
1 0 0.249235431
1 0 0.333303628
1 0 0.425448338
1 0 0.525240793
1 0 0.634644864
1 0 0.744043746
1 0 0.844865521
1 0 0.927887305
1 0 0.972643369
1 0 0.996748428
1 0 1
1 0 1
1 0 1
1 0 1
0 0.370936393 0
0 0.368892458 0
0 0.366831108 0
0 0.364769662 0
0 0.362690796 0
0 0.357490175 0
0 0.352702276 0
0 0.348330286 0
0 0.340875249 0
0.097224989 0.328353625 0
0.25705476 0.312800585 0
0.387475051 0.295497291 0
0.517936917 0.270247896 0
0.652487606 0.235601549 0
0.79875979 0.168674954 0
0.94435304 0.0193786997 0
1 0 0
1 0 0.0746033971
1 0 0.166868964
1 0 0.248951214
1 0 0.333120056
1 0 0.425303387
1 0 0.525080001
1 0 0.634538713
1 0 0.743955863
1 0 0.84481302
1 0 0.927852402
1 0 0.972643369
1 0 0.996748428
1 0 1
1 0 1
1 0 1
1 0 1
0 0.467369727 0
0 0.46577927 0
0 0.464171478 0
0 0.46254635 0
0 0.460938461 0
0 0.457683116 0
0 0.452415688 0
0 0.448282289 0
0 0.442953366 0
0 0.434286818 0
0.164290591 0.419881816 0
0.341568037 0.402507773 0
0.484301122 0.383474707 0
0.627974939 0.3559942 0
0.774271078 0.318783491 0
0.916261641 0.252542285 0
1 0.104291368 0
1 0 0
1 0 0.130301115
1 0 0.236799204
1 0 0.332788371
1 0 0.425032206
1 0 0.524901837
1 0 0.634361792
1 0 0.743850404
1 0 0.844743019
1 0 0.927834951
1 0 0.97262594
1 0 0.996731011
1 0 1
1 0 1
1 0 1
1 0 1
0 0.571534986 0
0 0.570223453 0
0 0.568911893 0
0 0.567583049 0
0 0.566271435 0
0 0.564683655 0
0 0.559931834 0
0 0.55512713 0
0 0.550780718 0
0 0.544528217 0
0 0.534619857 0
0.247219331 0.518403968 0
0.434514242 0.49930331 0
0.590313466 0.478624913 0
0.745792452 0.449188365 0
0.888441927 0.411457098 0
1 0.347452445 0
1 0.213464274 0
1 0 0.0114874327
1 0 0.195012561
1 0 0.317206047
1 0 0.424689142
1 0 0.524616469
1 0 0.634149894
1 0 0.743710137
1 0 0.844638017
1 0 0.927782597
1 0 0.972608511
1 0 0.996731011
1 0 1
1 0 1
1 0 1
1 0 1
0 0.683197969 0
0 0.682215906 0
0 0.6812166 0
0 0.680234511 0
0 0.679200719 0
0 0.678201373 0
0 0.675554271 0
0 0.671076051 0
0 0.666497627 0
0 0.661960716 0
0 0.655008458 0
0 0.644103707 0
0.335962931 0.626564174 0
0.535442582 0.605976951 0
0.703161511 0.583600012 0
0.854844074 0.552744058 0
0.986328535 0.514046971 0
1 0.452552844 0
1 0.327144244 0
1 0.05319718 0.0423546246
1 0 0.270267887
1 0 0.406146741
1 0 0.524259123
1 0 0.633884504
1 0 0.743499215
1 0 0.844498013
1 0 0.92771279
1 0 0.972573653
1 0 0.996713593
1 0 1
1 0 1
1 0 1
1 0 1
0 0.790151692 0
0 0.789480655 0
0 0.788792407 0
0 0.788104154 0
0 0.787433101 0
0 0.786744837 0
0 0.785918912 0
0 0.782883421 0
0 0.778821965 0
0 0.774525538 0
0 0.770039444 0
0 0.762872786 0
0.114346689 0.751942293 0
0.439365303 0.73451969 0
0.64714343 0.714136217 0
0.808346081 0.69261122 0
0.947139132 0.663439675 0
1 0.627956319 0
1 0.570017072 0
1 0.44230615 0
1 0.196874973 0.090602036
1 0 0.353527272
1 0 0.502525581
1 0 0.633495667
1 0 0.743217981
1 0 0.844323008
1 0 0.927625806
1 0 0.972538795
1 0 0.996696175
1 0 1
1 0 1
1 0 1
1 0 1
0 0.886160377 0
0 0.8857135 0
0 0.885283808 0
0 0.884836926 0
0 0.884390042 0
0 0.883960344 0
0 0.883513457 0
0 0.882413416 0
0 0.87964527 0
0 0.875943525 0
0 0.871986816 0
0 0.867427641 0
0 0.860229296 0
0.272404494 0.849519517 0
0.562740867 0.832774838 0
0.756226923 0.813903869 0
0.901159724 0.794521239 0
1 0.76977473 0
1 0.740057128 0
1 0.688553296 0
1 0.563508518 0
1 0.318385017 0.15043981
1 0 0.44444471
1 0 0.609083292
1 0 0.742866434
1 0 0.844078301
1 0 0.927503645
1 0 0.972503936
1 0 0.996678757
1 0 1
1 0 1
1 0 1
1 0 1
0 0.952429966 0
0 0.952275383 0
0 0.952103624 0
0 0.951931865 0
0 0.951777281 0
0 0.951605521 0
0 0.951433761 0
0 0.951210472 0
0 0.950454723 0
0 0.948779524 0
0 0.946239134 0
0 0.943189928 0
0 0.939306035 0
0 0.93339393 0
0.444246439 0.924679916 0
0.689590782 0.911928506 0
0.856845971 0.897825376 0
0.958606884 0.884081302 0
1 0.865909226 0
1 0.841245654 0
1 0.796958064 0
1 0.683811094 0
1 0.435448987 0.220058487
1 0 0.543889252
1 0 0.718606766
1 0 0.843745785
1 0 0.92734658
1 0 0.97243422
1 0 0.996661339
1 0 1
1 0 1
1 0 1
1 0 1
0 0.98602039 0
0 0.985951709 0
0 0.985883028 0
0 0.985831518 0
0 0.985762837 0
0 0.985694156 0
0 0.985625474 0
0 0.985539623 0
0 0.985419431 0
0 0.984955832 0
0 0.983618703 0
0 0.981354098 0
0 0.978351749 0
0 0.974458786 0
0.339832808 0.968769662 0
0.621035752 0.961263163 0
0.818977342 0.951846575 0
0.933027465 0.943338536 0
0.984447675 0.936426426 0
1 0.927438633 0
1 0.914851561 0
1 0.888029147 0
1 0.793261385 0
1 0.556778489 0.298262375
1 0 0.652310047
1 0 0.821261675
1 0 0.927137158
1 0 0.972364503
1 0 0.996626503
1 0 1
1 0 1
1 0 1
1 0 1
0 1 0
0 1 0
0 1 0
0 1 0
0 1 0
0 1 0
0 1 0
0 1 0
0 1 0
0 1 0
0 1 0
0 1 0
0 0.999858533 0
0 0.99633887 0
0.213698801 0.99179386 0
0.561823861 0.98573255 0
0.775021652 0.97888033 0
0.914062746 0.972083197 0
0.97095839 0.967459662 0
0.999348913 0.963658181 0
1 0.958728674 0
1 0.951965622 0
1 0.938197461 0
1 0.885486528 0
1 0.677013202 0.384644543
1 0 0.759102493
1 0 0.911058058
1 0 0.972242499
1 0 0.996574502
1 0 1
1 0 1
1 0 1
1 0 1
0 1 0
0 1 0
0 1 0
0 1 0
0 1 0
0 1 0
0 1 0
0 1 0
0 1 0
0 1 0
0 1 0
0 1 0
0 1 0
0 1 0
0 1 0
0.494458475 0.999827028 0
0.734185504 0.99361159 0
0.890644895 0.987807512 0
0.960526992 0.983979695 0
0.991631491 0.981324738 0
1 0.979064547 0
1 0.976157352 0
1 0.972240286 0
1 0.964513752 0
1 0.936769592 0
1 0.786360075 0.480671618
1 0 0.85694539
1 0 0.963926486
1 0 0.996522248
1 0 1
1 0 1
1 0 1
1 0 1
0 1 0
0 1 0
0 1 0
0 1 0
0 1 0
0 1 0
0 1 0
0 1 0
0 1 0
0 1 0
0 1 0
0 1 0
0 1 0
0 1 0
0 1 0
0.407774983 1 0
0.686056725 1 0
0.866793536 0.997012553 0
0.947965942 0.993603992 0
0.98546177 0.991369483 0
1 0.989740764 0
1 0.98833427 0
1 0.986535909 0
1 0.984133678 0
1 0.979512478 0
1 0.963578254 0
1 0.879084313 0.588519548
1 0 0.933809143
1 0 0.991835493
1 0 1
1 0 1
1 0 1
1 0 1
0 1 0
0 1 0
0 1 0
0 1 0
0 1 0
0 1 0
0 1 0
0 1 0
0 1 0
0 1 0
0 1 0
0 1 0
0 1 0
0 1 0
0 1 0
0.225568737 1 0
0.6253216 1 0
0.835048187 1 0
0.935564431 0.999454219 0
0.978091034 0.997521738 0
0.999880678 0.996145633 0
1 0.995107676 0
1 0.994201285 0
1 0.99302644 0
1 0.991499545 0
1 0.988588002 0
1 0.97880296 0
1 0.931108189 0.699680639
1 0.0676564537 0.973408183
1 0 1
1 0 1
1 0 1
1 0 1
0 1 0
0 1 0
0 1 0
0 1 0
0 1 0
0 1 0
0 1 0
0 1 0
0 1 0
0 1 0
0 1 0
0 1 0
0 1 0
0 1 0
0 1 0
0 1 0
0.513418633 1 0
0.78931193 1 0
0.919836397 1 0
0.970994772 1 0
0.995328132 1 0
1 0.9993358 0
1 0.998652579 0
1 0.998046633 0
1 0.997266179 0
1 0.996238657 0
1 0.99433052 0
1 0.987917942 0
1 0.9577984 0.803353407
1 0.22698635 0.993915705
1 0 1
1 0 1
1 0 1
0 1 0
0 1 0
0 1 0
0 1 0
0 1 0
0 1 0
0 1 0
0 1 0
0 1 0
0 1 0
0 1 0
0 1 0
0 1 0
0 1 0
0 1 0
0 1 0
0.128507712 1 0
0.704582048 1 0
0.897745948 1 0
0.962272369 1 0
0.990971009 1 0
1 1 0
1 1 0
1 1 0
1 1 0
1 1 0
1 0.999405922 0
1 0.998119264 0
1 0.993605855 0
1 0.972606739 0.888579818
1 0.355546904 1
1 0 1
1 0 1
0 1 0
0 1 0
0 1 0
0 1 0
0 1 0
0 1 0
0 1 0
0 1 0
0 1 0
0 1 0
0 1 0
0 1 0
0 1 0
0 1 0
0 1 0
0 1 0
0 1 0
0.472580893 1 0
0.848902063 1 0
0.950486639 1 0
0.98574666 1 0
1 1 0
1 1 0
1 1 0
1 1 0
1 1 0
1 1 0
1 1 0
1 1 0
1 0.997188704 0.134401891
1 0.981585899 0.934301654
1 0.479547939 1
1 0 1
0 1 0
0 1 0
0 1 0
0 1 0
0 1 0
0 1 0
0 1 0
0 1 0
0 1 0
0 1 0
0 1 0
0 1 0
0 1 0
0 1 0
0 1 0
0 1 0
0 1 0
0 1 0
0.675958577 1 0
0.925901078 1 0
0.978902945 1 0
0.999668169 1 0
1 1 0
1 1 0
1 1 0
1 1 0
1 1 0
1 1 0
1 1 0
1 1 0
1 0.999422894 0.273695101
1 0.987326089 0.958896708
1 0.605643677 1
0 1 0
0 1 0
0 1 0
0 1 0
0 1 0
0 1 0
0 1 0
0 1 0
0 1 0
0 1 0
0 1 0
0 1 0
0 1 0
0 1 0
0 1 0
0 1 0
0 1 0
0 1 0
0 1 0
0.82973262 1 0
0.965201557 1 0
0.995434693 1 0
1 1 0
1 1 0
1 1 0
1 1 0
1 1 0
1 1 0
1 1 0
1 1 0
1 1 0
1 1 0.396137351
1 0.991103119 0.973159627
0 1 0
0 1 0
0 1 0
0 1 0
0 1 0
0 1 0
0 1 0
0 1 0
0 1 0
