Luts/Hasselblad/Hasselblad_Standard_Phocus_X2D_VLog_CC.cube
TITLE "Hasselblad Standard Phocus X2D ColorCorrect from V-Log"
#LUMIXPHOTOSTYLE VLOG
LUT_3D_SIZE 33
0 0 0
0 0 0
0 0 0
0 0 0
0.0445105669 0.00889600977 0.0147402152
0.0823529412 0.0147402152 0.0252384222
0.114030671 0.0183871214 0.032089723
0.149095903 0.0213626307 0.0388647288
0.191668574 0.024383917 0.0463416495
0.242618448 0.0268711376 0.0547035935
0.304539559 0.0283970397 0.0641489281
0.378530556 0.0278324559 0.0749980926
0.462043183 0.0232700084 0.0875104906
0.55350576 0 0.102067597
0.653498131 0 0.120363165
0.750621805 0 0.146257725
0.839078355 0 0.179034104
0.909590295 0 0.218860151
0.946532387 0 0.266895552
0.966491188 0 0.325535973
0.978072786 0 0.394216831
0.985198749 0 0.471213855
0.989761196 0 0.555931945
0.992797742 0 0.649835966
0.99485771 0 0.744472419
0.996292058 0 0.8321355
0.997314412 0 0.904554818
0.998031586 0 0.943663691
0.998565652 0 0.964766918
0.998947127 0 0.976989395
0.99922179 0 0.984496834
0.999435416 0 0.989288167
0.999572747 0 0.992477302
0 0 0
0 0 0
0 0 0
0 0 0
0.0417029068 0.00817883574 0.013962005
0.0804303044 0.0143587396 0.0246128023
0.112260624 0.0180819409 0.0317540246
0.147508965 0.0213626307 0.0385900664
0.190264744 0.024383917 0.0460975051
0.241382467 0.0268711376 0.0544899672
0.303395132 0.0283970397 0.0640573739
0.377569238 0.0278324559 0.0749065385
0.461249714 0.0234988937 0.0873426413
0.552834363 0 0.101991302
0.653009842 0 0.12028687
0.750270848 0 0.14618143
0.838834211 0 0.178957809
0.909483482 0 0.218753338
0.946501869 0 0.266849775
0.966475929 0 0.325444419
0.978072786 0 0.394186313
0.985198749 0 0.471183337
0.989761196 0 0.555870909
0.992797742 0 0.649820706
0.99485771 0 0.744441901
0.996292058 0 0.832104982
0.997314412 0 0.904539559
0.998031586 0 0.943663691
0.998565652 0 0.964766918
0.998947127 0 0.976989395
0.99922179 0 0.984496834
0.999435416 0 0.989288167
0.999572747 0 0.992477302
0 0 0
0 0 0
0 0 0
0 0 0
0.0385900664 0.0073853666 0.0131227588
0.0784771496 0.0143587396 0.0241702907
0.110536355 0.0180819409 0.0314183261
0.145906767 0.0211184863 0.038315404
0.188845655 0.0241702907 0.0458533608
0.240085451 0.0266727703 0.0542763409
0.302235447 0.0282139315 0.0638590066
0.376546883 0.0278324559 0.0747234302
0.460440986 0.0234988937 0.0872663462
0.552178225 0 0.101823453
0.652491035 0 0.120210575
0.74991989 0 0.146044099
0.838605325 0 0.178835737
0.909391928 0 0.218692302
0.946456092 0 0.266742962
0.966445411 0 0.325398642
0.978057527 0 0.394110018
0.98518349 0 0.471107042
0.989761196 0 0.55585565
0.992797742 0 0.649774929
0.99485771 0 0.744426642
0.996292058 0 0.832089723
0.997314412 0 0.904539559
0.998031586 0 0.943663691
0.998565652 0 0.964766918
0.998947127 0 0.976989395
0.99922179 0 0.984496834
0.999435416 0 0.989288167
0.999572747 0 0.992477302
0 0 0
0 0 0
0 0 0
0 0 0
0.0354009308 0.0073853666 0.0117494469
0.0764324407 0.013962005 0.023727779
0.10873579 0.0177767605 0.0310826276
0.144365606 0.0211184863 0.0380254826
0.187426566 0.0241702907 0.0456092164
0.23884947 0.0266727703 0.0540627146
0.301060502 0.0282139315 0.0636758984
0.375570306 0.0278324559 0.0746318761
0.459647517 0.0234988937 0.087083238
0.551537346 0.00392156863 0.101747158
0.65195697 0 0.120073243
0.749568933 0 0.145906767
0.83837644 0 0.178774701
0.909269856 0 0.218585489
0.946425574 0 0.266651408
0.966430152 0 0.325307088
0.978057527 0 0.394033722
0.98518349 0 0.471046006
0.989761196 0 0.555794614
0.992797742 0 0.649729152
0.99485771 0 0.744396124
0.996292058 0 0.832089723
0.997314412 0 0.9045243
0.998031586 0 0.943663691
0.998565652 0 0.964751659
0.998947127 0 0.976989395
0.99922179 0 0.984496834
0.999435416 0 0.989288167
0.999572747 0 0.992477302
0.0151064317 0.0680857557 0.00538643473
0.0143587396 0.0637674525 0.00538643473
0.0135500114 0.0592813001 0.00538643473
0.0126802472 0.0545967803 0.00538643473
0.0367284657 0.048813611 0.0143587396
0.0802471962 0.0435034714 0.0147402152
0.117250324 0.0337071794 0.0252384222
0.153093767 0.0230411231 0.0361486229
0.186617838 0.0241702907 0.0452429999
0.23759823 0.0266727703 0.0538490883
0.299946593 0.0282139315 0.0634775311
0.37457847 0.0278324559 0.0744487678
0.458823529 0.0234988937 0.0870069429
0.550881209 0.00392156863 0.101670863
0.651468681 0 0.119996948
0.749217975 0 0.145845731
0.838147555 0 0.178652628
0.909178302 0 0.218524453
0.946379797 0 0.266590372
0.966414893 0 0.325261311
0.978042267 0 0.393987945
0.98518349 0 0.471015488
0.989761196 0 0.555748836
0.992797742 0 0.649713893
0.99485771 0 0.744365606
0.996292058 0 0.832059205
0.997314412 0 0.9045243
0.998031586 0 0.943663691
0.998565652 0 0.964751659
0.998947127 0 0.976989395
0.99922179 0 0.984496834
0.999435416 0 0.989288167
0.999572747 0 0.992477302
0.0211184863 0.117708095 0
0.0208590829 0.114183261 0
0.0205996796 0.110704204 0
0.0203402762 0.107087816 0
0.0371709773 0.102555886 0.0174715801
0.0839093614 0.0969558251 0.0252384222
0.11808957 0.0931563287 0.0248264286
0.15553521 0.0887006943 0.0189669642
0.202227817 0.0799877928 0.0266727703
0.260471504 0.0638590066 0.0391546502
0.324940871 0.0432440681 0.0555580987
0.387426566 0.0298619059 0.0713511864
0.457999542 0.023727779 0.0868390936
0.550209812 0.00538643473 0.101503014
0.650949874 0 0.119844358
0.748867018 0 0.145693141
0.83790341 0 0.178576333
0.909071489 0 0.21840238
0.94633402 0 0.266498817
0.966399634 0 0.325169757
0.978042267 0 0.39391165
0.98518349 0 0.470954452
0.989761196 0 0.555718318
0.992782483 0 0.649668116
0.99485771 0 0.744350347
0.996292058 0 0.832059205
0.997314412 0 0.904509041
0.998031586 0 0.943663691
0.998565652 0 0.964751659
0.998947127 0 0.976989395
0.99922179 0 0.984496834
0.999435416 0 0.989288167
0.999572747 0 0.992477302
0.023727779 0.160799573 0
0.0234988937 0.157701991 0
0.0234988937 0.154589151 0
0.0232700084 0.151445792 0
0.0354009308 0.14743267 0.0107118334
0.0824292363 0.142610819 0.0254520485
0.120668345 0.137071794 0.0298619059
0.158251316 0.132875563 0.0283970397
0.20328069 0.127168688 0.0230411231
0.25647364 0.119081407 0.0174715801
0.327183948 0.100053407 0.0343327993
0.407446403 0.0719920653 0.052979324
0.489662013 0.0296787976 0.077332723
0.559578851 0.0101472496 0.0981002518
0.650431067 0 0.119768063
0.74851606 0 0.145632105
0.837674525 0 0.178454261
0.908964675 0 0.218295567
0.946288243 0 0.266437781
0.966384375 0 0.325078202
0.978027008 0 0.393865873
0.98518349 0 0.470923934
0.989745937 0 0.555672541
0.992782483 0 0.649652857
0.99485771 0 0.744319829
0.996292058 0 0.832028687
0.997314412 0 0.904509041
0.998031586 0 0.943648432
0.998565652 0 0.964751659
0.998947127 0 0.976989395
0.99922179 0 0.984496834
0.999435416 0 0.989288167
0.999572747 0 0.992477302
0.023727779 0.207873655 0
0.0239566644 0.205111772 0
0.0239566644 0.20233463 0
0.0239566644 0.199603265 0
0.0300297551 0.196475166 0
0.0806897078 0.191546502 0.0208590829
0.119157702 0.186678874 0.0282139315
0.160662242 0.18080415 0.0319218738
0.205828946 0.175524529 0.0289616236
0.259647517 0.168139162 0.0218661784
0.324345769 0.158175021 0
0.406012055 0.135347524 0.0256656748
0.496345464 0.0981765469 0.0504158083
0.58721294 0.0496223392 0.0812085145
0.668879225 0 0.111940185
0.748073548 0 0.145494774
0.837384604 0 0.178332189
0.908827344 0 0.218188754
0.946242466 0 0.266346227
0.966369116 0 0.324986648
0.978027008 0 0.393789578
0.985168231 0 0.470862898
0.989745937 0 0.555611505
0.992782483 0 0.64960708
0.99485771 0 0.744289311
0.996292058 0 0.832013428
0.997314412 0 0.904493782
0.998031586 0 0.943648432
0.998565652 0 0.964751659
0.998947127 0 0.976989395
0.99922179 0 0.984496834
0.999435416 0 0.989288167
0.999572747 0 0.992477302
0.0200656138 0.263874266 0
0.0203402762 0.261448081 0
0.0205996796 0.259021897 0
0.0208590829 0.256519417 0
0.0211184863 0.254062715 0
0.0775921263 0.248737316 0.00648508431
0.114885176 0.245181964 0.0189669642
0.158449683 0.239444572 0.0268711376
0.208163577 0.232471199 0.0308995193
0.262119478 0.225833524 0.0250400549
0.327595941 0.216479744 0.00889600977
0.403387503 0.204226749 0
0.492164492 0.177370871 0
0.59205005 0.131136034 0.0460975051
0.689570459 0.0719005112 0.0871747921
0.770748455 0 0.133028153
0.837674525 0 0.17769131
0.908644236 0 0.218066682
0.94618143 0 0.266193637
0.966338598 0 0.324895094
0.978011749 0 0.393682765
0.985168231 0 0.470756085
0.989745937 0 0.555565728
0.992782483 0 0.649546044
0.99485771 0 0.744258793
0.996292058 0 0.83198291
0.997314412 0 0.904478523
0.998031586 0 0.943648432
0.998565652 0 0.964751659
0.998947127 0 0.976989395
0.99922179 0 0.984496834
0.999435416 0 0.989288167
0.999572747 0 0.992477302
0 0.331700618 0
0 0.329518578 0
0 0.327367056 0
0 0.325169757 0
0 0.322972457 0
0.0708781567 0.317524987 0
0.109056229 0.314442664 0
0.151384756 0.30998703 0
0.204699779 0.302571145 0.0180819409
0.264026856 0.293904021 0.0239566644
0.329701686 0.285481041 0.00648508431
0.406012055 0.273563745 0
0.489662013 0.258396277 0
0.585152972 0.228000305 0
0.691203174 0.174364843 0.0463416495
0.784969863 0.101823453 0.0990768292
0.860715648 0 0.159929808
0.910688945 0 0.21481651
0.946089876 0 0.265980011
0.966292821 0 0.324711986
0.97799649 0 0.393514916
0.985152972 0 0.470634012
0.989745937 0 0.555458915
0.992782483 0 0.649469749
0.99485771 0 0.744197757
0.996292058 0 0.831952392
0.997314412 0 0.904463264
0.998031586 0 0.943633173
0.998565652 0 0.964751659
0.998947127 0 0.976989395
0.99922179 0 0.984496834
0.999435416 0 0.989288167
0.999572747 0 0.992477302
0 0.409964141 0
0 0.408163577 0
0 0.406347753 0
0 0.40453193 0
0 0.402700847 0
0.0558785382 0.398260472 0
0.100129702 0.394415198 0
0.142687114 0.391180285 0
0.194720378 0.385763333 0
0.259174487 0.376867323 0
0.330968185 0.36661326 0
0.407141222 0.356450752 0
0.490928511 0.342107271 0
0.582116426 0.323979553 0
0.683329519 0.289478904 0
0.785152972 0.226398108 0.0492713817
0.870176242 0.137499046 0.114656291
0.923384451 0 0.19313344
0.947829404 0 0.259739071
0.966247044 0 0.324483101
0.977965972 0 0.393362325
0.985152972 0 0.47051194
0.989745937 0 0.555321584
0.992782483 0 0.649378195
0.99485771 0 0.744121462
0.996292058 0 0.831906615
0.997314412 0 0.904432746
0.998031586 0 0.943633173
0.998565652 0 0.964751659
0.998947127 0 0.976989395
0.99922179 0 0.984481575
0.999435416 0 0.989288167
0.999572747 0 0.992477302
0 0.49500267 0
0 0.49359884 0
0 0.492179751 0
0 0.490745403 0
0 0.489326314 0
0.0254520485 0.486472877 0
0.0861524376 0.482093538 0
0.132234684 0.478904402 0
0.184634165 0.475028611 0
0.247104601 0.468848707 0
0.325032425 0.458823529 0
0.407858396 0.447547112 0
0.491279469 0.436285954 0
0.582940414 0.420370794 0
0.681223774 0.400030518 0
0.777904936 0.362386511 0
0.869459068 0.287754635 0.052979324
0.927092393 0.180163272 0.134615091
0.954360266 0 0.233463035
0.967513542 0 0.314900435
0.977935454 0 0.393087663
0.985137713 0 0.470283055
0.989730678 0 0.555168994
0.992782483 0 0.649225605
0.99485771 0 0.744029908
0.996292058 0 0.831845579
0.997314412 0 0.904417487
0.998031586 0 0.943617914
0.998565652 0 0.9647364
0.998947127 0 0.976989395
0.99922179 0 0.984481575
0.999435416 0 0.989288167
0.999572747 0 0.992477302
0 0.587029831 0
0 0.585870146 0
0 0.58471046 0
0 0.583535515 0
0 0.58237583 0
0 0.580972 0
0.0654154269 0.576897841 0
0.119691768 0.57300679 0
0.173785 0.569787137 0
0.236072328 0.565346761 0
0.310841535 0.558480201 0
0.401373312 0.54743267 0
0.49204242 0.53510338 0
0.583321889 0.522865644 0
0.682017243 0.505577173 0
0.776607919 0.483634699 0
0.86318761 0.443869688 0
0.926451514 0.360357061 0.0573434043
0.955901427 0.230487526 0.159853513
0.971175708 0 0.282551308
0.978835737 0 0.380315862
0.985107195 0 0.469993133
0.989715419 0 0.554924849
0.992767224 0 0.649042496
0.994842451 0 0.743907836
0.996292058 0 0.831754025
0.997314412 0 0.90437171
0.998031586 0 0.943602655
0.998565652 0 0.9647364
0.998947127 0 0.976989395
0.99922179 0 0.984481575
0.999435416 0 0.989288167
0.999572747 0 0.992477302
0 0.685847257 0
0 0.684977493 0
0 0.68409247 0
0 0.683222705 0
0 0.682307164 0
0 0.681422141 0
0.0220950637 0.67908751 0
0.0973678187 0.675364309 0
0.159456779 0.671808957 0
0.222919051 0.668619821 0
0.297322042 0.663889525 0
0.385290303 0.65662623 0
0.485160601 0.644892042 0
0.584130617 0.631723507 0
0.682383459 0.618387121 0
0.777325093 0.599282826 0
0.862455177 0.574807355 0
0.92324712 0.531944762 0
0.955428397 0.441702907 0.0628824292
0.971877623 0.290272374 0.191302358
0.981017777 0 0.342290379
0.985732815 0 0.454428931
0.989715419 0 0.554619669
0.992767224 0 0.648813611
0.994842451 0 0.743724727
0.996292058 0 0.831631952
0.997314412 0 0.904310674
0.998031586 0 0.943572137
0.998565652 0 0.964721141
0.998947127 0 0.976974136
0.99922179 0 0.984481575
0.999435416 0 0.989288167
0.999572747 0 0.992462043
0 0.780636301 0
0 0.780041199 0
0 0.779430838 0
0 0.778820478 0
0 0.778225376 0
0 0.777615015 0
0 0.776882582 0
0.0575417716 0.77425803 0
0.133974212 0.771023117 0
0.206591897 0.767910277 0
0.281208515 0.765041581 0
0.369695583 0.760570687 0
0.467734798 0.753765164 0
0.576577401 0.742656596 0
0.683222705 0.730144198 0
0.777660792 0.717250324 0
0.863096056 0.698496986 0
0.923002976 0.673685817 0
0.953719387 0.628946365 0
0.971572442 0.52964065 0.0699626154
0.981368734 0.361333639 0.229663539
0.987075608 0.0289616236 0.410635538
0.990142672 0 0.536095216
0.992751965 0 0.648477913
0.994842451 0 0.743480583
0.996292058 0 0.831479362
0.997299153 0 0.904234379
0.998031586 0 0.943541619
0.998565652 0 0.964705882
0.998947127 0 0.976974136
0.99922179 0 0.984481575
0.999435416 0 0.989288167
0.999572747 0 0.992462043
0 0.86582742 0
0 0.865430686 0
0 0.86504921 0
0 0.864652476 0
0 0.864255741 0
0 0.863874266 0
0 0.863477531 0
0 0.862500954 0
0.0886243992 0.860196841 0
0.177370871 0.857465476 0
0.261661707 0.85491722 0
0.350820172 0.852399481 0
0.450614176 0.848401617 0
0.557320516 0.842328527 0
0.675562676 0.832471199 0
0.778439002 0.821255818 0
0.863370718 0.809597925 0
0.923338674 0.792523079 0
0.95365835 0.769649805 0
0.970580606 0.727916381 0
0.981170367 0.626398108 0.078751812
0.987304494 0.4411841 0.2764477
0.990997177 0.0576485847 0.486991684
0.993057145 0 0.62745098
0.994842451 0 0.743175402
0.996276799 0 0.831265736
0.997299153 0 0.904127565
0.998031586 0 0.943511101
0.998565652 0 0.964690623
0.998947127 0 0.976974136
0.99922179 0 0.984481575
0.999435416 0 0.989288167
0.999572747 0 0.992462043
0 0.924681468 0
0 0.924544137 0
0 0.924391547 0
0 0.924238956 0
0 0.924101625 0
0 0.923949035 0
0 0.923796445 0
0 0.923598077 0
0 0.92292668 0
0.12449836 0.921736477 0
0.228503853 0.920317388 0
0.327733272 0.918989853 0
0.429587243 0.917601282 0
0.538292515 0.915327687 0
0.655497063 0.911772335 0
0.771419852 0.905699245 0
0.864057374 0.89828336 0
0.923476005 0.889921416 0
0.9538262 0.87627985 0
0.970565347 0.856382086 0
0.980560006 0.819562066 0
0.987151904 0.725398642 0.0900587472
0.991149767 0.527885863 0.333913176
0.993636988 0.0853742275 0.571786069
0.995056077 0 0.722133211
0.996276799 0 0.830975814
0.997299153 0 0.903990234
0.998031586 0 0.943450065
0.998565652 0 0.964675364
0.998947127 0 0.976958877
0.99922179 0 0.984481575
0.999435416 0 0.989288167
0.999572747 0 0.992462043
0 0.954528115 0
0 0.954467079 0
0 0.954406043 0
0 0.954360266 0
0 0.954299229 0
0 0.954238193 0
0 0.954177157 0
0 0.954100862 0
0 0.953994049 0
0 0.953582055 0
0.167147326 0.952941176 0
0.288944839 0.952208743 0
0.403845274 0.951537346 0
0.515220874 0.950804913 0
0.635019455 0.94961471 0
0.752773327 0.947753109 0
0.857938506 0.944609751 0
0.923826963 0.940840772 0
0.953902495 0.936644541 0
0.97067216 0.92994583 0
0.980560006 0.919783322 0
0.986770428 0.897276265 0
0.991058213 0.817257954 0.104554818
0.993743801 0.623620966 0.401144427
0.995437552 0.11793698 0.665247578
0.996429389 0 0.81138323
0.997299153 0 0.903807126
0.998031586 0 0.943389029
0.998565652 0 0.964644846
0.998947127 0 0.976943618
0.99922179 0 0.984466316
0.999435416 0 0.989288167
0.999572747 0 0.992462043
0 0.971068894 0
0 0.971038376 0
0 0.971007858 0
0 0.970992599 0
0 0.970962081 0
0 0.970931563 0
0 0.970916304 0
0 0.970870527 0
0 0.970840009 0
0 0.970778973 0
0.0491645686 0.970504311 0
0.217380026 0.970153353 0
0.360738537 0.96974136 0
0.487388418 0.969359884 0
0.609689479 0.96894789 0
0.733196002 0.968261234 0
0.841519799 0.967208362 0
0.920622568 0.965438315 0
0.954100862 0.96333257 0
0.970717937 0.961028458 0
0.980621042 0.957381552 0
0.986770428 0.95194934 0
0.99079881 0.94039826 0
0.993667506 0.89562829 0.12292668
0.995513848 0.722163729 0.476661326
0.996704051 0.156893263 0.758068208
0.997405966 0 0.889753567
0.998031586 0 0.943282216
0.998550393 0 0.964599069
0.998947127 0 0.976928359
0.99922179 0 0.984466316
0.999435416 0 0.989272908
0.999572747 0 0.992462043
0 0.980849928 0
0 0.980849928 0
0 0.980834668 0
0 0.980819409 0
0 0.98080415 0
0 0.98080415 0
0 0.980788891 0
0 0.980773632 0
0 0.980758373 0
0 0.980727855 0
0 0.980682078 0
0.0800793469 0.980514229 0
0.2764477 0.980300603 0
0.441290913 0.980041199 0
0.578713664 0.979827573 0
0.708537423 0.979583429 0
0.823941405 0.979156176 0
0.911314565 0.978515297 0
0.952391852 0.977462425 0
0.97082475 0.976226444 0
0.98065156 0.974853132 0
0.986816205 0.972716869 0
0.99079881 0.969588769 0
0.993499657 0.963118944 0
0.99546807 0.939559014 0.146120394
0.996749828 0.813946746 0.560234989
0.997604334 0.20328069 0.84368658
0.998107881 0 0.936003662
0.998550393 0 0.964553292
0.998947127 0 0.976897841
0.99922179 0 0.984451057
0.999435416 0 0.989272908
0.999572747 0 0.992462043
0 0.986953536 0
0 0.986953536 0
0 0.986953536 0
0 0.986953536 0
0 0.986938277 0
0 0.986938277 0
0 0.986923018 0
0 0.986923018 0
0 0.986907759 0
0 0.986907759 0
0 0.9868925 0
0 0.986846723 0
0.114885176 0.98673991 0
0.346852827 0.986602579 0
0.528542 0.986449989 0
0.677500572 0.986312657 0
0.801541161 0.986144808 0
0.900083925 0.985885405 0
0.947524224 0.98548867 0
0.969848173 0.984817273 0
0.980712596 0.984039063 0
0.986831464 0.983184558 0
0.990829328 0.981872282 0
0.993499657 0.979964904 0
0.995345998 0.976104372 0
0.99671931 0.962645914 0.175005722
0.997634852 0.893049516 0.653009842
0.998245212 0.257923247 0.911467155
0.998611429 0 0.960448615
0.998947127 0 0.976867323
0.99922179 0 0.984435798
0.999435416 0 0.989272908
0.999572747 0 0.992462043
0 0.990920882 0
0 0.990920882 0
0 0.990920882 0
0 0.990920882 0
0 0.990920882 0
0 0.990905623 0
0 0.990905623 0
0 0.990905623 0
0 0.990905623 0
0 0.990890364 0
0 0.990890364 0
0 0.990875105 0
0 0.990844587 0
0.156145571 0.990783551 0
0.42652018 0.990691997 0
0.624460212 0.990585183 0
0.773022049 0.990493629 0
0.88361944 0.990386816 0
0.941741054 0.990218967 0
0.967071031 0.989959564 0
0.980117494 0.989517052 0
0.986877241 0.989013504 0
0.990844587 0.988464179 0
0.993514916 0.987609674 0
0.995345998 0.986404211 0
0.996643015 0.983978027 0
0.997619593 0.975829709 0.210482948
0.998275731 0.938185702 0.746456092
0.998718242 0.323338674 0.947158007
0.998977646 0 0.97441062
0.99922179 0 0.984420539
0.999420157 0 0.989257649
0.999572747 0 0.992446784
0 0.993575952 0
0 0.993575952 0
0 0.993575952 0
0 0.993575952 0
0 0.993575952 0
0 0.993575952 0
0 0.993575952 0
0 0.993575952 0
0 0.993575952 0
0 0.993560693 0
0 0.993560693 0
0 0.993560693 0
0 0.993545434 0
0 0.993530175 0
0.204882887 0.993484398 0
0.51294728 0.993423362 0
0.723048753 0.993347066 0
0.859235523 0.99328603 0
0.933485924 0.993224994 0
0.963836118 0.993102922 0
0.978454261 0.992919814 0
0.986495766 0.992629892 0
0.990859846 0.992294194 0
0.993530175 0.991927977 0
0.995361257 0.991363394 0
0.996643015 0.990554665 0
0.997558556 0.988967727 0
0.998260472 0.983794919 0.253543908
0.998733501 0.961867704 0.833249409
0.999053941 0.398992905 0.966689555
0.999252308 0 0.982864118
0.999420157 0 0.98924239
0.999572747 0 0.992446784
0 0.995407034 0
0 0.995407034 0
0 0.995407034 0
0 0.995407034 0
0 0.995407034 0
0 0.995407034 0
0 0.995407034 0
0 0.995407034 0
0 0.995391775 0
0 0.995391775 0
0 0.995391775 0
0 0.995391775 0
0 0.995391775 0
0 0.995376516 0
0 0.995361257 0
0.261860075 0.995330739 0
0.608056764 0.995300221 0
0.814785992 0.995239185 0
0.921263447 0.995208667 0
0.95928893 0.995147631 0
0.976516365 0.995071336 0
0.985442893 0.994949264 0
0.990615702 0.994750896 0
0.993545434 0.994506752 0
0.995361257 0.994262608 0
0.996643015 0.993881132 0
0.997558556 0.993331807 0
0.998214694 0.992263676 0
0.998718242 0.988860914 0.306416419
0.9990692 0.975341421 0.904951553
0.999313344 0.482276646 0.978133822
0.999450675 0 0.988235294
0.999572747 0 0.992431525
0 0.996673533 0
0 0.996673533 0
0 0.996673533 0
0 0.996673533 0
0 0.996673533 0
0 0.996673533 0
0 0.996673533 0
0 0.996673533 0
0 0.996673533 0
0 0.996673533 0
0 0.996673533 0
0 0.996673533 0
0 0.996673533 0
0 0.996673533 0
0 0.996658274 0
0 0.996658274 0
0.329976349 0.996627756 0
0.707576104 0.996597238 0
0.893705653 0.99656672 0
0.95272755 0.996536202 0
0.973830777 0.996505684 0
0.984222171 0.996444648 0
0.989929046 0.996353094 0
0.993377584 0.996215763 0
0.995376516 0.996047913 0
0.996658274 0.995880064 0
0.997558556 0.995605402 0
0.998214694 0.995223926 0
0.998687724 0.994491493 0
0.999053941 0.992187381 0.369771878
0.999313344 0.983489738 0.943755245
0.999496452 0.573113603 0.985198749
0.999588006 0 0.991760128
0 0.997589075 0
0 0.997589075 0
0 0.997589075 0
0 0.997589075 0
0 0.997589075 0
0 0.997589075 0
0 0.997589075 0
0 0.997589075 0
0 0.997589075 0
0 0.997589075 0
0 0.997589075 0
0 0.997589075 0
0 0.997573816 0
0 0.997573816 0
0 0.997573816 0
0 0.997573816 0
0 0.997573816 0
0.407965209 0.997543297 0
0.801083391 0.997528038 0
0.938521401 0.997512779 0
0.970031281 0.997482261 0
0.982558938 0.997467002 0
0.989135576 0.997421225 0
0.992904555 0.997360189 0
0.995254444 0.997253376 0
0.996658274 0.997146563 0
0.997558556 0.997009232 0
0.998214694 0.996826123 0
0.998687724 0.996551461 0
0.999038682 0.996047913 0
0.999313344 0.994445716 0.442084382
0.999496452 0.988662547 0.964751659
0.999618524 0.671732662 0.989745937
0 0.998229953 0
0 0.998229953 0
0 0.998229953 0
0 0.998229953 0
0 0.998229953 0
0 0.998229953 0
0 0.998229953 0
0 0.998229953 0
0 0.998229953 0
0 0.998229953 0
0 0.998229953 0
0 0.998229953 0
0 0.998229953 0
0 0.998229953 0
0 0.998229953 0
0 0.998229953 0
0 0.998229953 0
0 0.998229953 0
0.49314107 0.998214694 0
0.883497368 0.998199435 0
0.962050813 0.998184176 0
0.980224308 0.998168917 0
0.988052186 0.998138399 0
0.992370489 0.99812314 0
0.994934005 0.998077363 0
0.996581979 0.998001068 0
0.997573816 0.997909514 0
0.998214694 0.99781796 0
0.998687724 0.997695888 0
0.999038682 0.99749752 0
0.999298085 0.997131304 0
0.999496452 0.996002136 0.521904326
0.999633783 0.99205005 0.976974136
0 0.998702983 0
0 0.998702983 0
0 0.998702983 0
0 0.998702983 0
0 0.998702983 0
0 0.998702983 0
0 0.998702983 0
0 0.998702983 0
0 0.998702983 0
