Luts/Hasselblad/Hasselblad_Standard_Phocus_X2D_VLog_Rec709.cube
TITLE "Hasselblad Standard Phocus X2D ColorCorrect from V-Log to Rec.709"
#LUMIXPHOTOSTYLE VLOG
# INPUT_COLORSPACE Panasonic V-Log / V-Gamut
# OUTPUT_COLORSPACE Rec.709 primaries / D65 / BT.709 OETF
LUT_3D_SIZE 5
0 0 0
0.161084955 0 0.00381348526
1 0 0.0652324606
1 0 0.74436012
1 0 1
0 0.204725834 0
0.124596716 0.163334161 0
1 0 0.0635684664
1 0 0.744114052
1 0 1
0 0.952429966 0
0 0.950454723 0
0.856845971 0.897825376 0
1 0 0.718606766
1 0 1
0 1 0
0 1 0
0 1 0
1 1 0
1 0 1
0 1 0
0 1 0
0 1 0
0.952464172 1 0
1 1 0
0 0 0
0.0606101413 0 0.0881549713
1 0 0.205546318
1 0 0.744096475
1 0 1
0 0.143230514 0.0600026276
0.0947166784 0.0948822359 0.0957062365
1 0 0.191075774
1 0 0.743850404
1 0 1
0 0.950386018 0
0 0.948599676 0
0.854297501 0.894725305 0
1 0 0.720226616
1 0 1
0 1 0
0 1 0
0 1 0
1 1 0
1 0 1
0 1 0
0 1 0
0 1 0
0.951847787 1 0
1 1 0
0 0 0
0 0 0
0.729289581 0 0.79224948
1 0 0.964090759
1 0 1
0 0 0
0 0 0
0.725656724 0 0.789343679
1 0 0.963445768
1 0 1
0 0.882862198 0.707469142
0 0.878477893 0.710868917
0.783718562 0.784342209 0.786426333
1 0 0.957046199
1 0 1
0 1 0
0 1 0
0 1 0
1 1 0
1 0 1
0 1 0
0 1 0
0 1 0
0.947039678 1 0
1 1 0
0 0 0
0 0 0
0 0 0
1 0 1
1 0 1
0 0 0
0 0 0
0 0 0
1 0 1
1 0 1
0 0 0
0 0 0
0 0 0
1 0 1
1 0 1
0 1 0.998850198
0 1 0.998868175
0 1 0.9989259
0.993461055 0.993599475 0.993472177
1 0 1
0 1 0
0 1 0
0 1 0
0 1 0
1 1 0
0 0 0
0 0 0
0 0 0
0 0 0
1 0 1
0 0 0
0 0 0
0 0 0
0 0 0
1 0 1
0 0 0
0 0 0
0 0 0
0 0 0
1 0 1
0 0 0
0 0 0
0 0 0
0 0 0
1 0 1
0 1 1
0 1 1
0 1 1
0 1 1
0.999389902 0.999526997 0.999343641
