Luts/Hasselblad/Hasselblad_Standard_Phocus_X2D_VLog_Rec709.cube
TITLE "Hasselblad Standard Phocus X2D ColorCorrect from V-Log to Rec.709"
#LUMIXPHOTOSTYLE VLOG
# INPUT_COLORSPACE Panasonic V-Log / V-Gamut
# OUTPUT_COLORSPACE Rec.709 primaries / D65 / BT.709 OETF
LUT_3D_SIZE 9
0 0 0
0.00733613007 0 0.000377063059
0.161084955 0 0.00381348526
0.523717992 0 0.0105382473
1 0 0.0652324606
1 0 0.334151164
1 0 0.74436012
1 0 0.996765846
1 0 1
0 0.0131220926 0
0.00194667331 0.00612382671 0
0.154276786 0 0.0036245321
0.519416062 0 0.010435508
1 0 0.0648228835
1 0 0.3338751
1 0 0.744237086
1 0 0.996748428
1 0 1
0 0.204725834 0
0 0.193530567 0
0.124596716 0.163334161 0
0.554130251 0.0488359696 0
1 0 0.0635684664
1 0 0.333506469
1 0 0.744114052
1 0 0.996748428
1 0 1
0 0.571534986 0
0 0.566271435 0
0 0.550780718 0
0.434514242 0.49930331 0
1 0.347452445 0
1 0 0.317206047
1 0 0.743710137
1 0 0.996731011
1 0 1
0 0.952429966 0
0 0.951777281 0
0 0.950454723 0
0 0.939306035 0
0.856845971 0.897825376 0
1 0.796958064 0
1 0 0.718606766
1 0 0.996661339
1 0 1
0 1 0
0 1 0
0 1 0
0 1 0
0.686056725 1 0
1 0.989740764 0
1 0.979512478 0
1 0 0.991835493
1 0 1
0 1 0
0 1 0
0 1 0
0 1 0
0 1 0
0.98574666 1 0
1 1 0
1 1 0
1 0 1
0 1 0
0 1 0
0 1 0
0 1 0
0 1 0
0.413548647 1 0
1 1 0
1 1 0
1 1 0
0 1 0
0 1 0
0 1 0
0 1 0
0 1 0
0 1 0
0.952464172 1 0
1 1 0
1 1 0
0 0 0
0.00179122405 0 0.00215729874
0.151190942 0 0.00573284126
0.519168582 0 0.0104443897
1 0 0.0648303148
1 0 0.333838085
1 0 0.744237086
1 0 0.996748428
1 0 1
0 0.00499700903 0
0 0 0
0.145163047 0 0.00350310759
0.514825478 0 0.0103349655
1 0 0.0643177451
1 0 0.333543488
1 0 0.744131628
1 0 0.996748428
1 0 1
0 0.190587379 0
0 0.179177768 0
0.11938538 0.149285392 0
0.552284707 0.0293159445 0
1 0 0.0638555025
1 0 0.333174821
1 0 0.743991016
1 0 0.996748428
1 0 1
0 0.564873501 0
0 0.559540358 0
0 0.544215437 0
0.431816914 0.492393578 0
1 0.335512533 0
1 0 0.319131188
1 0 0.743587099
1 0 0.996713593
1 0 1
0 0.951588345 0
0 0.950918479 0
0 0.949681791 0
0 0.93844479 0
0.855780596 0.896493276 0
1 0.793705953 0
1 0 0.719328713
1 0 0.996643921
1 0 1
0 1 0
0 1 0
0 1 0
0 1 0
0.683508295 1 0
1 0.989707346 0
1 0.97938811 0
1 0 0.991870334
1 0 1
0 1 0
0 1 0
0 1 0
0 1 0
0 1 0
0.985670739 1 0
1 1 0
1 1 0
1 0 1
0 1 0
0 1 0
0 1 0
0 1 0
0 1 0
0.406567814 1 0
1 1 0
1 1 0
1 1 0
0 1 0
0 1 0
0 1 0
0 1 0
0 1 0
0 1 0
0.952207364 1 0
1 1 0
1 1 0
0 0 0
0 0 0
0.0606101413 0 0.0881549713
0.473667028 0 0.156464043
1 0 0.205546318
1 0 0.376885769
1 0 0.744096475
1 0 0.996748428
1 0 1
0 0 0
0 0 0
0.0562004905 0 0.0816627806
0.471047623 0 0.149797755
1 0 0.199110508
1 0 0.372512606
1 0 0.74397344
1 0 0.996748428
1 0 1
0 0.143230514 0.0600026276
0 0.12910754 0.0663082568
0.0947166784 0.0948822359 0.0957062365
0.545509842 0 0.120571094
1 0 0.191075774
1 0 0.367090516
1 0 0.743850404
1 0 0.996731011
1 0 1
0 0.553015705 0
0 0.547612499 0
0 0.531678374 0
0.420516969 0.477439069 0
1 0.29517353 0
1 0 0.340567483
1 0 0.743446484
1 0 0.996713593
1 0 1
0 0.950386018 0
0 0.949698967 0
0 0.948599676 0
0 0.937261202 0
0.854297501 0.894725305 0
1 0.789676062 0
1 0 0.720226616
1 0 0.996643921
1 0 1
0 1 0
0 1 0
0 1 0
0 1 0
0.680351944 1 0
1 0.989656193 0
1 0.979263741 0
1 0 0.991922594
1 0 1
0 1 0
0 1 0
0 1 0
0 1 0
0 1 0
0.985569508 1 0
1 1 0
1 1 0
1 0 1
0 1 0
0 1 0
0 1 0
0 1 0
0 1 0
0.397792563 1 0
1 1 0
1 1 0
1 1 0
0 1 0
0 1 0
0 1 0
0 1 0
0 1 0
0 1 0
0.951847787 1 0
1 1 0
1 1 0
0 0 0
0 0 0
0 0 0
0.291742302 0 0.362615207
0.962722981 0 0.499666921
1 0 0.596186078
1 0 0.811834183
1 0 0.996731011
1 0 1
0 0 0
0 0 0
0 0 0
0.288239762 0 0.358724895
0.962037104 0 0.496102623
1 0 0.59331361
1 0 0.810484925
1 0 0.996713593
1 0 1
0 0.00876235303 0.0896987402
0 0.00611028511 0.0562661754
0.0178913525 0.00291791954 0.15004358
0.378629134 0 0.419240388
0.961208144 0 0.491707399
1 0 0.589873193
1 0 0.808820152
1 0 0.996713593
1 0 1
0 0.467188573 0.306961014
0 0.460057092 0.311429814
0 0.449924668 0.321087883
0.376825507 0.377337411 0.379227624
1 0.0329983151 0.427703771
1 0 0.578031673
1 0 0.803720292
1 0 0.996696175
1 0 1
0 0.945095607 0
0 0.944322633 0
0 0.943343525 0
0 0.931243832 0
0.839730619 0.882025515 0
1 0.744116604 0.120226322
1 0 0.770283469
1 0 0.996626503
1 0 1
0 1 0
0 1 0
0 1 0
0 1 0
0.66201198 1 0
1 0.989455686 0
1 0.978838379 0
1 0 0.992096795
1 0 1
0 1 0
0 1 0
0 1 0
0 1 0
0 1 0
0.985248772 1 0
1 1 0
1 1 0
1 0 1
0 1 0
0 1 0
0 1 0
0 1 0
0 1 0
0.369624316 1 0
1 1 0
1 1 0
1 1 0
0 1 0
0 1 0
0 1 0
0 1 0
0 1 0
0 1 0
0.950768733 1 0
1 1 0
1 1 0
0 0 0
0 0 0
0 0 0
0 0 0
0.729289581 0 0.79224948
1 0 0.917345554
1 0 0.964090759
1 0 1
1 0 1
0 0 0
0 0 0
0 0 0
0 0 0
0.727663246 0 0.790960064
1 0 0.916648156
1 0 0.963794413
1 0 1
1 0 1
0 0 0
0 0 0
0 0 0
0 0 0
0.725656724 0 0.789343679
1 0 0.915758806
1 0 0.963445768
1 0 1
1 0 1
0 0.0798498016 0.461942999
0 0.0738890316 0.444849922
0 0.0666909379 0.422892889
0.197324978 0.00393767227 0.628828025
0.903656757 0 0.86593768
1 0 0.913020816
1 0 0.962382378
1 0 1
1 0 1
0 0.882862198 0.707469142
0 0.880913518 0.709001443
0 0.878477893 0.710868917
0 0.869491264 0.722931132
0.783718562 0.784342209 0.786426333
1 0.485074833 0.845948895
1 0 0.957046199
1 0 1
1 0 1
0 1 0
0 1 0
0 1 0
0 1 0
0.539064104 1 0
0.996698457 0.986775687 0.335179156
1 0.970061775 0.582682006
1 0 1
1 0 1
0 1 0
0 1 0
0 1 0
0 1 0
0 1 0
0.983113046 1 0
1 1 0
1 1 0
1 0 1
0 1 0
0 1 0
0 1 0
0 1 0
0 1 0
0.253342968 1 0
1 1 0
1 1 0
1 1 0
0 1 0
0 1 0
0 1 0
0 1 0
0 1 0
0 1 0
0.947039678 1 0
1 1 0
1 1 0
0 0 0
0 0 0
0 0 0
0 0 0
0 0 0
1 0 1
1 0 1
1 0 1
1 0 1
0 0 0
0 0 0
0 0 0
0 0 0
0 0 0
1 0 1
1 0 1
1 0 1
1 0 1
0 0 0
0 0 0
0 0 0
0 0 0
0 0 0
1 0 1
1 0 1
1 0 1
1 0 1
0 0 0
0 0 0
0 0 0
0 0 0
0 0 0
1 0 1
1 0 1
1 0 1
1 0 1
0 0.328504491 0.910343553
0 0.324556016 0.906721866
0 0.319700797 0.902044274
0 0.312335987 0.894437466
0.617205011 0.110874548 0.984363729
1 0 1
1 0 1
1 0 1
1 0 1
0 1 0.967065822
0 1 0.96714171
0 1 0.967238177
0 1 0.967487692
0 1 0.969302418
0.971434236 0.971631698 0.971726825
1 0.904356922 0.981201909
1 0 1
1 0 1
0 1 0
0 1 0
0 1 0
0 1 0
0 1 0
0.968258987 1 0
1 0.997511752 0.820358265
1 0.993285913 0.937732348
1 0 1
0 1 0
0 1 0
0 1 0
0 1 0
0 1 0
0 1 0
1 1 0
1 1 0
1 1 0
0 1 0
0 1 0
0 1 0
0 1 0
0 1 0
0 1 0
0.931960495 1 0
1 1 0
1 1 0
0 0 0
0 0 0
0 0 0
0 0 0
0 0 0
0 0 0
1 0 1
1 0 1
1 0 1
0 0 0
0 0 0
0 0 0
0 0 0
0 0 0
0 0 0
1 0 1
1 0 1
1 0 1
0 0 0
0 0 0
0 0 0
0 0 0
0 0 0
0 0 0
1 0 1
1 0 1
1 0 1
0 0 0
0 0 0
0 0 0
0 0 0
0 0 0
0 0 0
1 0 1
1 0 1
1 0 1
0 0 0
0 0 0
0 0 0
0 0 0
0 0 0
0 0 0
1 0 1
1 0 1
1 0 1
0 0.739450123 1
0 0.737968555 1
0 0.736173984 1
0 0.730631499 1
0 0.727127185 1
1 0.466534029 1
1 0 1
1 0 1
1 0 1
0 1 0.998850198
0 1 0.998868175
0 1 0.998868175
0 1 0.998887417
0 1 0.9989259
0 1 0.998149991
0.993461055 0.993599475 0.993472177
1 0.9840251 0.995045343
1 0 1
0 1 0
0 1 0
0 1 0
0 1 0
0 1 0
0 1 0
1 1 0
0.999475057 0.999037267 0.975362823
1 0.998130942 0.987993361
0 1 0
0 1 0
0 1 0
0 1 0
0 1 0
0 1 0
0 1 0
1 1 0
1 1 0
0 0 0
0 0 0
0 0 0
0 0 0
0 0 0
0 0 0
0 0 0
1 0 1
1 0 1
0 0 0
0 0 0
0 0 0
0 0 0
0 0 0
0 0 0
0 0 0
1 0 1
1 0 1
0 0 0
0 0 0
0 0 0
0 0 0
0 0 0
0 0 0
0 0 0
1 0 1
1 0 1
0 0 0
0 0 0
0 0 0
0 0 0
0 0 0
0 0 0
0 0 0
1 0 1
1 0 1
0 0 0
0 0 0
0 0 0
0 0 0
0 0 0
0 0 0
0 0 0
1 0 1
1 0 1
0 0 0
0 0 0
0 0 0
0 0 0
0 0 0
0 0 0
0 0 0
1 0 1
1 0 1
0 0.99091805 1
0 0.990831534 1
0 0.990745018 1
0 0.990468865 1
0 0.989536268 1
0 0.989225469 1
1 0.889325174 1
1 0 1
1 0 1
0 1 1
0 1 1
0 1 1
0 1 1
0 1 1
0 1 1
0.604406582 1 1
0.998127433 0.998265059 0.998100269
1 0.995995635 0.998487981
0 1 0
0 1 0
0 1 0
0 1 0
0 1 0
0 1 0
0 1 0
1 1 0
0.99971969 0.999732509 0.99407562
0 0 0
0 0 0
0 0 0
0 0 0
0 0 0
0 0 0
0 0 0
0 0 0
1 0 1
0 0 0
0 0 0
0 0 0
0 0 0
0 0 0
0 0 0
0 0 0
0 0 0
1 0 1
0 0 0
0 0 0
0 0 0
0 0 0
0 0 0
0 0 0
0 0 0
0 0 0
1 0 1
0 0 0
0 0 0
0 0 0
0 0 0
0 0 0
0 0 0
0 0 0
0 0 0
1 0 1
0 0 0
0 0 0
0 0 0
0 0 0
0 0 0
0 0 0
0 0 0
0 0 0
1 0 1
0 0 0
0 0 0
0 0 0
0 0 0
0 0 0
0 0 0
0 0 0
0 0 0
1 0 1
0 0 0
0 0 0
0 0 0
0 0 0
0 0 0
0 0 0
0 0 0
0 0 0
1 0 1
0 1 1
0 1 1
0 1 1
0 1 1
0 1 1
0 1 1
0 1 1
1 0.982222911 1
1 0 1
0 1 1
0 1 1
0 1 1
0 1 1
0 1 1
0 1 1
0 1 1
0.952670474 1 0.999674948
0.999389902 0.999526997 0.999343641
