Luts/Hasselblad/Hasselblad_Standard_Phocus_X2D_VLog_CC.cube
TITLE "Hasselblad Standard Phocus X2D ColorCorrect from V-Log"
#LUMIXPHOTOSTYLE VLOG
LUT_3D_SIZE 9
0 0 0
0.0445105669 0.00889600977 0.0147402152
0.191668574 0.024383917 0.0463416495
0.462043183 0.0232700084 0.0875104906
0.839078355 0 0.179034104
0.978072786 0 0.394216831
0.99485771 0 0.744472419
0.998565652 0 0.964766918
0.999572747 0 0.992477302
0.0151064317 0.0680857557 0.00538643473
0.0367284657 0.048813611 0.0143587396
0.186617838 0.0241702907 0.0452429999
0.458823529 0.0234988937 0.0870069429
0.838147555 0 0.178652628
0.978042267 0 0.393987945
0.99485771 0 0.744365606
0.998565652 0 0.964751659
0.999572747 0 0.992477302
0.0200656138 0.263874266 0
0.0211184863 0.254062715 0
0.208163577 0.232471199 0.0308995193
0.492164492 0.177370871 0
0.837674525 0 0.17769131
0.978011749 0 0.393682765
0.99485771 0 0.744258793
0.998565652 0 0.964751659
0.999572747 0 0.992477302
0 0.587029831 0
0 0.58237583 0
0.173785 0.569787137 0
0.49204242 0.53510338 0
0.86318761 0.443869688 0
0.978835737 0 0.380315862
0.994842451 0 0.743907836
0.998565652 0 0.9647364
0.999572747 0 0.992477302
0 0.924681468 0
0 0.924101625 0
0 0.92292668 0
0.429587243 0.917601282 0
0.864057374 0.89828336 0
0.980560006 0.819562066 0
0.995056077 0 0.722133211
0.998565652 0 0.964675364
0.999572747 0 0.992462043
0 0.986953536 0
0 0.986938277 0
0 0.986907759 0
0.114885176 0.98673991 0
0.801541161 0.986144808 0
0.980712596 0.984039063 0
0.995345998 0.976104372 0
0.998611429 0 0.960448615
0.999572747 0 0.992462043
0 0.996673533 0
0 0.996673533 0
0 0.996673533 0
0 0.996673533 0
0.329976349 0.996627756 0
0.973830777 0.996505684 0
0.995376516 0.996047913 0
0.998687724 0.994491493 0
0.999588006 0 0.991760128
0 0.999053941 0
0 0.999053941 0
0 0.999053941 0
0 0.999053941 0
0 0.999053941 0
0.685984588 0.999038682 0
0.9940795 0.999008164 0
0.998702983 0.998886091 0
0.999618524 0.998474098 0
0 0.999725338 0
0 0.999725338 0
0 0.999725338 0
0 0.999725338 0
0 0.999725338 0
0 0.999725338 0
0.954970626 0.999710079 0
0.998367285 0.999710079 0
0.999618524 0.999679561 0
0 0 0
0.0239566644 0 0.0298619059
0.184313725 0.0213626307 0.0523079271
0.458640421 0.023727779 0.0870069429
0.838086519 0 0.178652628
0.978042267 0 0.393957427
0.99485771 0 0.744365606
0.998565652 0 0.964751659
0.999572747 0 0.992477302
0.00889600977 0.043884947 0
0 0 0
0.179858091 0.023727779 0.0442511635
0.455390249 0.0239566644 0.0864881361
0.837155718 0 0.178194858
0.978011749 0 0.393713283
0.99485771 0 0.744274052
0.998565652 0 0.964751659
0.999572747 0 0.992477302
0.0213626307 0.25148394 0
0.0220950637 0.241489281 0
0.200793469 0.220111391 0.0314183261
0.48938735 0.161394675 0.0147402152
0.835996033 0 0.177752346
0.977981231 0 0.393408103
0.99485771 0 0.74415198
0.998565652 0 0.964751659
0.999572747 0 0.992477302
0 0.581139849 0
0 0.576424811 0
0.166491188 0.563897154 0
0.488334478 0.528969253 0
0.862623026 0.434851606 0
0.978667887 0 0.381887541
0.994842451 0 0.743801022
0.998565652 0 0.964721141
0.999572747 0 0.992462043
0 0.923933776 0
0 0.923338674 0
0 0.922240024 0
0.425543603 0.916746777 0
0.86301976 0.897077897 0
0.980544747 0.816815442 0
0.995040818 0 0.722758831
0.998565652 0 0.964660105
0.999572747 0 0.992462043
0 0.986938277 0
0 0.986907759 0
0 0.9868925 0
0.104158083 0.986724651 0
0.800228885 0.986129549 0
0.980682078 0.984008545 0
0.995345998 0.975997559 0
0.998611429 0 0.960479133
0.999572747 0 0.992462043
0 0.996673533 0
0 0.996673533 0
0 0.996673533 0
0 0.996673533 0
0.323704891 0.996627756 0
0.973785 0.996505684 0
0.995376516 0.996047913 0
0.998687724 0.994491493 0
0.999588006 0 0.991760128
0 0.999053941 0
0 0.999053941 0
0 0.999053941 0
0 0.999053941 0
0 0.999053941 0
0.683436332 0.999038682 0
0.9940795 0.999008164 0
0.998702983 0.998886091 0
0.999618524 0.998474098 0
0 0.999725338 0
0 0.999725338 0
0 0.999725338 0
0 0.999725338 0
0 0.999725338 0
0 0.999725338 0
0.954818036 0.999710079 0
0.998367285 0.999710079 0
0.999618524 0.999679561 0
0 0 0
0 0 0
0.119462882 0 0.161394675
0.426016632 0 0.226062409
0.83010605 0 0.282902266
0.977920195 0 0.429663539
0.99485771 0 0.744243534
0.998565652 0 0.964751659
0.999572747 0 0.992477302
0 0 0
0 0 0
0.115419242 0 0.155748836
0.423971923 0 0.220386053
0.829526207 0 0.277744717
0.977904936 0 0.426016632
0.99485771 0 0.744136721
0.998565652 0 0.964751659
0.999572747 0 0.992477302
0 0.210543984 0.145845731
0 0.198275731 0.150347143
0.173403525 0.173464561 0.174166476
0.481040665 0.0917372396 0.199237049
0.828824292 0 0.271335927
0.977874418 0 0.421499962
0.99485771 0 0.744029908
0.998565652 0 0.9647364
0.999572747 0 0.992477302
0 0.570656901 0
0 0.565880827 0
0.14290074 0.552544442 0
0.477195392 0.515556573 0.057129778
0.862333104 0.405371176 0.117555505
0.978423743 0 0.39952697
0.994842451 0 0.74367895
0.998565652 0 0.964721141
0.999572747 0 0.992462043
0 0.922865644 0
0 0.922255283 0
0 0.921278706 0
0.418554971 0.915541314 0
0.861600671 0.8954757 0
0.980514229 0.81341268 0
0.995025559 0 0.723537041
0.998565652 0 0.964660105
0.999572747 0 0.992462043
0 0.986907759 0
0 0.986877241 0
0 0.986846723 0
0.0904707408 0.986694133 0
0.79859617 0.986083772 0
0.98065156 0.983962768 0
0.995345998 0.975890745 0
0.998611429 0 0.96052491
0.999572747 0 0.992462043
0 0.996673533 0
0 0.996673533 0
0 0.996673533 0
0 0.996658274 0
0.315892271 0.996627756 0
0.973723964 0.996505684 0
0.995376516 0.996047913 0
0.998687724 0.994476234 0
0.999588006 0 0.991760128
0 0.999053941 0
0 0.999053941 0
0 0.999053941 0
0 0.999053941 0
0 0.999053941 0
0.680277714 0.999038682 0
0.99406424 0.999008164 0
0.998702983 0.998886091 0
0.999618524 0.998474098 0
0 0.999725338 0
0 0.999725338 0
0 0.999725338 0
0 0.999725338 0
0 0.999725338 0
0 0.999725338 0
0.95460441 0.999710079 0
0.998367285 0.999710079 0
0.999618524 0.999679561 0
0 0 0
0 0 0
0 0 0
0.297962921 0 0.401480125
0.796826123 0 0.528633555
0.976943618 0 0.615960937
0.994827192 0 0.803143359
0.998565652 0 0.9647364
0.999572747 0 0.992477302
0 0 0
0 0 0
0 0 0
0.295277333 0 0.398062104
0.796246281 0 0.525551232
0.976928359 0 0.613488975
0.994827192 0 0.801968414
0.998565652 0 0.964721141
0.999572747 0 0.992462043
0.0218661784 0.0601052873 0.162798505
0.0192416266 0.0507515068 0.131578546
0.0830395972 0.0485847257 0.215045396
0.362966354 0 0.451529717
0.795544366 0 0.521751736
0.976897841 0 0.610528725
0.994827192 0 0.800518807
0.998565652 0 0.964721141
0.999572747 0 0.992462043
0 0.496437018 0.374502174
0 0.490196078 0.377523461
0 0.481361105 0.384573129
0.429587243 0.42980087 0.431433585
0.858213169 0.257984283 0.472571908
0.976974136 0 0.600350958
0.994811933 0 0.796078431
0.998565652 0 0.964705882
0.999572747 0 0.992462043
0 0.918165866 0
0 0.91747921 0
0 0.916609445 0
0.369283589 0.909178302 0
0.849698634 0.884077211 0.201739528
0.980529488 0.775738155 0.31528191
0.994979782 0 0.766994736
0.998565652 0 0.964644846
0.999572747 0 0.992462043
0 0.986770428 0
0 0.986755169 0
0 0.986724651 0
0 0.986572061 0
0.78924239 0.985946441 0
0.980468452 0.98377966 0
0.995330739 0.975524529 0
0.998611429 0 0.960677501
0.999572747 0 0.992462043
0 0.996673533 0
0 0.996673533 0
0 0.996658274 0
0 0.996658274 0
0.291508354 0.996612497 0
0.973525597 0.996490425 0
0.995361257 0.996047913 0
0.998687724 0.994460975 0
0.999588006 0 0.991775387
0 0.999053941 0
0 0.999053941 0
0 0.999053941 0
0 0.999053941 0
0 0.999053941 0
0.670481422 0.999038682 0
0.99406424 0.998992905 0
0.998702983 0.998886091 0
0.999618524 0.998474098 0
0 0.999725338 0
0 0.999725338 0
0 0.999725338 0
0 0.999725338 0
0 0.999725338 0
0 0.999725338 0
0.953963531 0.999710079 0
0.998352026 0.999710079 0
0.999618524 0.999679561 0
0 0 0
0 0 0
0 0 0
0 0 0
0.63260853 0 0.78080415
0.972869459 0 0.894865339
0.994628824 0 0.936095216
0.998550393 0 0.974090181
0.999572747 0 0.992462043
0 0 0
0 0 0
0 0 0
0 0 0
0.631372549 0 0.779659724
0.972838941 0 0.894254978
0.994628824 0 0.935835813
0.998550393 0 0.974044404
0.999572747 0 0.992462043
0 0 0
0 0 0
0 0 0
0 0 0
0.629846647 0 0.778225376
0.972808423 0 0.893476768
0.994628824 0 0.935530632
0.998550393 0 0.973983368
0.999572747 0 0.992462043
0.0337071794 0.16583505 0.488654917
0.0338597696 0.160189212 0.473609522
0.0338597696 0.153017472 0.4542916
0.258609903 0.115037766 0.634821088
0.762920577 0 0.846936751
0.972716869 0 0.891081102
0.994628824 0 0.934599832
0.998550393 0 0.973830777
0.999572747 0 0.992462043
0 0.866529335 0.737468528
0 0.864820325 0.738597696
0 0.862684062 0.739971008
0.044632639 0.854886702 0.749385824
0.801724269 0.801968414 0.803830014
0.980178531 0.571938659 0.84414435
0.994705119 0 0.929930571
0.998550393 0 0.973266194
0.999572747 0 0.992462043
0 0.986190585 0
0 0.986175326 0
0 0.986144808 0
0 0.986022736 0
0.730495155 0.985198749 0
0.979262989 0.982604715 0.477943084
0.995345998 0.970443275 0.656656748
0.99859617 0 0.96911574
0.999572747 0 0.992446784
0 0.996643015 0
0 0.996643015 0
0 0.996643015 0
0 0.996627756 0
0.0715342947 0.996597238 0
0.97222858 0.996459907 0
0.995330739 0.996002136 0
0.998687724 0.994399939 0
0.999588006 0 0.991790646
0 0.999053941 0
0 0.999053941 0
0 0.999053941 0
0 0.999038682 0
0 0.999038682 0
0.635919738 0.999038682 0
0.994018463 0.998992905 0
0.998702983 0.998870832 0
0.999618524 0.998458839 0
0 0.999725338 0
0 0.999725338 0
0 0.999725338 0
0 0.999725338 0
0 0.999725338 0
0 0.999725338 0
0.951750973 0.999710079 0
0.998352026 0.999710079 0
0.999618524 0.999664302 0
0 0 0
0 0 0
0 0 0
0 0 0
0 0 0
0.939574273 0 0.970962081
0.993881132 0 0.983718624
0.998504616 0 0.988403143
0.999572747 0 0.994125277
0 0 0
0 0 0
0 0 0
0 0 0
0 0 0
0.939452201 0 0.970916304
0.993881132 0 0.983703365
0.998504616 0 0.988387884
0.999572747 0 0.994125277
0 0 0
0 0 0
0 0 0
0 0 0
0 0 0
0.93931487 0 0.970855268
0.993881132 0 0.983672847
0.998504616 0 0.988387884
0.999572747 0 0.994125277
0 0 0
0 0 0
0 0 0
0 0 0
0 0 0
0.938872358 0 0.97067216
0.993881132 0 0.983596551
0.998504616 0 0.988342107
0.999572747 0 0.994110018
0.0151064317 0.387197681 0.8864271
0.0151064317 0.383764401 0.883161669
0.0151064317 0.379537652 0.878950179
0.0147402152 0.373113603 0.872114137
0.576897841 0.261966888 0.950988022
0.968978408 0 0.979354543
0.993850614 0 0.983367666
0.998504616 0 0.988220035
0.999572747 0 0.9940795
0 0.980910964 0.964476997
0 0.980865187 0.964538033
0 0.980788891 0.964614328
0 0.980605783 0.964812696
0.170489052 0.979827573 0.966430152
0.973861295 0.973891814 0.974120699
0.995269703 0.918074311 0.978652628
0.998535134 0 0.987594415
0.999572747 0 0.993987945
0 0.996505684 0
0 0.996505684 0
0 0.996505684 0
0 0.996505684 0
0 0.996475166 0
0.963256275 0.996307317 0
0.995086595 0.995757992 0.850034333
0.998687724 0.993484398 0.947356374
0.999588006 0 0.993240253
0 0.999038682 0
0 0.999038682 0
0 0.999038682 0
0 0.999038682 0
0 0.999038682 0
0.243579767 0.999023423 0
0.993789578 0.998992905 0
0.998687724 0.998870832 0
0.999618524 0.99844358 0
0 0.999725338 0
0 0.999725338 0
0 0.999725338 0
0 0.999725338 0
0 0.999725338 0
0 0.999725338 0
0.942839704 0.999710079 0
0.998352026 0.999710079 0
0.999618524 0.999664302 0
0 0 0
0 0 0
0 0 0
0 0 0
0 0 0
0 0 0
0.988784619 0 0.993560693
0.998306249 0 0.995986877
0.999557488 0 0.997009232
0 0 0
0 0 0
0 0 0
0 0 0
0 0 0
0 0 0
0.988784619 0 0.993560693
0.998306249 0 0.995986877
0.999557488 0 0.996993973
0 0 0
0 0 0
0 0 0
0 0 0
0 0 0
0 0 0
0.98876936 0 0.993545434
0.998306249 0 0.995986877
0.999557488 0 0.996993973
0 0 0
0 0 0
0 0 0
0 0 0
0 0 0
0 0 0
0.988754101 0 0.993545434
0.998306249 0 0.995986877
0.999557488 0 0.996993973
0 0 0
0 0 0
0 0 0
0 0 0
0 0 0
0 0 0
0.988693065 0 0.993514916
0.998306249 0 0.995971618
0.999557488 0 0.996993973
0.0272678721 0.743938354 0.983245594
0.0272678721 0.742641337 0.983169299
0.0270695048 0.741069657 0.983047227
0.0268711376 0.736217288 0.982696269
0.0268711376 0.733150225 0.982482643
0.920866712 0.554665446 0.990707256
0.993240253 0 0.995132372
0.998306249 0 0.995910582
0.999557488 0 0.996963455
0 0.995407034 0.992462043
0 0.995407034 0.992477302
0 0.995407034 0.992477302
0 0.995391775 0.992492561
0 0.995361257 0.992523079
0.419028 0.995208667 0.992797742
0.9940795 0.9940795 0.994125277
0.998672465 0.986190585 0.994964523
0.999572747 0 0.996826123
0 0.999008164 0
0 0.999008164 0
0 0.999008164 0
0 0.999008164 0
0 0.999008164 0
0 0.998992905 0
0.992263676 0.998947127 0
0.998626688 0.998794537 0.979293507
0.999618524 0.998214694 0.989883268
0 0.999725338 0
0 0.999725338 0
0 0.999725338 0
0 0.999725338 0
0 0.999710079 0
0 0.999710079 0
0.556069276 0.999710079 0
0.99829099 0.999710079 0
0.999618524 0.999664302 0
0 0 0
0 0 0
0 0 0
0 0 0
0 0 0
0 0 0
0 0 0
0.997085527 0 0.998229953
0.999511711 0 0.998855573
0 0 0
0 0 0
0 0 0
0 0 0
0 0 0
0 0 0
0 0 0
0.997085527 0 0.998229953
0.999511711 0 0.998855573
0 0 0
0 0 0
0 0 0
0 0 0
0 0 0
0 0 0
0 0 0
0.997085527 0 0.998229953
0.999511711 0 0.998855573
0 0 0
0 0 0
0 0 0
0 0 0
0 0 0
0 0 0
0 0 0
0.997085527 0 0.998229953
0.999511711 0 0.998855573
0 0 0
0 0 0
0 0 0
0 0 0
0 0 0
0 0 0
0 0 0
0.997070268 0 0.998229953
0.999511711 0 0.998855573
0 0 0
0 0 0
0 0 0
0 0 0
0 0 0
0 0 0
0 0 0
0.997070268 0 0.998214694
0.999511711 0 0.998855573
0.0493934539 0.965102617 0.995910582
0.0493934539 0.965026322 0.995910582
0.0493934539 0.964950027 0.995910582
0.0492713817 0.964705882 0.995880064
0.048813611 0.963881895 0.995819028
0.0487067979 0.963607233 0.99578851
0.986526284 0.905073625 0.997558556
0.998153658 0 0.998641947
0.999511711 0 0.998840314
0 0.998702983 0.997955291
0 0.998702983 0.997955291
0 0.998702983 0.997955291
0 0.998702983 0.997955291
0 0.998702983 0.997955291
0 0.998687724 0.99797055
0.788494697 0.998657206 0.998031586
0.998367285 0.998367285 0.998382544
0.999618524 0.996505684 0.99859617
0 0.999710079 0
0 0.999710079 0
0 0.999710079 0
0 0.999710079 0
0 0.999710079 0
0 0.999710079 0
0 0.999710079 0
0.997909514 0.99969482 0
0.999603265 0.999649042 0.995101854
0 0 0
0 0 0
0 0 0
0 0 0
0 0 0
0 0 0
0 0 0
0 0 0
0.999160754 0 0.999481193
0 0 0
0 0 0
0 0 0
0 0 0
0 0 0
0 0 0
0 0 0
0 0 0
0.999160754 0 0.999481193
0 0 0
0 0 0
0 0 0
0 0 0
0 0 0
0 0 0
0 0 0
0 0 0
0.999160754 0 0.999481193
0 0 0
0 0 0
0 0 0
0 0 0
0 0 0
0 0 0
0 0 0
0 0 0
0.999160754 0 0.999481193
0 0 0
0 0 0
0 0 0
0 0 0
0 0 0
0 0 0
0 0 0
0 0 0
0.999160754 0 0.999481193
0 0 0
0 0 0
0 0 0
0 0 0
0 0 0
0 0 0
0 0 0
0 0 0
0.999160754 0 0.999481193
0 0 0
0 0 0
0 0 0
0 0 0
0 0 0
0 0 0
0 0 0
0 0 0
0.999160754 0 0.999481193
0.0971999695 0.992553597 0.998840314
0.0971999695 0.992538338 0.998840314
0.0971236744 0.992538338 0.998840314
0.0970321202 0.992523079 0.998840314
0.0967879759 0.992492561 0.998840314
0.0958876936 0.99235523 0.998825055
0.0956435492 0.992324712 0.998809796
0.996581979 0.984588388 0.999298085
0.999465934 0 0.999603265
0 0.999618524 0.999404898
0 0.999618524 0.999404898
0 0.999618524 0.999404898
0 0.999618524 0.999404898
0 0.999618524 0.999404898
0 0.999618524 0.999404898
0 0.999618524 0.999404898
0.972091249 0.999603265 0.999435416
0.99952697 0.99952697 0.99952697
