Luts/Hasselblad/Hasselblad_Nature_Phocus_X2D_VLog_Rec709_65.cube
TITLE "Hasselblad Nature Phocus X2D ColorCorrect from V-Log to Rec.709"
#LUMIXPHOTOSTYLE VLOG
# INPUT_COLORSPACE Panasonic V-Log / V-Gamut
# OUTPUT_COLORSPACE Rec.709 primaries / D65 / BT.709 OETF
LUT_3D_SIZE 5
0 0 0
0.099867069 0 0.000446836636
1 0 0.00682398996
1 0 0.791405055
1 0 1
0 0.156191659 0
0.072165383 0.113540964 0
1 0 0.00574934285
1 0 0.791124431
1 0 1
0 0.985951709 0
0 0.98449223 0
0.905199401 0.936679167 0
1 0 0.76318254
1 0 1
0 1 0
0 1 0
0 1 0
1 1 0
1 0 1
0 1 0
0 1 0
0 1 0
0.986376372 1 0
1 1 0
0 0 0
0.0242964301 0 0.0434284235
1 0 0.150074646
1 0 0.791106892
1 0 1
0 0.0913332262 0.0262295084
0.0490437188 0.0491637787 0.0497708317
1 0 0.13302845
1 0 0.790843803
1 0 1
0 0.984440719 0
0 0.983118584 0
0.902796746 0.934165456 0
1 0 0.764974082
1 0 1
0 1 0
0 1 0
0 1 0
1 1 0
1 0 1
0 1 0
0 1 0
0 1 0
0.985996323 1 0
1 1 0
0 0 0
0 0 0
0.761560083 0 0.841201422
1 0 0.994397001
1 0 1
0 0 0
0 0 0
0.757262852 0 0.838181326
1 0 0.993944113
1 0 1
0 0.928240399 0.751799031
0 0.924320987 0.755423554
0.831369952 0.831999943 0.834093286
1 0 0.989397004
1 0 1
0 1 0
0 1 0
0 1 0
1 1 0
1 0 1
0 1 0
0 1 0
0 1 0
0.982953919 1 0
1 1 0
0 0 0
0 0 0
0 0 0
1 0 1
1 0 1
0 0 0
0 0 0
0 0 0
1 0 1
1 0 1
0 0 0
0 0 0
0 0 0
1 0 1
1 0 1
0 1 1
0 1 1
0 1 1
0.996915671 0.997053145 0.996888557
1 0 1
0 1 0
0 1 0
0 1 0
0 1 0
1 1 0
0 0 0
0 0 0
0 0 0
0 0 0
1 0 1
0 0 0
0 0 0
0 0 0
0 0 0
1 0 1
0 0 0
0 0 0
0 0 0
0 0 0
1 0 1
0 0 0
0 0 0
0 0 0
0 0 0
1 0 1
0 1 1
0 1 1
0 1 1
0 1 1
0.999672088 0.999809218 0.999625815
