Luts/Hasselblad/Hasselblad_Nature_Phocus_X2D_VLog_Rec709.cube
TITLE "Hasselblad Nature Phocus X2D ColorCorrect from V-Log to Rec.709"
#LUMIXPHOTOSTYLE VLOG
# INPUT_COLORSPACE Panasonic V-Log / V-Gamut
# OUTPUT_COLORSPACE Rec.709 primaries / D65 / BT.709 OETF
LUT_3D_SIZE 33
0 0 0
0 0 0
0 0 0
0 0 0
0.00185338646 0 6.76889521e-05
0.00944236927 0 0.000219257123
0.0231875308 0 0.000337795833
0.0493693055 0 0.000431140973
0.099867069 0 0.000446836636
0.17060713 0 0.000272039692
0.262187071 0 0
0.377213736 0 0
0.511208592 0 0
0.659242466 0 0
0.817832402 0 0
0.963236972 0 0
1 0 0.00682398996
1 0 0.0441680375
1 0 0.1159527
1 0 0.204417737
1 0 0.305138304
1 0 0.416755394
1 0 0.537833286
1 0 0.667963059
1 0 0.791405055
1 0 0.894536844
1 0 0.967401474
1 0 1
1 0 1
1 0 1
1 0 1
1 0 1
1 0 1
0 0 0
0 0 0
0 0 0
0 0 0
0.00156833538 0 6.01811377e-05
0.00886038502 0 0.000206817243
0.0222001787 0 0.00033261444
0.04788559 0 0.000430382041
0.0979893941 0 0.000447900376
0.168838833 0 0.000275488385
0.260465133 0 0
0.375701518 0 0
0.509924211 0 0
0.658144512 0 0
0.817081664 0 0
0.962730639 0 0
1 0 0.0067818671
1 0 0.0440375744
1 0 0.115887948
1 0 0.204279015
1 0 0.305100862
1 0 0.416719072
1 0 0.537744053
1 0 0.667945405
1 0 0.791352438
1 0 0.894501904
1 0 0.967401474
1 0 1
1 0 1
1 0 1
1 0 1
1 0 1
1 0 1
0 0 0
0 0 0
0 0 0
0 0 0
0.00128954431 0 5.29675482e-05
0.00828398002 0 0.000199359711
0.0212635391 0 0.000327893254
0.0464293295 0 0.000428439111
0.0960935307 0 0.000449552139
0.166969285 0 0.000283402801
0.258703808 0 0
0.374066789 0 0
0.508599438 0 0
0.657087435 0 0
0.816270085 0 0
0.962224492 0 0
1 0 0.00669166199
1 0 0.0439676555
1 0 0.115714046
1 0 0.204202121
1 0 0.304989378
1 0 0.416592576
1 0 0.537726206
1 0 0.667874788
1 0 0.791334899
1 0 0.894484433
1 0 0.967401474
1 0 1
1 0 1
1 0 1
1 0 1
1 0 1
1 0 1
0 0 0
0 0 0
0 0 0
0 0 0
0.00103485086 0 4.00831961e-05
0.00771370663 0 0.000192551946
0.0203124524 0 0.000322777164
0.045054838 0 0.00042390828
0.0942154462 0 0.000450428897
0.165221221 0 0.000288799598
0.256920449 0 0
0.372534021 0 0
0.507315688 0 0
0.656050124 0 0
0.815458611 0 0
0.961718342 0 0
1 0 0.0066604175
1 0 0.0438193593
1 0 0.115562283
1 0 0.204083196
1 0 0.304877043
1 0 0.41651993
1 0 0.537636972
1 0 0.667821825
1 0 0.791299822
1 0 0.894484433
1 0 0.967384042
1 0 1
1 0 1
1 0 1
1 0 1
1 0 1
1 0 1
0 0.00395012229 0
0 0.00331768168 0
0 0.0027366269 0
0 0.00220377113 0
0.000388055522 0.00160193017 0
0.00829104583 0.000867412125 0
0.0248614368 0 2.58824296e-05
0.0532182676 0 0.000234745238
0.0931223395 0 0.000433372113
0.163431871 0 0.000294737822
0.255239592 0 0
0.370960499 0 0
0.505990854 0 0
0.654992797 0 0
0.814687611 0 0
0.961211939 0 0
1 0 0.00658508891
1 0 0.0437495402
1 0 0.115477076
1 0 0.204005099
1 0 0.304802151
1 0 0.416465445
1 0 0.537565584
1 0 0.667804171
1 0 0.791264744
1 0 0.894449492
1 0 0.967384042
1 0 1
1 0 1
1 0 1
1 0 1
1 0 1
1 0 1
0 0.0176775261 0
0 0.0162333682 0
0 0.0148976453 0
0 0.0135779569 0
0 0.01200583 0
0.00525115925 0.00991594115 0
0.0214222731 0.00820793036 0
0.0521017713 0.0058321576 0
0.111985909 0.00133275464 0
0.195760537 0 0
0.293298377 0 0
0.3913344 0 0
0.504665568 0 0
0.65391504 0 0
0.813876178 0 0
0.960726113 0 0
1 0 0.00654119843
1 0 0.0435993065
1 0 0.115347452
1 0 0.20386633
1 0 0.304689808
1 0 0.416374636
1 0 0.53752989
1 0 0.667733553
1 0 0.791247204
1 0 0.894449492
1 0 0.96736661
1 0 1
1 0 1
1 0 1
1 0 1
1 0 1
1 0 1
0 0.0426397135 0
0 0.040347575 0
0 0.0381239565 0
0 0.0359579993 0
0 0.0333030379 0
0 0.0299555011 0
0.0148203173 0.0260220321 0
0.0472166826 0.0224835749 0
0.107399436 0.0171237171 0
0.186050063 0.00886465088 0
0.295025184 0 0
0.422798667 0 0
0.555937475 0 0
0.669031594 0 0
0.813084812 0 0
0.960219642 0 0
1 0 0.00645134822
1 0 0.0434714382
1 0 0.115240005
1 0 0.203728738
1 0 0.304634481
1 0 0.416338312
1 0 0.53745899
1 0 0.667715899
1 0 0.791212126
1 0 0.894414552
1 0 0.96736661
1 0 1
1 0 1
1 0 1
1 0 1
1 0 1
1 0 1
0 0.0886015199 0
0 0.0853827521 0
0 0.0821637317 0
0 0.0790308977 0
0 0.0755285717 0
0 0.0698980196 0
0 0.0642039884 0
0.0338853232 0.0570977059 0
0.0980896001 0.0497351781 0
0.182909457 0.0386846858 0
0.285319971 0.0223503972 0
0.417788525 0 0
0.565861615 0 0
0.713257148 0 0
0.841619627 0 0
0.959571679 0 0
1 0 0.00636950182
1 0 0.0433458112
1 0 0.115110325
1 0 0.203589937
1 0 0.304522131
1 0 0.4162475
1 0 0.537369753
1 0 0.667662935
1 0 0.791177048
1 0 0.894397081
1 0 0.967349178
1 0 1
1 0 1
1 0 1
1 0 1
1 0 1
1 0 1
0 0.156191659 0
0 0.153175424 0
0 0.150158799 0
0 0.147072022 0
0 0.144037151 0
0 0.137252071 0
0 0.132434661 0
0 0.124338692 0
0.072165383 0.113540964 0
0.169320922 0.101195916 0
0.279711474 0.0808376993 0
0.406060476 0.0505407432 0
0.554760475 0 0
0.719436886 0 0
0.873008312 0 0
0.991750182 0 0
1 0 0.00574934285
1 0 0.0431844408
1 0 0.114869505
1 0 0.203473341
1 0 0.304353597
1 0 0.416102199
1 0 0.537316211
1 0 0.667574663
1 0 0.791124431
1 0 0.89436214
1 0 0.967331746
1 0 1
1 0 1
1 0 1
1 0 1
1 0 1
1 0 1
0 0.243131371 0
0 0.240263769 0
0 0.237448059 0
0 0.234562569 0
0 0.231694204 0
0 0.224475129 0
0 0.220170388 0
0 0.213746263 0
0.00323290306 0.202621819 0
0.134060295 0.18838587 0
0.26029522 0.171979347 0
0.395870435 0.145858326 0
0.540112475 0.105911907 0
0.70161611 0.0236838107 0
0.87263117 0 0
1 0 0
1 0 0
1 0 0.0386198961
1 0 0.114520985
1 0 0.20319686
1 0 0.304110988
1 0 0.415921197
1 0 0.537155582
1 0 0.667468734
1 0 0.791054274
1 0 0.894327199
1 0 0.967331746
1 0 1
1 0 1
1 0 1
1 0 1
1 0 1
1 0 1
0 0.347928007 0
0 0.345484383 0
0 0.343023285 0
0 0.340544712 0
0 0.338065992 0
0 0.332003633 0
0 0.326619816 0
0 0.321836051 0
0 0.313609195 0
0.019051169 0.299515454 0
0.214208593 0.281724275 0
0.367737268 0.261302493 0
0.522183311 0.230388367 0
0.681606554 0.185912933 0
0.850161245 0.0930576506 0
1 0 0
1 0 0
1 0 0.0113007481
1 0 0.10437613
1 0 0.20286199
1 0 0.303887087
1 0 0.415739558
1 0 0.536959254
1 0 0.667345151
1 0 0.790966578
1 0 0.894274788
1 0 0.967296883
1 0 1
1 0 1
1 0 1
1 0 1
1 0 1
1 0 1
0 0.464482668 0
0 0.462563638 0
0 0.460609962 0
0 0.458621633 0
0 0.456685103 0
0 0.452737905 0
0 0.446612543 0
0 0.441959946 0
0 0.436032771 0
0 0.42622537 0
0.0767764528 0.409564803 0
0.312994627 0.389050341 0
0.485420085 0.366005512 0
0.656593233 0.331963167 0
0.825993219 0.284988278 0
0.979855987 0.20009202 0
1 0 0
1 0 0
1 0 0.0608009955
1 0 0.188441566
1 0 0.303494577
1 0 0.415412591
1 0 0.536745073
1 0 0.667133291
1 0 0.790843803
1 0 0.894204906
1 0 0.967279451
1 0 1
1 0 1
1 0 1
1 0 1
1 0 1
1 0 1
0 0.590531972 0
0 0.58896204 0
0 0.587392071 0
0 0.585787558 0
0 0.584217512 0
0 0.582302351 0
0 0.576722471 0
0 0.571249495 0
0 0.566455988 0
0 0.559501576 0
0 0.548246465 0
0.181251576 0.529311139 0
0.425181424 0.506519804 0
0.613791164 0.481411763 0
0.79491013 0.445363541 0
0.9504025 0.399397652 0
1 0.321886744 0
1 0.152950345 0
1 0 0
1 0 0.138860546
1 0 0.284793006
1 0 0.414995403
1 0 0.536406432
1 0 0.666886508
1 0 0.790685949
1 0 0.894117553
1 0 0.967244587
1 0 1
1 0 1
1 0 1
1 0 1
1 0 1
1 0 1
0 0.72172962 0
0 0.720610286 0
0 0.719456494 0
0 0.718337127 0
0 0.717148859 0
0 0.716012237 0
0 0.712979059 0
0 0.708061566 0
0 0.703135044 0
0 0.698350633 0
0 0.690833795 0
0 0.678666953 0
0.295613286 0.658525971 0
0.548113555 0.634396264 0
0.745627217 0.607942779 0
0.911906208 0.571690681 0
1 0.526878274 0
1 0.455026225 0
1 0.303178276 0
1 0 0
1 0 0.228714458
1 0 0.392475177
1 0 0.53597804
1 0 0.666586363
1 0 0.790457935
1 0 0.893977788
1 0 0.967192291
1 0 1
1 0 1
1 0 1
1 0 1
1 0 1
1 0 1
0 0.838865353 0
0 0.838177494 0
0 0.837455237 0
0 0.836732974 0
0 0.836045099 0
0 0.835322825 0
0 0.834462967 0
0 0.831347591 0
0 0.827332168 0
0 0.823144872 0
0 0.818736841 0
0 0.811398025 0
0 0.799727742 0
0.432529094 0.780630632 0
0.681536948 0.757986259 0
0.85881011 0.734205849 0
0.995162362 0.702502286 0
1 0.663917015 0
1 0.598119102 0
1 0.446521155 0
1 0.139735156 0.0222220446
1 0 0.328831842
1 0 0.509692125
1 0 0.666127306
1 0 0.790159759
1 0 0.89380308
1 0 0.967122825
1 0 1
1 0 1
1 0 1
1 0 1
1 0 1
1 0 1
0 0.931885528 0
0 0.931490401 0
0 0.931095272 0
0 0.930700142 0
0 0.93030501 0
0 0.929927057 0
0 0.929531922 0
0 0.928535488 0
0 0.926160105 0
0 0.923039593 0
0 0.919620614 0
0 0.915453911 0
0 0.908489943 0
0.23154283 0.897743803 0
0.591976228 0.880736826 0
0.804223434 0.861715677 0
0.945466806 0.842712045 0
1 0.818731408 0
1 0.788947018 0
1 0.734387241 0
1 0.59249921 0
1 0.297072018 0.0829358562
1 0 0.439335979
1 0 0.63747465
1 0 0.789773879
1 0 0.893575959
1 0 0.967018233
1 0 1
1 0 1
1 0 1
1 0 1
1 0 1
1 0 1
0 0.985951709 0
0 0.985848688 0
0 0.985711326 0
0 0.985591134 0
0 0.985470942 0
0 0.98535075 0
0 0.985230557 0
0 0.985058854 0
0 0.98449223 0
0 0.983361755 0
0 0.981553206 0
0 0.979070083 0
0 0.975469501 0
0 0.969670525 0
0.477349474 0.961030296 0
0.744110145 0.949031264 0
0.905199401 0.936679167 0
0.988674838 0.925407071 0
1 0.910383051 0
1 0.888966503 0
1 0.847638516 0
1 0.730177303 0
1 0.440911355 0.167906295
1 0 0.56002227
1 0 0.76318254
1 0 0.893261481
1 0 0.966896209
1 0 1
1 0 1
1 0 1
1 0 1
1 0 1
1 0 1
0 1 0
0 1 0
0 1 0
0 1 0
0 1 0
0 1 0
0 1 0
0 1 0
0 1 0
0 1 0
0 1 0
0 1 0
0 1 0
0 0.999173179 0
0.382041309 0.993074934 0
0.684419339 0.985383597 0
0.876074582 0.976999183 0
0.969127303 0.970543874 0
1 0.96575147 0
1 0.959517246 0
1 0.950410996 0
1 0.929593463 0
1 0.844515039 0
1 0.586233324 0.262894067
1 0 0.688470703
1 0 0.871360594
1 0 0.96673932
1 0 1
1 0 1
1 0 1
1 0 1
1 0 1
1 0 1
0 1 0
0 1 0
0 1 0
0 1 0
0 1 0
0 1 0
0 1 0
0 1 0
0 1 0
0 1 0
0 1 0
0 1 0
0 1 0
0 1 0
0.265927762 1 0
0.631631669 1 0
0.840946956 0.994433713 0
0.956607241 0.989050243 0
0.995836201 0.986043738 0
1 0.983727749 0
1 0.980705989 0
1 0.976450395 0
1 0.967332751 0
1 0.927741171 0
1 0.723615447 0.369567544
1 0 0.80782531
1 0 0.953662006
1 0 1
1 0 1
1 0 1
1 0 1
1 0 1
1 0 1
0 1 0
0 1 0
0 1 0
0 1 0
0 1 0
0 1 0
0 1 0
0 1 0
0 1 0
0 1 0
0 1 0
0 1 0
0 1 0
0 1 0
0.0436272281 1 0
0.568046863 1 0
0.806642628 1 0
0.940527763 0.998191616 0
0.9896831 0.995617469 0
1 0.994066527 0
1 0.992809839 0
1 0.9911891 0
1 0.988957833 0
1 0.984391513 0
1 0.966449412 0
1 0.838006306 0.488986533
1 0 0.906289254
1 0 0.994300201
1 0 1
1 0 1
1 0 1
1 0 1
1 0 1
0 1 0
0 1 0
0 1 0
0 1 0
0 1 0
0 1 0
0 1 0
0 1 0
0 1 0
0 1 0
0 1 0
0 1 0
0 1 0
0 1 0
0 1 0
0.483295668 1 0
0.763621405 1 0
0.92326245 1 0
0.982093666 1 0
1 0.999476612 0
1 0.998590624 0
1 0.997859946 0
1 0.996908345 0
1 0.995630177 0
1 0.993121434 0
1 0.9838701 0
1 0.921868881 0.620376608
1 0 0.972273562
1 0 1
1 0 1
1 0 1
1 0 1
1 0 1
0 1 0
0 1 0
0 1 0
0 1 0
0 1 0
0 1 0
0 1 0
0 1 0
0 1 0
0 1 0
0 1 0
0 1 0
0 1 0
0 1 0
0 1 0
0.305883054 1 0
0.706530166 1 0
0.898649264 1 0
0.974319047 1 0
1 1 0
1 1 0
1 1 0
1 1 0
1 1 0
1 0.999510447 0
1 0.998013929 0
1 0.992737224 0
1 0.960999551 0.747357396
1 0 1
1 0 1
1 0 1
1 0 1
1 0 1
0 1 0
0 1 0
0 1 0
0 1 0
0 1 0
0 1 0
0 1 0
0 1 0
0 1 0
0 1 0
0 1 0
0 1 0
0 1 0
0 1 0
0 1 0
0 1 0
0.596216172 1 0
0.860705012 1 0
0.963932807 1 0
0.997164293 1 0
1 1 0
1 1 0
1 1 0
1 1 0
1 1 0
1 1 0
1 1 0
1 0.997630164 0
1 0.97799942 0.853791395
1 0.185399423 1
1 0 1
1 0 1
1 0 1
0 1 0
0 1 0
0 1 0
0 1 0
0 1 0
0 1 0
0 1 0
0 1 0
0 1 0
0 1 0
0 1 0
0 1 0
0 1 0
0 1 0
0 1 0
0 1 0
0.227698039 1 0
0.784780686 1 0
0.94844206 1 0
0.992021648 1 0
1 1 0
1 1 0
1 1 0
1 1 0
1 1 0
1 1 0
1 1 0
1 1 0
1 1 0
1 0.986352418 0.928707209
1 0.347384937 1
1 0 1
1 0 1
0 1 0
0 1 0
0 1 0
0 1 0
0 1 0
0 1 0
0 1 0
0 1 0
0 1 0
0 1 0
0 1 0
0 1 0
0 1 0
0 1 0
0 1 0
0 1 0
0 1 0
0.557182938 1 0
0.911327841 1 0
0.984784873 1 0
1 1 0
1 1 0
1 1 0
1 1 0
1 1 0
1 1 0
1 1 0
1 1 0
1 1 0
1 1 0.0538843794
1 0.991091075 0.962430562
1 0.497592267 1
1 0 1
0 1 0
0 1 0
0 1 0
0 1 0
0 1 0
0 1 0
0 1 0
0 1 0
0 1 0
0 1 0
0 1 0
0 1 0
0 1 0
0 1 0
0 1 0
0 1 0
0 1 0
0 1 0
0.758767894 1 0
0.968697927 1 0
1 1 0
1 1 0
1 1 0
1 1 0
1 1 0
1 1 0
1 1 0
1 1 0
1 1 0
1 1 0
1 1 0.249213203
1 0.994013143 0.978170163
1 0.645328513 1
0 1 0
0 1 0
0 1 0
0 1 0
0 1 0
0 1 0
0 1 0
0 1 0
0 1 0
0 1 0
0 1 0
0 1 0
0 1 0
0 1 0
0 1 0
0 1 0
0 1 0
0 1 0
0 1 0
0.896219713 1 0
0.994084036 1 0
1 1 0
1 1 0
1 1 0
1 1 0
1 1 0
1 1 0
1 1 0
1 1 0
1 1 0
1 1 0
1 1 0.400291291
1 0.995850693 0.986412644
0 1 0
0 1 0
0 1 0
0 1 0
0 1 0
0 1 0
0 1 0
0 1 0
0 1 0
