Luts/Hasselblad/Hasselblad_Standard_Phocus_X2D_VLog_Rec709_65.cube
TITLE "Hasselblad Standard Phocus X2D ColorCorrect from V-Log to Rec.709"
#LUMIXPHOTOSTYLE VLOG
# INPUT_COLORSPACE Panasonic V-Log / V-Gamut
# OUTPUT_COLORSPACE Rec.709 primaries / D65 / BT.709 OETF
LUT_3D_SIZE 65
0 0 0
0 0 0
0 0 0
0 0 0
0 0 0
0 0 0
0 0 0
0 0 0
0.00733613007 0 0.000377063059
0.0168518622 0 0.000799806632
0.0284593058 0 0.00118863525
0.0422448406 0 0.00154444549
0.0583335257 0 0.00191927256
0.0787986164 0 0.00232071242
0.103657289 0 0.00277040132
0.13102362 0 0.00325969806
0.161084955 0 0.00381348526
0.193884858 0 0.00442215099
0.229664092 0 0.00507973013
0.269076735 0 0.00579613627
0.312833896 0 0.00654981727
0.360679706 0 0.00737661594
0.412009211 0 0.00827964137
0.466554157 0 0.00932141245
0.523717992 0 0.0105382473
0.583149788 0 0.012022971
0.645818465 0 0.0138417704
0.711636947 0 0.0162784256
0.77891554 0 0.0198214109
0.844827255 0 0.0259195651
0.90793874 0 0.0352244412
0.968259398 0 0.0480942878
1 0 0.0652324606
1 0 0.0878637071
1 0 0.114476904
1 0 0.144065804
1 0 0.176478847
1 0 0.211864883
1 0 0.250256114
1 0 0.291091336
1 0 0.334151164
1 0 0.379297863
1 0 0.42613497
1 0 0.474633162
1 0 0.525794115
1 0 0.57956251
1 0 0.635069053
1 0 0.69048742
1 0 0.74436012
1 0 0.796041785
1 0 0.845075523
1 0 0.890807653
1 0 0.927992014
1 0 0.953977835
1 0 0.972678227
1 0 0.986439707
1 0 0.996765846
1 0 1
1 0 1
1 0 1
1 0 1
1 0 1
1 0 1
1 0 1
1 0 1
0 0 0
0 0 0
0 0 0
0 0 0
0 0 0
0 0 0
0 0 0
0 0 0
0.00684890303 0 0.00035795713
0.0162441394 0 0.000752535764
0.0277292745 0 0.00114239465
0.041405795 0 0.00152663424
0.0572845886 0 0.0019003543
0.077735598 0 0.00230316078
0.1025415 0 0.0027528897
0.1299716 0 0.00324006394
0.160096347 0 0.0037955671
0.192959388 0 0.00440653162
0.228801637 0 0.00506201315
0.268318012 0 0.00578057954
0.312055059 0 0.00657076058
0.359963358 0 0.00739865085
0.411355132 0 0.00830254196
0.465901513 0 0.00929875701
0.523188346 0 0.0105175204
0.582679554 0 0.0119861006
0.64539167 0 0.0138121244
0.711251281 0 0.0162316786
0.778590557 0 0.0198434626
0.844563792 0 0.0258808511
0.907716132 0 0.0351601902
0.968077486 0 0.0480172262
1 0 0.0652473425
1 0 0.0877826197
1 0 0.114395187
1 0 0.143985363
1 0 0.176419689
1 0 0.211807254
1 0 0.250199695
1 0 0.291054639
1 0 0.334114152
1 0 0.37924368
1 0 0.426098737
1 0 0.474633162
1 0 0.525758386
1 0 0.57956251
1 0 0.635051361
1 0 0.690469793
1 0 0.744342544
1 0 0.79602425
1 0 0.845058023
1 0 0.890790181
1 0 0.927974562
1 0 0.953977835
1 0 0.972678227
1 0 0.986439707
1 0 0.996765846
1 0 1
1 0 1
1 0 1
1 0 1
1 0 1
1 0 1
1 0 1
1 0 1
0 0 0
0 0 0
0 0 0
0 0 0
0 0 0
0 0 0
0 0 0
0 0 0
0.00635869097 0 0.000336798351
0.0156586986 0 0.000732639244
0.0270198867 0 0.00112400421
0.0405646881 0 0.00150485301
0.0563600447 0 0.00188241591
0.0765887131 0 0.00228467887
0.101508372 0 0.00273449708
0.129011049 0 0.00322497916
0.159190164 0 0.00377642865
0.192034005 0 0.00438637277
0.22800082 0 0.00504307059
0.267502915 0 0.00576281748
0.311297381 0 0.00655443457
0.359247653 0 0.00738034215
0.410722116 0 0.00828045763
0.465330518 0 0.0092729014
0.522656066 0 0.01048604
0.582170845 0 0.0119628767
0.644923698 0 0.0138380775
0.710824861 0 0.0161992251
0.778266051 0 0.0198004745
0.844280131 0 0.0258291112
0.907472728 0 0.035179715
0.967895465 0 0.0479587551
1 0 0.0651575176
1 0 0.0877034055
1 0 0.114336813
1 0 0.14398829
1 0 0.17642097
1 0 0.211808375
1 0 0.250142293
1 0 0.290998293
1 0 0.334114152
1 0 0.379207102
1 0 0.426098737
1 0 0.474597205
1 0 0.525722657
1 0 0.57954474
1 0 0.635051361
1 0 0.690452165
1 0 0.744324968
1 0 0.79602425
1 0 0.845040523
1 0 0.890790181
1 0 0.927974562
1 0 0.953977835
1 0 0.972678227
1 0 0.986439707
1 0 0.996765846
1 0 1
1 0 1
1 0 1
1 0 1
1 0 1
1 0 1
1 0 1
1 0 1
0 0 0
0 0 0
0 0 0
0 0 0
0 0 0
0 0 0
0 0 0
0 0 0
0.00582867625 0 0.000315952336
0.0150572001 0 0.000712951083
0.0262979732 0 0.00110217807
0.0397187638 0 0.00148565214
0.0554147985 0 0.00186284682
0.0755307064 0 0.0022654791
0.100475158 0 0.00271616045
0.128020902 0 0.00320463748
0.158201448 0 0.00375858631
0.191170217 0 0.0043697185
0.227117747 0 0.00502582768
0.266682702 0 0.00574320491
0.310523757 0 0.0065406029
0.358531934 0 0.00736205575
0.410007328 0 0.00826125634
0.46473849 0 0.00929630459
0.522085625 0 0.0104671801
0.581702379 0 0.0119861867
0.644517341 0 0.0137966609
0.710438619 0 0.0162229702
0.777900921 0 0.0197602791
0.843996468 0 0.025777414
0.907250016 0 0.0351319217
0.967693171 0 0.0479020599
1 0 0.06508681
1 0 0.0877147059
1 0 0.114341817
1 0 0.143928687
1 0 0.17636309
1 0 0.211730039
1 0 0.250143276
1 0 0.290941946
1 0 0.334058634
1 0 0.379170525
1 0 0.426044387
1 0 0.474579226
1 0 0.525704792
1 0 0.579509201
1 0 0.635015979
1 0 0.690434537
1 0 0.744307391
1 0 0.796006716
1 0 0.845040523
1 0 0.890772709
1 0 0.927974562
1 0 0.953977835
1 0 0.972678227
1 0 0.986439707
1 0 0.996765846
1 0 1
1 0 1
1 0 1
1 0 1
1 0 1
1 0 1
1 0 1
1 0 1
0 0 0
0 0 0
0 0 0
0 0 0
0 0 0
0 0 0
0 0 0
0 0 0
0.00536325849 0 0.000296382014
0.0144684937 0 0.000692066563
0.0255865311 0 0.0010824687
0.0389081708 0 0.00146826359
0.054461539 0 0.00184353964
0.0744729737 0 0.00224841941
0.0993488476 0 0.00270084431
0.126968576 0 0.00318883609
0.157282401 0 0.0037417178
0.190244754 0 0.00434963799
0.226261333 0 0.00501014873
0.265862346 0 0.00572914405
0.30974567 0 0.00651877235
0.35781631 0 0.00733710209
0.409353852 0 0.00823994249
0.464143884 0 0.00927740847
0.521575853 0 0.0104898375
0.581193662 0 0.0119629659
0.644049844 0 0.0137693227
0.710032523 0 0.0161892849
0.777575934 0 0.0197822999
0.843712805 0 0.0257257594
0.907007123 0 0.0350693743
0.967511257 0 0.0478251244
1 0 0.0650179938
1 0 0.0876354871
1 0 0.114260086
1 0 0.143848234
1 0 0.176283776
1 0 0.211672405
1 0 0.250086855
1 0 0.290886464
1 0 0.334022388
1 0 0.379170525
1 0 0.426008765
1 0 0.474543269
1 0 0.525704792
1 0 0.579491431
1 0 0.634998287
1 0 0.69041691
1 0 0.744307391
1 0 0.795989181
1 0 0.845023023
1 0 0.890772709
1 0 0.927974562
1 0 0.953977835
1 0 0.972678227
1 0 0.986439707
1 0 0.996765846
1 0 1
1 0 1
1 0 1
1 0 1
1 0 1
1 0 1
1 0 1
1 0 1
0 0 0
0 0 0
0 0 0
0 0 0
0 0 0
0 0 0
0 0 0
0 0 0
0.00489032882 0 0.000275117082
0.0139041444 0 0.000671860002
0.0248973805 0 0.00106475852
0.0380128906 0 0.00144772646
0.0534631967 0 0.00182683509
0.0733330379 0 0.00223033287
0.0983156661 0 0.00267933017
0.125978291 0 0.00316860008
0.156293613 0 0.00372394982
0.189388126 0 0.00433503626
0.225460449 0 0.00499130138
0.265123362 0 0.00574628231
0.308967451 0 0.00650305221
0.357100564 0 0.00731887091
0.408700365 0 0.00821865799
0.46355245 0 0.00925239289
0.521046283 0 0.010460323
0.580725774 0 0.0119280547
0.643622558 0 0.0137929681
0.709646754 0 0.016154385
0.777231017 0 0.0197537374
0.84342865 0 0.0257467943
0.906764127 0 0.0350232705
0.967328805 0 0.0478408297
1 0 0.0650310068
1 0 0.0875562594
1 0 0.114180016
1 0 0.143790086
1 0 0.176224608
1 0 0.211614769
1 0 0.250029449
1 0 0.290886464
1 0 0.333966868
1 0 0.379115658
1 0 0.425972531
1 0 0.474507311
1 0 0.525669062
1 0 0.579455891
1 0 0.634980596
1 0 0.69041691
1 0 0.744289815
1 0 0.795989181
1 0 0.845023023
1 0 0.890772709
1 0 0.927974562
1 0 0.953977835
1 0 0.972678227
1 0 0.986439707
1 0 0.996748428
1 0 1
1 0 1
1 0 1
1 0 1
1 0 1
1 0 1
1 0 1
1 0 1
0 0 0
0 0 0
0 0 0
0 0 0
0 0 0
0 0 0
0 0 0
0 0 0
0.00442944742 0 0.00022860324
0.0132710249 0 0.000652326685
0.0241427859 0 0.00104417937
0.0371964858 0 0.0014288924
0.0525284653 0 0.00180771196
0.0722998324 0 0.00221135282
0.0972615511 0 0.00266139387
0.124914314 0 0.00315498287
0.15536664 0 0.00370529213
0.18846261 0 0.00431503406
0.224597862 0 0.00497372569
0.264303078 0 0.00572667573
0.308168715 0 0.00648789127
0.356364335 0 0.00730128505
0.408046236 0 0.00824137924
0.462961009 0 0.00922741337
0.520516708 0 0.0104308511
0.580254876 0 0.0119494075
0.643193739 0 0.0137616351
0.709260983 0 0.0161195201
0.776865882 0 0.0197135956
0.843165184 0 0.0257081985
0.906541516 0 0.0349591792
0.96712651 0 0.0477841987
1 0 0.06496222
1 0 0.0874770228
1 0 0.114121627
1 0 0.143793016
1 0 0.176165437
1 0 0.211557131
1 0 0.249973024
1 0 0.290848897
1 0 0.333929854
1 0 0.379079762
1 0 0.425936297
1 0 0.474507311
1 0 0.525633333
1 0 0.579455891
1 0 0.634945213
1 0 0.690381654
1 0 0.744272239
1 0 0.795989181
1 0 0.845023023
1 0 0.890755237
1 0 0.927957111
1 0 0.953977835
1 0 0.972678227
1 0 0.986439707
1 0 0.996748428
1 0 1
1 0 1
1 0 1
1 0 1
1 0 1
1 0 1
1 0 1
1 0 1
0 0.0029947422 0
0 0.00233860047 0
0 0.00172544458 0
0 0.00113094899 0
0 0.000529680545 0
0 0 0
0 0 0
0 0 0
0.00398322647 0 0.000209173721
0.0127067142 0 0.000631168285
0.0234534276 0 0.00102328169
0.036401812 0 0.00140983051
0.0516189819 0 0.00178597662
0.0712552763 0 0.00219263832
0.0961245506 0 0.00264440625
0.123944597 0 0.00313458818
0.154357116 0 0.0036879053
0.187598696 0 0.00429850272
0.223714683 0 0.00495658788
0.263462242 0 0.00570757433
0.307452068 0 0.00646451888
0.355647903 0 0.00732306992
0.407392729 0 0.00822008868
0.462328116 0 0.00925230254
0.519945747 0 0.0104561482
0.579746145 0 0.0119262252
0.64274658 0 0.0137332128
0.708854404 0 0.0161444561
0.77654137 0 0.0196707428
0.842881518 0 0.0256566121
0.906298109 0 0.0349786763
0.966944595 0 0.0477073476
1 0 0.0648934648
1 0 0.0873977771
1 0 0.114039873
1 0 0.143712552
1 0 0.176168001
1 0 0.211558254
1 0 0.249915615
1 0 0.290793413
1 0 0.333929854
1 0 0.379043183
1 0 0.425936297
1 0 0.474471353
1 0 0.525615468
1 0 0.579438121
1 0 0.634945213
1 0 0.690364026
1 0 0.744254663
1 0 0.795971647
1 0 0.845005522
1 0 0.890755237
1 0 0.927957111
1 0 0.953960397
1 0 0.972678227
1 0 0.986439707
1 0 0.996748428
1 0 1
1 0 1
1 0 1
1 0 1
1 0 1
1 0 1
1 0 1
1 0 1
0 0.0131220926 0
0 0.0122082236 0
0 0.011360194 0
0 0.0104879443 0
0 0.00967554241 0
0 0.00884640102 0
0 0.00807255012 0
0 0.0073136141 0
0.00194667331 0.00612382671 0
0.0123974767 0.0049344682 0
0.0248786278 0.00380857286 0
0.0415816826 0.00209807454 0.000234775907
0.0611546037 0.000259096986 0.000690318522
0.0839813427 0 0.00134450534
0.109028773 0 0.00212269225
0.130496353 0 0.00282096079
0.154276786 0 0.0036245321
0.186673097 0 0.00427857879
0.222913713 0 0.0049378357
0.262641789 0 0.00569351618
0.306673794 0 0.00644885659
0.354932115 0 0.0073048407
0.406718771 0 0.00819953471
0.461736661 0 0.00922732738
0.519416062 0 0.010435508
0.579278245 0 0.0118913784
0.642319284 0 0.013756808
0.708468629 0 0.0161096116
0.776216377 0 0.0196927223
0.842597851 0 0.0256050684
0.906075395 0 0.0349310057
0.966742299 0 0.0476507846
1 0 0.0648228835
1 0 0.0874072072
1 0 0.114044884
1 0 0.143652932
1 0 0.176088674
1 0 0.211500614
1 0 0.249916599
1 0 0.290737062
1 0 0.3338751
1 0 0.379043183
1 0 0.425900063
1 0 0.474435395
1 0 0.525579738
1 0 0.579402581
1 0 0.634927521
1 0 0.690346399
1 0 0.744237086
1 0 0.795954113
1 0 0.844988022
1 0 0.890737765
1 0 0.927957111
1 0 0.953960397
1 0 0.972678227
1 0 0.986439707
1 0 0.996748428
1 0 1
1 0 1
1 0 1
1 0 1
1 0 1
1 0 1
1 0 1
1 0 1
0 0.0267286835 0
0 0.0255414884 0
0 0.0244290877 0
0 0.0232901959 0
0 0.0221710449 0
0 0.0211169288 0
0 0.0200335634 0
0 0.0190208818 0
0 0.0174627293 0
0.00856608939 0.0154338639 0
0.0217629424 0.0139441235 0
0.0373104258 0.0124197126 0
0.055364196 0.0108991479 0
0.0781794284 0.00899393459 0
0.108991849 0.00575680263 0
0.141594349 0.00203021842 7.96459882e-05
0.176313274 0 0.000765094257
0.210840271 0 0.00179995206
0.24798788 0 0.00325675001
0.279554213 0 0.00443100503
0.313791139 0 0.00582384762
0.354216313 0 0.00728663376
0.406065245 0 0.00817830172
0.461145096 0 0.00921041073
0.518904084 0 0.0104032424
0.578810244 0 0.0118662401
0.641851868 0 0.0137189041
0.708062523 0 0.016076047
0.77587155 0 0.0196512719
0.842314183 0 0.0255535674
0.905832498 0 0.0348686157
0.966540003 0 0.0475942511
1 0 0.0647333089
1 0 0.0873279563
1 0 0.113964793
1 0 0.143572455
1 0 0.176030779
1 0 0.211423383
1 0 0.249859187
1 0 0.290737928
1 0 0.333838085
1 0 0.378988314
1 0 0.425863828
1 0 0.474399437
1 0 0.525579738
1 0 0.579367041
1 0 0.63491024
1 0 0.690328771
1 0 0.744237086
1 0 0.795936578
1 0 0.844988022
1 0 0.890737765
1 0 0.92793966
1 0 0.953960397
1 0 0.972678227
1 0 0.986422284
1 0 0.996748428
1 0 1
1 0 1
1 0 1
1 0 1
1 0 1
1 0 1
1 0 1
1 0 1
0 0.0437756744 0
0 0.0423513774 0
0 0.040942206 0
0 0.039616611 0
0 0.0382465771 0
0 0.036891406 0
0 0.035550198 0
0 0.0342922425 0
0 0.0321635763 0
0.00155392505 0.0300153308 0
0.0167632091 0.0273846277 0
0.0329172794 0.0254844373 0
0.0514206388 0.0236229046 0
0.0750174784 0.0214206341 0
0.103812896 0.0188195171 0
0.13425192 0.0155978746 0
0.170653726 0.0103527588 0
0.209420642 0.00420363515 0
0.251827898 0 0
0.29447518 0 0.000689264264
0.339826444 0 0.00240455953
0.384582966 0 0.00429861424
0.423909144 0 0.00612224342
0.4663895 0 0.00844054077
0.518313209 0 0.0103853568
0.578301013 0 0.0118914249
0.641423012 0 0.0136876388
0.707676267 0 0.016099694
0.775526722 0 0.0196098598
0.842050321 0 0.025573065
0.905609885 0 0.0348046482
0.966357549 0 0.0476099389
1 0 0.0647481683
1 0 0.0872486963
1 0 0.113883022
1 0 0.143512826
1 0 0.175971598
1 0 0.211365738
1 0 0.249802759
1 0 0.290681576
1 0 0.333782562
1 0 0.378951735
1 0 0.425827594
1 0 0.474363478
1 0 0.525544008
1 0 0.579349271
1 0 0.634874857
1 0 0.690328771
1 0 0.74421951
1 0 0.795919044
1 0 0.844988022
1 0 0.890737765
1 0 0.92793966
1 0 0.953960397
1 0 0.972678227
1 0 0.986422284
1 0 0.996748428
1 0 1
1 0 1
1 0 1
1 0 1
1 0 1
1 0 1
1 0 1
1 0 1
0 0.0638907316 0
0 0.0622606472 0
0 0.0606370882 0
0 0.0590384603 0
0 0.0574325386 0
0 0.055866553 0
0 0.0543085367 0
0 0.0527606548 0
0 0.0502980141 0
0 0.0477814735 0
0.00855764475 0.0446910874 0
0.0266703976 0.0417955847 0
0.0459027885 0.0395033477 0
0.0698424566 0.0369822962 0
0.0998470395 0.0338907096 0
0.131745203 0.0303931534 0
0.165711232 0.0261674441 0
0.202510143 0.0203935628 0
0.246469657 0.0115887292 0
0.29277487 0.00182386557 0
0.343610454 0 0
0.393363105 0 0
0.445174226 0 0.00215717629
0.493600672 0 0.00467625627
0.536989443 0 0.00730391797
0.583190319 0 0.0108573118
0.640955011 0 0.0137134246
0.707290486 0 0.0160649048
0.775181413 0 0.0196331798
0.841746354 0 0.0255230986
0.905366885 0 0.0347587006
0.96615536 0 0.0475349529
1 0 0.0646776575
1 0 0.0871694274
1 0 0.113824613
1 0 0.143515759
1 0 0.175892257
1 0 0.211308092
1 0 0.249745344
1 0 0.290625221
1 0 0.333727039
1 0 0.378915155
1 0 0.425827594
1 0 0.474364029
1 0 0.525508775
1 0 0.579349271
1 0 0.634857165
1 0 0.690311143
1 0 0.744201934
1 0 0.795919044
1 0 0.844970522
1 0 0.890720293
1 0 0.92793966
1 0 0.953960397
1 0 0.972660798
1 0 0.986422284
1 0 0.996748428
1 0 1
1 0 1
1 0 1
1 0 1
1 0 1
1 0 1
1 0 1
1 0 1
0 0.0868651562 0
0 0.0850993042 0
0 0.0833142284 0
0 0.0815289515 0
0 0.079751076 0
0 0.0779787125 0
0 0.0762264985 0
0 0.074479261 0
0 0.0717384719 0
0 0.0687175295 0
0 0.0656683354 0
0.0172992933 0.0619139562 0
0.0384025812 0.0585570161 0
0.0632839466 0.0556267637 0
0.094013688 0.052318586 0
0.127753772 0.0480756737 0
0.162671079 0.0434777813 0
0.199974368 0.0378779767 0
0.239452953 0.0308468548 0
0.287324905 0.0195734494 0
0.338954776 0.00651801907 0
0.394494505 0 0
0.449306982 0 0
0.503992745 0 0
0.560586167 0 0.00325852971
0.605695871 0 0.00645055136
0.653923926 0 0.0106636027
0.706864139 0 0.0160209671
0.774836582 0 0.0195917948
0.841462585 0 0.0254861522
0.905143759 0 0.0347765479
0.965973335 0 0.0474767411
1 0 0.0646090355
1 0 0.0870901494
1 0 0.113742827
1 0 0.143436738
1 0 0.175894825
1 0 0.211308092
1 0 0.249688912
1 0 0.290588518
1 0 0.333727806
1 0 0.378879258
1 0 0.425791359
1 0 0.47432807
1 0 0.525490909
1 0 0.579313731
1 0 0.634857165
1 0 0.690293891
1 0 0.744184357
1 0 0.795919044
1 0 0.844953022
1 0 0.890702821
1 0 0.92793966
1 0 0.953960397
1 0 0.972660798
1 0 0.986422284
1 0 0.996748428
1 0 1
1 0 1
1 0 1
1 0 1
1 0 1
1 0 1
1 0 1
1 0 1
0 0.112670133 0
0 0.11101143 0
0 0.109281434 0
0 0.107603708 0
0 0.105925827 0
0 0.104247792 0
0 0.102552117 0
0 0.100856281 0
0 0.0984219903 0
0 0.0947854647 0
0 0.0918612792 0
0.00392799907 0.0882201123 0
0.0264806486 0.0841469575 0
0.0535132389 0.0799774427 0
0.0859214181 0.0760544492 0
0.121088438 0.0717035495 0
0.158013751 0.0661670844 0
0.196286308 0.0600449639 0
0.237398073 0.0526510528 0
0.280885202 0.043733214 0
0.33239369 0.0298646267 0
0.389119933 0.0124362721 0
0.447767536 0 0
0.507457927 0 0
0.564588962 0 0
0.623807156 0 0.00098525211
0.676710958 0 0.00540232266
0.726715168 0 0.0106943139
0.77876529 0 0.0181704661
0.841118022 0 0.025439255
0.904880576 0 0.0347159016
0.965750765 0 0.0474220431
1 0 0.0645423015
1 0 0.0871033697
1 0 0.113749517
1 0 0.143377101
1 0 0.175835637
1 0 0.211250442
1 0 0.249632479
1 0 0.290532162
1 0 0.33369079
1 0 0.378824387
1 0 0.425755735
1 0 0.474292111
1 0 0.525455179
1 0 0.579295961
1 0 0.634839474
1 0 0.690258635
1 0 0.744166781
1 0 0.795901509
1 0 0.844953022
1 0 0.890702821
1 0 0.92793966
1 0 0.953960397
1 0 0.972660798
