Luts/Hasselblad/Hasselblad_Standard_Phocus_X2D_VLog_sRGB_65.cube
TITLE "Hasselblad Standard Phocus X2D ColorCorrect from V-Log to sRGB"
#LUMIXPHOTOSTYLE VLOG
# INPUT_COLORSPACE Panasonic V-Log / V-Gamut
# OUTPUT_COLORSPACE sRGB primaries / D65 / sRGB transfer function
LUT_3D_SIZE 5
0 0 0
0.223023648 0 0.0109489399
1 0 0.125762003
1 0 0.770692081
1 0 1
0 0.265916655 0
0.186751778 0.225246641 0
1 0 0.123826263
1 0 0.770469089
1 0 1
0 0.957659723 0
0 0.955898608 0
0.872146911 0.908882594 0
1 0 0.747327475
1 0 1
0 1 0
0 1 0
0 1 0
1 1 0
1 0 1
0 1 0
0 1 0
0 1 0
0.957690219 1 0
1 1 0
0 0 0
0.120310442 0 0.150084425
1 0 0.266718498
1 0 0.770453161
1 0 1
0 0.205325688 0.119576128
0.156723073 0.156890355 0.157722778
1 0 0.252552837
1 0 0.770230161
1 0 1
0 0.955837347 0
0 0.954244437 0
0.86985855 0.906107526 0
1 0 0.748798666
1 0 1
0 1 0
0 1 0
0 1 0
1 1 0
1 0 1
0 1 0
0 1 0
0 1 0
0.957140681 1 0
1 1 0
0 0 0
0 0 0
0.757025926 0 0.814000424
1 0 0.968051439
1 0 1
0 0 0
0 0 0
0.753728862 0 0.811377591
1 0 0.967476865
1 0 1
0 0.895482173 0.737206126
0 0.89155291 0.740296773
0.806298442 0.806861676 0.808743698
1 0 0.961774574
1 0 1
0 1 0
0 1 0
0 1 0
1 1 0
1 0 1
0 1 0
0 1 0
0 1 0
0.952853195 1 0
1 1 0
0 0 0
0 0 0
0 0 0
1 0 1
1 0 1
0 0 0
0 0 0
0 0 0
1 0 1
1 0 1
0 0 0
0 0 0
0 0 0
1 0 1
1 0 1
0 1 0.998978229
0 1 0.998994205
0 1 0.999045504
0.994188111 0.994311167 0.994197999
1 0 1
0 1 0
0 1 0
0 1 0
0 1 0
1 1 0
0 0 0
0 0 0
0 0 0
0 0 0
1 0 1
0 0 0
0 0 0
0 0 0
0 0 0
1 0 1
0 0 0
0 0 0
0 0 0
0 0 0
1 0 1
0 0 0
0 0 0
0 0 0
0 0 0
1 0 1
0 1 1
0 1 1
0 1 1
0 1 1
0.999457847 0.999579675 0.999416736
