Luts/Hasselblad/Hasselblad_Nature_Phocus_X2D_VLog_sRGB_65.cube
TITLE "Hasselblad Nature Phocus X2D ColorCorrect from V-Log to sRGB"
#LUMIXPHOTOSTYLE VLOG
# INPUT_COLORSPACE Panasonic V-Log / V-Gamut
# OUTPUT_COLORSPACE sRGB primaries / D65 / sRGB transfer function
LUT_3D_SIZE 5
0 0 0
0.161922188 0 0.00128291763
1 0 0.0195924334
1 0 0.813238295
1 0 1
0 0.218182447 0
0.133531662 0.175677878 0
1 0 0.0165070021
1 0 0.812985008
1 0 1
0 0.98751054 0
0 0.986212324 0
0.915480984 0.943609553 0
1 0 0.787735148
1 0 1
0 1 0
0 1 0
0 1 0
1 1 0
1 0 1
0 1 0
0 1 0
0 1 0
0.987888256 1 0
1 1 0
0 0 0
0.0647815532 0 0.0975760752
1 0 0.212120873
1 0 0.812969177
1 0 1
0 0.15330206 0.0686639578
0.105505651 0.105669251 0.106492907
1 0 0.195170053
1 0 0.812731712
1 0 1
0 0.986166501 0
0 0.984990338 0
0.913331447 0.941365792 0
1 0 0.789355884
1 0 1
0 1 0
0 1 0
0 1 0
1 1 0
1 0 1
0 1 0
0 1 0
0 1 0
0.987550222 1 0
1 1 0
0 0 0
0 0 0
0.786267161 0 0.858091946
1 0 0.995020148
1 0 1
0 0 0
0 0 0
0.782378069 0 0.855376725
1 0 0.994617546
1 0 1
0 0.93607543 0.777431096
0 0.932574627 0.780713021
0.849250568 0.849817322 0.851700335
1 0 0.990574639
1 0 1
0 1 0
0 1 0
0 1 0
1 1 0
1 0 1
0 1 0
0 1 0
0 1 0
0.984843846 1 0
1 1 0
0 0 0
0 0 0
0 0 0
1 0 1
1 0 1
0 0 0
0 0 0
0 0 0
1 0 1
1 0 1
0 0 0
0 0 0
0 0 0
1 0 1
1 0 1
0 1 1
0 1 1
0 1 1
0.997258933 0.997381119 0.997234835
1 0 1
0 1 0
0 1 0
0 1 0
0 1 0
1 1 0
0 0 0
0 0 0
0 0 0
0 0 0
1 0 1
0 0 0
0 0 0
0 0 0
0 0 0
1 0 1
0 0 0
0 0 0
0 0 0
0 0 0
1 0 1
0 0 0
0 0 0
0 0 0
0 0 0
1 0 1
0 1 1
0 1 1
0 1 1
0 1 1
0.999708609 0.999830467 0.999667489
