Luts/Hasselblad/Hasselblad_Nature_Phocus_X2D_VLog.cube
TITLE "Hasselblad Nature Phocus X2D ColorCorrect from V-Log"
#LUMIXPHOTOSTYLE VLOG
# INPUT_COLORSPACE Panasonic V-Log / V-Gamut
# OUTPUT_COLORSPACE Hasselblad RGB / D50 / Phocus film-curve code values
LUT_3D_SIZE 33
0 0 0
0 0 0
0 0 0
0 0 0
0.0237735561 0.00407415885 0.00694285496
0.0497749294 0.00694285496 0.0124666209
0.0748302434 0.00880445563 0.0163271534
0.1054551 0.0103761349 0.0203097581
0.145998322 0.0120088502 0.0249179828
0.198428321 0.0133669032 0.0303196765
0.266514076 0.0142214084 0.0366826886
0.352285039 0.0139009689 0.0443732357
0.452475776 0.0113984894 0.05366598
0.563439384 0 0.0650492103
0.682597086 0 0.080155642
0.792065309 0 0.102876326
0.881925689 0 0.133623255
0.943022812 0 0.173510338
0.969817655 0 0.224628061
0.982406348 0 0.290455482
0.989028763 0 0.370901045
0.99282826 0 0.463584344
0.995147631 0 0.566369116
0.996627756 0 0.678324559
0.997619593 0 0.785412375
0.99829099 0 0.875333791
0.998779278 0 0.939055467
0.999099718 0 0.967895018
0.999343862 0 0.981383993
0.99952697 0 0.988433661
0.999649042 0 0.992462043
0.999740597 0 0.994903487
0.999801633 0 0.996475166
0 0 0
0 0 0
0 0 0
0 0 0
0.0220340276 0.00372320134 0.00654612039
0.0483558404 0.00674448768 0.0121309224
0.0733653773 0.00865186542 0.0161287861
0.104005493 0.0103761349 0.0201571679
0.144609751 0.0120088502 0.0247653925
0.197116045 0.0133669032 0.0301670863
0.265232319 0.0142214084 0.0366216526
0.351155871 0.0139009689 0.0442969406
0.451514458 0.0115205615 0.0535439078
0.562615396 0 0.0649881743
0.682032502 0 0.0800946059
0.791683833 0 0.102800031
0.881681544 0 0.13354696
0.942946517 0 0.173403525
0.969802396 0 0.224582284
0.982406348 0 0.290348669
0.989028763 0 0.370870527
0.99282826 0 0.463553826
0.995147631 0 0.566292821
0.996627756 0 0.6783093
0.997619593 0 0.785366598
0.99829099 0 0.875303273
0.998779278 0 0.939055467
0.999099718 0 0.967895018
0.999343862 0 0.981383993
0.99952697 0 0.988433661
0.999649042 0 0.992462043
0.999740597 0 0.994903487
0.999801633 0 0.996475166
0 0 0
0 0 0
0 0 0
0 0 0
0.0201571679 0.00335698482 0.0061341268
0.0469062333 0.00674448768 0.0118867781
0.0719462882 0.00865186542 0.0159456779
0.102555886 0.0102388037 0.0199893187
0.143205921 0.0118867781 0.0246128023
0.195727474 0.01326009 0.0300297551
0.263920043 0.0141145953 0.0364843214
0.349935149 0.0139009689 0.0441748684
0.450522621 0.0115205615 0.0534828717
0.561821927 0 0.0648661021
0.681422141 0 0.0800183108
0.791302358 0 0.102677958
0.881467918 0 0.133424887
0.942870222 0 0.173342489
0.969771878 0 0.224460212
0.98237583 0 0.290287633
0.989013504 0 0.370778973
0.992813001 0 0.463447013
0.995147631 0 0.566277562
0.996627756 0 0.678248264
0.997619593 0 0.785351339
0.99829099 0 0.875288014
0.998779278 0 0.939055467
0.999099718 0 0.967895018
0.999343862 0 0.981383993
0.99952697 0 0.988433661
0.999649042 0 0.992462043
0.999740597 0 0.994903487
0.999801633 0 0.996475166
0 0 0
0 0 0
0 0 0
0 0 0
0.0182497902 0.00335698482 0.00544747082
0.0454108492 0.00654612039 0.0116426337
0.0704661631 0.0084992752 0.0157473106
0.101167315 0.0102388037 0.0198062104
0.14181735 0.0118867781 0.0244602121
0.194430457 0.01326009 0.0298924239
0.262592508 0.0141145953 0.0363622492
0.348790723 0.0139009689 0.0440985733
0.449561303 0.0115205615 0.0533455406
0.561043717 0.00175478752 0.064805066
0.68081178 0 0.0799114977
0.790920882 0 0.102555886
0.881254292 0 0.133363851
0.942778668 0 0.173220417
0.96974136 0 0.224353399
0.98237583 0 0.290196078
0.989013504 0 0.370687419
0.992813001 0 0.463385977
0.995147631 0 0.566201266
0.996627756 0 0.678202487
0.997619593 0 0.785320821
0.99829099 0 0.875288014
0.998779278 0 0.939040208
0.999099718 0 0.967895018
0.999343862 0 0.981368734
0.99952697 0 0.988433661
0.999649042 0 0.992462043
0.999740597 0 0.994903487
0.999801633 0 0.996475166
0.00712596323 0.0394293126 0.00242618448
0.00674448768 0.0364232853 0.00242618448
0.00634775311 0.0333714809 0.00242618448
0.00590524147 0.0302433814 0.00242618448
0.0190432593 0.026489662 0.00674448768
0.0482185092 0.0231479362 0.00694285496
0.0775310903 0.0172579538 0.0124666209
0.109117266 0.0112764172 0.0186923018
0.141008621 0.0118867781 0.0242313268
0.193102922 0.01326009 0.0297550927
0.261341268 0.0141145953 0.036224918
0.347615778 0.0139009689 0.0439765011
0.448569467 0.0115205615 0.0532845045
0.560250248 0.00175478752 0.0647440299
0.680231937 0 0.0798352026
0.790539406 0 0.10249485
0.881040665 0 0.133257038
0.942702373 0 0.17315938
0.969710842 0 0.224292363
0.982360571 0 0.290135042
0.989013504 0 0.370626383
0.992813001 0 0.4633402
0.995147631 0 0.56614023
0.996627756 0 0.678187228
0.997619593 0 0.785290303
0.99829099 0 0.875257496
0.998779278 0 0.939040208
0.999099718 0 0.967895018
0.999343862 0 0.981368734
0.99952697 0 0.988433661
0.999649042 0 0.992462043
0.999740597 0 0.994903487
0.999801633 0 0.996475166
0.0102388037 0.0779125658 0
0.0101014725 0.0749523156 0
0.0099641413 0.0720836194 0
0.0098268101 0.0691081102 0
0.0193026627 0.0654459449 0.00833142596
0.0509498741 0.0609903105 0.0124666209
0.0782330053 0.0580148013 0.0122529946
0.111360342 0.0545815213 0.00910963607
0.156542306 0.0480201419 0.01326009
0.21762417 0.0364843214 0.0204928664
0.289768826 0.022995346 0.0308690013
0.362829023 0.0150453956 0.0417486839
0.44757763 0.0116426337 0.0531624323
0.55944152 0.00242618448 0.0646066987
0.679621576 0 0.0797131304
0.79017319 0 0.102357519
0.88081178 0 0.133180743
0.942626078 0 0.173037308
0.969680323 0 0.224200809
0.982360571 0 0.290028229
0.989013504 0 0.370534829
0.992813001 0 0.463263905
0.995147631 0 0.566109712
0.996627756 0 0.678126192
0.997619593 0 0.785275044
0.99829099 0 0.875257496
0.998779278 0 0.939024949
0.999099718 0 0.967895018
0.999343862 0 0.981368734
0.99952697 0 0.988433661
0.999649042 0 0.992462043
0.999740597 0 0.994903487
0.999801633 0 0.996475166
0.0116426337 0.116258488 0
0.0115205615 0.113374533 0
0.0115205615 0.110490578 0
0.0113984894 0.107591363 0
0.0182497902 0.103944457 0.00494392309
0.0498359655 0.0995803769 0.0125886931
0.0804150454 0.0946364538 0.0150453956
0.11387808 0.0909437705 0.0142214084
0.157610437 0.0859693294 0.0112764172
0.213290608 0.0790722515 0.00833142596
0.292347601 0.063447013 0.0176241703
0.386694133 0.0422064546 0.0291752499
0.485969329 0.0149538415 0.0460669871
0.570778973 0.0046692607 0.0618905928
0.679026474 0 0.0796520943
0.789791714 0 0.102311742
0.880598154 0 0.133058671
0.942534524 0 0.172930495
0.969649805 0 0.224124514
0.982345312 0 0.289921416
0.988998245 0 0.370489052
0.992813001 0 0.463233387
0.995132372 0 0.566048676
0.996627756 0 0.678110933
0.997619593 0 0.785244526
0.99829099 0 0.875226978
0.998779278 0 0.939024949
0.999099718 0 0.967879759
0.999343862 0 0.981368734
0.99952697 0 0.988433661
0.999649042 0 0.992462043
0.999740597 0 0.994903487
0.999801633 0 0.996475166
0.0116426337 0.162264439 0
0.0117647059 0.159456779 0
0.0117647059 0.156649119 0
0.0117647059 0.153902495 0
0.0151522087 0.150774395 0
0.0485389487 0.145876249 0.0101014725
0.0791332876 0.141069657 0.0141145953
0.116136416 0.135332265 0.0162355993
0.160189212 0.130235752 0.0145418479
0.216739147 0.123170825 0.0106507973
0.28908217 0.113817044 0
0.384969863 0.0931105516 0.0127107652
0.494087129 0.0619516289 0.0275120165
0.604043641 0.0270084688 0.0489356832
0.7004654 0 0.0730907149
0.789303426 0 0.102174411
0.880323491 0 0.132936599
0.94242771 0 0.172823682
0.969619287 0 0.224032959
0.982345312 0 0.289814603
0.988998245 0 0.370397498
0.992813001 0 0.463157092
0.995132372 0 0.565972381
0.996627756 0 0.678065156
0.997619593 0 0.785214008
0.99829099 0 0.875211719
0.998779278 0 0.939009689
0.999099718 0 0.967879759
0.999343862 0 0.981368734
0.99952697 0 0.988433661
0.999649042 0 0.992462043
0.999740597 0 0.994903487
0.999801633 0 0.996475166
0.0096894789 0.221332113 0
0.0098268101 0.218692302 0
0.0099641413 0.216052491 0
0.0101014725 0.213351644 0
0.0102388037 0.210696574 0
0.0462653544 0.204959182 0.0029297322
0.0755474174 0.201159686 0.00910963607
0.114061189 0.195056077 0.0133669032
0.16255436 0.187685969 0.0156404974
0.219424735 0.180743114 0.0123598077
0.29282063 0.171053635 0.00407415885
0.381841764 0.158556497 0
0.489005875 0.132005798 0
0.609857328 0.0894178683 0.0247653925
0.724238956 0.0421301595 0.0534218357
0.813504234 0 0.0910811017
0.880598154 0 0.132326238
0.942290379 0 0.172686351
0.969588769 0 0.22386511
0.982314794 0 0.289723049
0.988998245 0 0.370260166
0.992813001 0 0.463035019
0.995132372 0 0.565926604
0.996627756 0 0.677988861
0.997619593 0 0.785168231
0.99829099 0 0.875181201
0.998779278 0 0.93899443
0.999099718 0 0.967879759
0.999343862 0 0.981368734
0.99952697 0 0.988433661
0.999649042 0 0.992462043
0.999740597 0 0.994903487
0.999801633 0 0.996475166
0 0.297550927 0
0 0.295033188 0
0 0.292561227 0
0 0.290028229 0
0 0.287510491 0
0.0414129854 0.28128481 0
0.0707255665 0.277759976 0
0.107545586 0.27269398 0
0.159044785 0.264301518 0.00865186542
0.221499962 0.254535744 0.0117647059
0.295246815 0.245136187 0.0029297322
0.384969863 0.231937133 0
0.485969329 0.215381094 0
0.601571679 0.18300145 0
0.726085298 0.129121843 0.0249179828
0.828351263 0.0648661021 0.0626688029
0.901853971 0 0.11544976
0.943877317 0 0.169344625
0.969527733 0 0.223620966
0.982299535 0 0.289509422
0.988982986 0 0.370061799
0.992797742 0 0.462882429
0.995132372 0 0.565789273
0.996627756 0 0.677897307
0.997619593 0 0.785107195
0.99829099 0 0.875150683
0.998779278 0 0.93899443
0.999099718 0 0.9678645
0.999343862 0 0.981368734
0.99952697 0 0.988433661
0.999649042 0 0.992462043
0.999740597 0 0.994903487
0.999801633 0 0.996475166
0 0.38970016 0
0 0.387548638 0
0 0.385381857 0
0 0.383199817 0
0 0.381017777 0
0.0310826276 0.375722896 0
0.0635080491 0.37114519 0
0.099656672 0.367284657 0
0.149019608 0.360860609 0
0.21622034 0.350316625 0
0.296696422 0.338231479 0
0.386327916 0.326298924 0
0.487510491 0.309590295 0
0.597924773 0.288670176 0
0.717097734 0.249591821 0
0.828534371 0.181338216 0.0267795834
0.910276951 0.0950179294 0.0753490501
0.953521019 0 0.147447929
0.97067216 0 0.216830701
0.982269017 0 0.289250019
0.988967727 0 0.369878691
0.992797742 0 0.462729839
0.995132372 0 0.565621424
0.996627756 0 0.677790494
0.997619593 0 0.7850309
0.99829099 0 0.875104906
0.998779278 0 0.938963912
0.999099718 0 0.9678645
0.999343862 0 0.981368734
0.99952697 0 0.988433661
0.999649042 0 0.992446784
0.999740597 0 0.994903487
0.999801633 0 0.996475166
0 0.492454414 0
0 0.490760662 0
0 0.489036393 0
0 0.487281605 0
0 0.485572595 0
0.0125886931 0.482093538 0
0.0526436255 0.476783398 0
0.0903791867 0.472907607 0
0.139070726 0.468207828 0
0.203219654 0.460715648 0
0.289875639 0.448569467 0
0.387182422 0.434927901 0
0.487937743 0.421332113 0
0.598916609 0.40218204 0
0.714686809 0.377828641 0
0.821011673 0.333257038 0
0.909636072 0.247669184 0.0291752499
0.956237125 0.134706645 0.0924696727
0.974929427 0 0.188738842
0.983016709 0 0.278278782
0.988952468 0 0.369558251
0.992797742 0 0.462455177
0.995132372 0 0.565438315
0.996627756 0 0.677607385
0.997619593 0 0.784924086
0.99829099 0 0.87504387
0.998779278 0 0.938948653
0.999099718 0 0.9678645
0.999343862 0 0.981368734
0.99952697 0 0.988433661
0.999649042 0 0.992446784
0.999740597 0 0.994903487
0.999801633 0 0.996475166
0 0.603830014 0
0 0.602441444 0
0 0.601052873 0
0 0.599633783 0
0 0.598245212 0
0 0.596551461 0
0.0375677119 0.591653315 0
0.0795910582 0.586968795 0
0.128557259 0.583093004 0
0.191485466 0.577737087 0
0.273670558 0.569451438 0
0.379430838 0.556084535 0
0.488868544 0.541145953 0
0.59937438 0.526298924 0
0.71560235 0.50530251 0
0.81965362 0.478660258 0
0.904081788 0.430487526 0
0.955779355 0.330876631 0.032059205
0.975906004 0.185610742 0.115373465
0.985152972 0 0.241870756
0.989440757 0 0.354406043
0.992782483 0 0.462104219
0.995117113 0 0.565148394
0.996612497 0 0.677393759
0.997619593 0 0.784786755
0.99829099 0 0.874967575
0.998779278 0 0.938918135
0.999099718 0 0.967849241
0.999343862 0 0.981368734
0.99952697 0 0.988433661
0.999649042 0 0.992446784
0.999740597 0 0.994903487
0.999801633 0 0.996475166
0 0.719981689 0
0 0.718989853 0
0 0.717967498 0
0 0.716975662 0
0 0.715922789 0
0 0.714915694 0
0.0107728695 0.712230106 0
0.06131075 0.70795758 0
0.115007248 0.703852903 0
0.177706569 0.700175479 0
0.258381018 0.69469749 0
0.360296025 0.686243992 0
0.4805066 0.67254139 0
0.600350958 0.657053483 0
0.716014343 0.641260395 0
0.820401312 0.618509194 0
0.90342565 0.589135576 0
0.953414206 0.537315938 0
0.975600824 0.427862974 0.0358129244
0.985549706 0.250476844 0.145632105
0.990615702 0 0.309803922
0.993102922 0 0.443244068
0.995117113 0 0.564782177
0.996612497 0 0.677134356
0.997619593 0 0.784588388
0.99829099 0 0.874845502
0.998779278 0 0.938872358
0.999099718 0 0.967833982
0.999343862 0 0.981353475
0.99952697 0 0.988418402
0.999649042 0 0.992446784
0.999740597 0 0.994903487
0.999801633 0 0.996475166
0 0.823849851 0
0 0.82323949 0
0 0.822598611 0
0 0.821957733 0
0 0.821347372 0
0 0.820706493 0
0 0.819943542 0
0.0321965362 0.817196918 0
0.0919050889 0.813794156 0
0.160952163 0.810513466 0
0.240390631 0.807476921 0
0.341863127 0.802731365 0
0.459372854 0.795437552 0
0.591271839 0.783428702 0
0.716975662 0.76974136 0
0.82075227 0.755443656 0
0.903990234 0.734370947 0
0.953231098 0.706019684 0
0.974517433 0.653772793 0
0.985381857 0.534523537 0.0407568475
0.990814069 0.332021057 0.184740978
0.993789578 0.0145418479 0.390508888
0.995330739 0 0.542351415
0.996612497 0 0.676737621
0.997619593 0 0.784328985
0.99829099 0 0.874692912
0.998764019 0 0.938811322
0.999099718 0 0.967803464
0.999343862 0 0.981338216
0.99952697 0 0.988418402
0.999649042 0 0.992446784
0.999740597 0 0.994903487
0.999801633 0 0.996475166
0 0.906431678 0
0 0.90608072 0
0 0.905729763 0
0 0.905378805 0
0 0.905027848 0
0 0.904692149 0
0 0.904341192 0
0 0.903456168 0
0.0545204852 0.901396201 0
0.132005798 0.898924239 0
0.218921187 0.896604868 0
0.319722286 0.894300755 0
0.438635843 0.890623331 0
0.568047608 0.884977493 0
0.708186465 0.875654231 0
0.821560998 0.864820325 0
0.904234379 0.853330282 0
0.953475242 0.836102846 0
0.974471656 0.812359808 0
0.984802014 0.767284657 0
0.990707256 0.650751507 0.0471046006
0.99391165 0.427237354 0.235126268
0.995757992 0.0322728313 0.482734417
0.996765087 0 0.652002747
0.997619593 0 0.783993286
0.99829099 0 0.874494545
0.998764019 0 0.938719768
0.999099718 0 0.967788205
0.999343862 0 0.981338216
0.99952697 0 0.988418402
0.999649042 0 0.992446784
0.999740597 0 0.994903487
0.999801633 0 0.996475166
0 0.954467079 0
0 0.954375525 0
0 0.954253452 0
0 0.954146639 0
0 0.954039826 0
0 0.953933013 0
0 0.9538262 0
0 0.95367361 0
0 0.953170062 0
0.0836804761 0.952285039 0
0.183535515 0.951232166 0
0.29297322 0.95024033 0
0.41326009 0.949187457 0
0.545006485 0.947447929 0
0.684931716 0.944716564 0
0.814221408 0.939971008 0
0.904844739 0.934035248 0
0.953582055 0.927168688 0
0.97457847 0.915587091 0
0.984802014 0.897947662 0
0.990371557 0.863157092 0
0.993820096 0.764492256 0.0556191348
0.995834287 0.532387274 0.300099184
0.99703975 0.0520485237 0.585503929
0.997711147 0 0.760875868
0.99829099 0 0.874219883
0.998764019 0 0.938612955
0.999099718 0 0.967742428
0.999343862 0 0.981322957
0.99952697 0 0.988418402
0.999649042 0 0.992446784
0.999740597 0 0.994903487
0.999801633 0 0.996475166
0 0.97503624 0
0 0.974990463 0
0 0.974959945 0
0 0.974929427 0
0 0.97488365 0
0 0.974853132 0
0 0.974807355 0
0 0.974761578 0
0 0.974700542 0
0 0.974425879 0
0.122224765 0.974013886 0
0.248996719 0.973540856 0
0.382391089 0.973113603 0
0.517021439 0.972640574 0
0.660929274 0.971862364 0
0.79438468 0.970626383 0
0.899351492 0.968535897 0
0.953841459 0.965972381 0
0.974639506 0.963057908 0
0.98486305 0.958312352 0
0.990371557 0.950835431 0
0.993636988 0.933211261 0
0.99578851 0.860898756 0.0670634012
0.997085527 0.647470817 0.379156176
0.997894255 0.0780956741 0.696269169
0.998367285 0 0.855100328
0.998764019 0 0.938475624
0.999099718 0 0.96771191
0.999343862 0 0.981307698
0.99952697 0 0.988403143
0.999649042 0 0.992446784
0.999740597 0 0.994903487
0.999801633 0 0.996475166
0 0.985091936 0
0 0.985076677 0
0 0.985061418 0
0 0.985046159 0
0 0.9850309 0
0 0.98501564 0
0 0.985000381 0
0 0.984969863 0
0 0.984954604 0
0 0.984924086 0
0.0267185473 0.984756237 0
0.171984436 0.98455787 0
0.331334401 0.984313725 0
0.483207446 0.984100099 0
0.630930037 0.983855955 0
0.773098344 0.98345922 0
0.884214542 0.9828336 0
0.951461051 0.981780728 0
0.974761578 0.980514229 0
0.984893568 0.979110399 0
0.990402075 0.976836805 0
0.993636988 0.973373007 0
0.995651179 0.965667201 0
0.997055009 0.931868467 0.0823376822
0.997924773 0.760906386 0.470191501
0.998489357 0.112626841 0.800061036
0.998809796 0 0.927031357
0.999099718 0 0.967635615
0.999343862 0 0.98127718
0.99952697 0 0.988403143
0.999649042 0 0.992446784
0.999740597 0 0.994903487
0.999801633 0 0.996475166
0 0.990539406 0
0 0.990539406 0
0 0.990524147 0
0 0.990508888 0
0 0.990508888 0
0 0.990508888 0
0 0.990493629 0
0 0.990493629 0
0 0.99047837 0
0 0.990463111 0
0 0.990447852 0
0.048081178 0.990356298 0
0.235126268 0.990234226 0
0.427374685 0.990096895 0
0.593835355 0.989974823 0
0.745693141 0.98985275 0
0.867429618 0.989623865 0
0.944365606 0.989272908 0
0.973662928 0.988693065 0
0.984954604 0.988006409 0
0.990432593 0.987243458 0
0.993652247 0.986037995 0
0.995651179 0.98423743 0
0.996978714 0.980392157 0
0.997909514 0.965087358 0.102754253
0.998504616 0.857648585 0.571572442
0.99890135 0.157610437 0.886243992
0.999145495 0 0.962615396
0.999343862 0 0.981246662
0.99952697 0 0.988372625
0.999649042 0 0.992431525
0.999740597 0 0.994903487
0.999801633 0 0.996475166
0 0.993728542 0
0 0.993728542 0
0 0.993728542 0
0 0.993728542 0
0 0.993713283 0
0 0.993713283 0
0 0.993713283 0
0 0.993713283 0
0 0.993698024 0
0 0.993698024 0
0 0.993698024 0
0 0.993667506 0
0.0755474174 0.993621729 0
0.315098802 0.993545434 0
0.533180743 0.993469139 0
0.710414282 0.993392844 0
0.845258259 0.993316548 0
0.935484855 0.993179217 0
0.970473793 0.99298085 0
0.984390021 0.992629892 0
0.990463111 0.992217899 0
0.993667506 0.991775387 0
0.995666438 0.991073472 0
0.996978714 0.990051118 0
0.997848478 0.987945373 0
0.998489357 0.980102235 0.129732204
0.998916609 0.929747463 0.682032502
0.999206531 0.214862287 0.944487678
0.99937438 0 0.978744182
0.99952697 0 0.988357366
0.999649042 0 0.992431525
0.999740597 0 0.994903487
0.999801633 0 0.996475166
0 0.995712215 0
0 0.995712215 0
0 0.995712215 0
0 0.995712215 0
0 0.995712215 0
0 0.995712215 0
0 0.995712215 0
0 0.995712215 0
0 0.995712215 0
0 0.995696956 0
0 0.995696956 0
0 0.995696956 0
0 0.995681697 0
0.111924926 0.995651179 0
0.409567407 0.995605402 0
0.648462654 0.995544366 0
0.815899901 0.995498589 0
0.921873808 0.995452811 0
0.966582742 0.995376516 0
0.982757305 0.995239185 0
0.990142672 0.995025559 0
0.993682765 0.994766155 0
0.995681697 0.994491493 0
0.996978714 0.99406424 0
0.997848478 0.993438621 0
0.998458839 0.992187381 0
0.998916609 0.987792782 0.164919509
0.99922179 0.964141299 0.787563897
0.999420157 0.287937743 0.970229648
0.999542229 0 0.986999313
0.999649042 0 0.992416266
0.999740597 0 0.994888228
0.999801633 0 0.996459907
0 0.997009232 0
0 0.997009232 0
0 0.997009232 0
0 0.997009232 0
0 0.997009232 0
0 0.997009232 0
0 0.997009232 0
0 0.997009232 0
0 0.997009232 0
0 0.996993973 0
0 0.996993973 0
0 0.996993973 0
0 0.996993973 0
0 0.996978714 0
0.159227893 0.996963455 0
0.514259556 0.996932937 0
0.761898222 0.996902419 0
0.900526436 0.996871901 0
0.96084535 0.996841382 0
0.980819409 0.996780346 0
0.98924239 0.996688792 0
0.993499657 0.996551461 0
0.995681697 0.996383612 0
0.996978714 0.996215763 0
0.997863737 0.995925841 0
0.998458839 0.995529107 0
0.998886091 0.994750896 0
0.999206531 0.992095827 0.210131991
0.999420157 0.979629206 0.876386664
0.999572747 0.37659266 0.98252842
0.999664302 0 0.991607538
0.999740597 0 0.994888228
0.999801633 0 0.996459907
0 0.997878996 0
0 0.997878996 0
0 0.997878996 0
0 0.997878996 0
0 0.997878996 0
0 0.997878996 0
0 0.997878996 0
0 0.997878996 0
0 0.997878996 0
0 0.997878996 0
0 0.997878996 0
0 0.997878996 0
0 0.997878996 0
0 0.997863737 0
0 0.997863737 0
0.219134813 0.997848478 0
0.628976883 0.997833219 0
0.858472572 0.997802701 0
0.951934081 0.997787442 0
0.978027008 0.997756924 0
0.988174258 0.997726406 0
0.992950332 0.99766537 0
0.995559625 0.997573816 0
0.996993973 0.997451743 0
0.997863737 0.997329671 0
0.998458839 0.997161822 0
0.998886091 0.99688716 0
0.999191272 0.996368353 0
0.999420157 0.99468986 0.26863508
0.999572747 0.98751812 0.939375906
0.99969482 0.477012284 0.989059281
0.999755856 0 0.994369421
0.999801633 0 0.996459907
0 0.998474098 0
0 0.998474098 0
0 0.998474098 0
0 0.998474098 0
0 0.998474098 0
0 0.998474098 0
0 0.998474098 0
0 0.998474098 0
0 0.998474098 0
0 0.998474098 0
0 0.998474098 0
0 0.998474098 0
0 0.998474098 0
0 0.998474098 0
0 0.998474098 0
0 0.998474098 0
0.295551995 0.998458839 0
0.74462501 0.99844358 0
0.930296788 0.998428321 0
0.973876555 0.998413062 0
0.986663615 0.998397803 0
0.992309453 0.998367285 0
0.995223926 0.998321508 0
0.996917678 0.998260472 0
0.997863737 0.998184176 0
0.998474098 0.998107881 0
0.998886091 0.99797055 0
0.999191272 0.997787442 0
0.999404898 0.997451743 0
0.999572747 0.996337835 0.341939422
0.99969482 0.991927977 0.967956054
0.999771115 0.587106126 0.99282826
0.999816892 0 0.996124208
0 0.99890135 0
0 0.99890135 0
0 0.99890135 0
0 0.99890135 0
0 0.99890135 0
0 0.99890135 0
0 0.99890135 0
0 0.99890135 0
0 0.99890135 0
0 0.99890135 0
0 0.99890135 0
0 0.99890135 0
0 0.998886091 0
0 0.998886091 0
0 0.998886091 0
0 0.998886091 0
0 0.998886091 0
0.387304494 0.998886091 0
0.844800488 0.998870832 0
0.964370184 0.998870832 0
0.984481575 0.998855573 0
0.991439689 0.998840314 0
0.994827192 0.998825055 0
0.996688792 0.998794537 0
0.997802701 0.99874876 0
0.998474098 0.998687724 0
0.998886091 0.998626688 0
0.999191272 0.998550393 0
0.999404898 0.998413062 0
0.999557488 0.998184176 0
0.99969482 0.997421225 0.428336004
0.999771115 0.994598306 0.981368734
0.999832151 0.703761349 0.995132372
0 0.999191272 0
0 0.999191272 0
0 0.999191272 0
0 0.999191272 0
0 0.999191272 0
0 0.999191272 0
0 0.999191272 0
0 0.999191272 0
0 0.999191272 0
0 0.999191272 0
0 0.999191272 0
0 0.999191272 0
0 0.999191272 0
0 0.999191272 0
0 0.999191272 0
0 0.999191272 0
0 0.999191272 0
0 0.999191272 0
0.490196078 0.999191272 0
0.921766995 0.999176013 0
0.979736019 0.999176013 0
0.990188449 0.999160754 0
0.994277867 0.999145495 0
0.996429389 0.999145495 0
0.997650111 0.999130236 0
0.998428321 0.999084459 0
0.998886091 0.999053941 0
0.999191272 0.999008164 0
0.999404898 0.998947127 0
0.999557488 0.998855573 0
0.999679561 0.998687724 0
0.999771115 0.998153658 0.52512398
0.999832151 0.99626154 0.988418402
0 0.999404898 0
0 0.999404898 0
0 0.999404898 0
0 0.999404898 0
0 0.999404898 0
0 0.999404898 0
0 0.999404898 0
0 0.999404898 0
0 0.999404898 0
