Samples/Panasonic-Standard/Generated-LUTs/CNEGSTD.cube
TITLE "S1RII Standard - FLog2C_to_CLASSIC-Neg_VLog"
#LUMIXPHOTOSTYLE STD
LUT_3D_SIZE 5
0.000147633 0.000135207 0.000073574
0.233311306 0.028248780 0.000201868
0.532426886 0.091759070 0.000054412
0.828195420 0.148498553 0.006547299
0.866785156 0.184483536 0.013997244
0.011781178 0.142354040 0.072520964
0.187081679 0.192091205 0.083217636
0.438169254 0.244682855 0.030750782
0.801002113 0.302873661 0.034054271
0.946514884 0.297467790 0.148711934
0.021535012 0.601044236 0.172640461
0.111053680 0.265559872 0.127822834
0.531080260 0.606451741 0.220501706
0.782043305 0.553721352 0.082487603
0.918219324 0.453696122 0.134470638
0.025909886 0.780206921 0.161186533
0.021567739 0.446731590 0.087189991
0.224122711 0.359554642 0.033801896
0.612128843 0.366306305 0.001007607
0.934199896 0.794140648 0.408108467
0.028807615 0.867357542 0.179542472
0.024843302 0.764887593 0.141772881
0.039369213 0.742948631 0.133235947
0.440639805 0.750138372 0.157000128
0.948716254 0.841399750 0.423467480
0.033553129 0.049019149 0.161439177
0.109338565 0.011234043 0.050328581
0.538506520 0.083531567 0.096873651
0.951106364 0.292887688 0.275938218
0.950955862 0.283730799 0.276970819
0.030806231 0.182386371 0.226016979
0.204087739 0.231825943 0.233902281
0.462221178 0.248246644 0.177945810
0.760934012 0.292065847 0.179983356
0.908566237 0.318288826 0.209357983
0.036280199 0.593325170 0.561264285
0.100958203 0.523278520 0.478163912
0.482345968 0.458539022 0.340514493
0.790609959 0.537346569 0.311322964
0.964277617 0.558391737 0.466388290
0.056500637 0.889866459 0.888334753
0.365990387 0.668617189 0.225727075
0.278319112 0.747474612 0.608410222
0.794338514 0.778238535 0.454113602
0.973059302 0.762027800 0.515453929
0.051520556 0.942082596 0.720074020
0.049939355 0.940814721 0.668630007
0.052533745 0.918329050 0.751781153
0.168522174 0.917099322 0.697168497
0.978095510 0.921767310 0.652584610
0.073168040 0.043194492 0.256121890
0.464275548 0.033837015 0.048073630
0.739971927 0.060943252 0.106844439
0.946664167 0.183113849 0.221095086
0.956452574 0.376038346 0.348674610
0.114591246 0.216541525 0.348908727
0.265917787 0.266747419 0.404198489
0.494690248 0.278225079 0.336508514
0.782552670 0.324906530 0.327095086
0.953396632 0.421342673 0.443830663
0.074220732 0.452031916 0.539906819
0.262350644 0.456528278 0.532025469
0.536365168 0.534306775 0.546314754
0.813291453 0.558416078 0.497229924
0.962160721 0.565833975 0.506806612
0.060788302 0.897088585 0.983799537
0.084523163 0.815202907 0.886852736
0.313095205 0.776716539 0.790822613
0.843861006 0.774219286 0.680767735
0.950705937 0.810679477 0.648005289
0.060167538 0.939503730 0.949962535
0.058814569 0.917663464 0.931804140
0.065971779 0.890049214 0.988420324
0.530136104 0.896747476 0.808640761
0.955589650 0.956198741 0.599317912
0.134190827 0.088856143 0.480577659
0.414385246 0.026739815 0.104689510
0.694855359 0.052714739 0.186973283
0.949103692 0.186941622 0.286403526
0.958708821 0.353138181 0.421857923
0.138570309 0.228059310 0.565199097
0.343269496 0.348994079 0.667171275
0.527683238 0.364384990 0.559374558
0.790870332 0.349491121 0.479368483
0.924385318 0.420512440 0.517368564
0.060197063 0.824102386 0.998679841
0.309180682 0.532668169 0.717989710
0.506508277 0.649274701 0.781414787
0.833351194 0.596814453 0.673752619
0.959052929 0.627498305 0.679153906
0.058364817 0.795387246 0.978963421
0.263196222 0.797149896 0.905184325
0.612788751 0.768316650 0.834406758
0.846287127 0.808944717 0.812575690
0.974317373 0.794211109 0.789019663
0.063121130 0.942828357 0.998329139
0.062882899 0.930012763 0.999890283
0.063725708 0.928652580 0.999789523
0.499417637 0.920969205 0.927065258
0.968671812 0.921592573 0.866300391
0.329722738 0.150165897 0.806613146
0.167553948 0.078732210 0.575488785
0.769213970 0.154494071 0.728821687
0.948541581 0.127520029 0.349963707
0.969872453 0.454544258 0.629559797
0.316888208 0.619313781 0.982776608
0.465131233 0.455318235 0.773527715
0.627066493 0.390603154 0.751595844
0.856978157 0.401797471 0.795561841
0.972529275 0.516723139 0.673885005
0.324353495 0.797975604 0.999754168
0.428392483 0.710360787 0.968305580
0.688403041 0.632097601 0.876686444
0.875794144 0.636337426 0.807357111
0.968541418 0.605982951 0.770236587
0.267610990 0.850715881 0.999753047
0.526827680 0.786954116 0.983935766
0.806922821 0.731515778 0.828388295
0.902348450 0.842897748 0.924056769
0.981838763 0.817202660 0.885363334
0.070753644 0.921176612 0.999901366
0.113030973 0.917251292 0.999808068
0.240582788 0.926127804 0.999663626
0.863146640 0.900724065 0.921484990
0.950572402 0.936164710 0.940418794
