Samples/Panasonic-Standard/Generated-LUTs/CNEGSTD.cube
TITLE "S1RII Standard - FLog2C_to_CLASSIC-Neg_VLog"
#LUMIXPHOTOSTYLE STD
LUT_3D_SIZE 33
0.000147633 0.000135207 0.000073574
0.021585754 0.008994469 0.004853403
0.065862356 0.031474699 0.013088336
0.121550589 0.060502388 0.024924840
0.212945532 0.097067394 0.037952072
0.216430980 0.076325876 0.019421464
0.220786677 0.056710347 0.005016491
0.222462787 0.040420176 0.000369488
0.233311306 0.028248780 0.000201868
0.256569102 0.038600580 0.000173456
0.283591038 0.052785270 0.001052005
0.317645747 0.068783725 0.002299778
0.357448652 0.086045826 0.011618730
0.394363685 0.087095396 0.006537479
0.436210157 0.088578230 0.001449389
0.484032461 0.090089023 0.000535860
0.532426886 0.091759070 0.000054412
0.575765128 0.098941173 0.000063254
0.616887263 0.106232247 0.000061726
0.652334457 0.113884627 0.000039806
0.689002944 0.121743481 0.000015789
0.735148400 0.128549465 0.000024037
0.774017894 0.135096332 0.000909446
0.801884329 0.141742047 0.003351815
0.828195420 0.148498553 0.006547299
0.843999489 0.153371286 0.008784785
0.858217231 0.158366284 0.012333693
0.869045890 0.163622495 0.018684370
0.879791222 0.168884617 0.024510574
0.876608842 0.171876330 0.021864304
0.876397160 0.175620471 0.019771131
0.874977680 0.179829873 0.017594052
0.866785156 0.184483536 0.013997244
0.004512553 0.021842826 0.009355655
0.021056025 0.031371518 0.014680814
0.063918850 0.056244033 0.025540136
0.105900100 0.075828196 0.034204853
0.162568412 0.097641766 0.043770922
0.175659332 0.085027128 0.029670157
0.189370881 0.072918498 0.016199413
0.203689062 0.060884140 0.006635474
0.221983024 0.050987414 0.000563459
0.248239852 0.062215586 0.002562064
0.272748955 0.074173859 0.006056845
0.311488556 0.087422355 0.008444907
0.347319921 0.100998790 0.014391042
0.381360561 0.102628231 0.006907156
0.425649372 0.104582799 0.001607132
0.473456726 0.106779938 0.000476744
0.524032019 0.109530678 0.000307982
0.575023616 0.116565469 0.000440934
0.622752773 0.124156432 0.000176552
0.669258683 0.131863315 0.000022144
0.714298938 0.139718253 0.000005090
0.749528879 0.145410254 0.000773913
0.777933064 0.150836384 0.002358490
0.806337249 0.156262514 0.003943066
0.832556246 0.161891289 0.006216119
0.847429833 0.167338284 0.009815674
0.858742134 0.173059764 0.016359357
0.870280557 0.178793949 0.024440133
0.882262634 0.184891667 0.032800524
0.881038787 0.189305287 0.026623516
0.882508955 0.193397814 0.022999795
0.885342208 0.197555477 0.023941545
0.884882945 0.201034632 0.025973004
0.012111202 0.070929407 0.034438093
0.031974482 0.077319552 0.037396382
0.061026449 0.083908447 0.039884960
0.091267320 0.091645171 0.044016376
0.126373796 0.099917863 0.048463988
0.144533176 0.094780178 0.039781937
0.163538546 0.090407981 0.031150297
0.188452142 0.086451633 0.022047774
0.216326616 0.082808895 0.013681382
0.238433645 0.090088939 0.013858942
0.265986675 0.098148290 0.014698335
0.298933630 0.106934822 0.015737996
0.332456355 0.115806307 0.016816178
0.370250130 0.118595225 0.008471185
0.417140069 0.121535658 0.003535227
0.464251893 0.124536718 0.000428429
0.512615503 0.127851371 0.000066965
0.569263417 0.134867877 0.000064088
0.626416811 0.142474141 0.000024521
0.684109807 0.150261883 0.000077717
0.733338648 0.157951707 0.002853819
0.759207460 0.162697433 0.003743998
0.785076271 0.167443160 0.004634176
0.810945083 0.172188886 0.005524354
0.835005575 0.177104120 0.007361558
0.849607865 0.183737576 0.017201296
0.863222227 0.190401439 0.027667317
0.876102220 0.197080928 0.038283470
0.888982214 0.203760416 0.048899624
0.889968313 0.207485692 0.034094900
0.891680075 0.211467551 0.029219974
0.894900269 0.215404383 0.028255817
0.898992941 0.220180108 0.031638452
0.016543671 0.127867651 0.061037760
0.036492228 0.121000966 0.058930398
0.055778815 0.114894094 0.057239987
0.075727243 0.108688136 0.055312809
0.095060472 0.102807502 0.053052309
0.116998879 0.105659371 0.049911728
0.141411752 0.108570818 0.046371041
0.172454029 0.112719832 0.042170241
0.207406647 0.117394595 0.037599784
0.228916420 0.120383426 0.033150088
0.259256987 0.124192207 0.028294006
0.290167543 0.128265168 0.024293833
0.321040498 0.132247541 0.020061406
0.360019774 0.135634619 0.010227114
0.403885880 0.139259386 0.002927224
0.450952508 0.143656898 0.000131215
0.505762717 0.149443166 0.000014330
0.568533442 0.155650072 0.000094242
0.637025598 0.163093327 0.000590656
0.698839379 0.170545304 0.001029013
0.749725505 0.177881319 0.009291273
0.776053667 0.181881977 0.009479998
0.798654331 0.185731039 0.010157262
0.820195151 0.189668534 0.011378991
0.835060456 0.194163034 0.016030077
0.850703417 0.201328370 0.028493159
0.866330038 0.208489738 0.040905747
0.881939529 0.215411952 0.053502355
0.894124838 0.222739562 0.070141048
0.897175042 0.227694250 0.058881925
0.900634906 0.232441663 0.049198097
0.904202513 0.237166460 0.043495729
0.908322454 0.241668562 0.042003070
0.028781214 0.214100867 0.098725190
0.035462325 0.180492415 0.087935905
0.047953753 0.151959482 0.076949382
0.059394641 0.127739850 0.067150946
0.067805986 0.106417920 0.058925921
0.091851138 0.117019851 0.059969162
0.120886078 0.130069344 0.063029835
0.156542514 0.143868675 0.065730386
0.198830998 0.159837518 0.067581772
0.224451186 0.156023997 0.054591002
0.252022141 0.152890368 0.043451833
0.279115167 0.150576531 0.032639196
0.307919159 0.148740622 0.021964099
0.351731213 0.153294724 0.010180940
0.394857787 0.158939477 0.003395019
0.440362879 0.165174623 0.000133469
0.495752170 0.172243098 0.000186948
0.568465485 0.178505067 0.000158092
0.645530323 0.185296476 0.001704757
0.709182585 0.192020201 0.002645383
0.766851041 0.198923660 0.016184513
0.789860214 0.202103838 0.016206927
0.809586110 0.205471247 0.017419306
0.823742062 0.209072003 0.020703374
0.836645423 0.212646853 0.024502590
0.853940548 0.220910608 0.039507976
0.871583099 0.228898406 0.055951131
0.886528368 0.237159481 0.073800875
0.898450494 0.246109917 0.094522747
0.904601337 0.250953200 0.087771162
0.910423207 0.255441221 0.082106963
0.916133963 0.259828931 0.077487436
0.921678448 0.264334899 0.073210994
0.022649447 0.194507451 0.092444692
0.034179207 0.175922700 0.084685205
0.052310383 0.159716654 0.076198772
0.069928342 0.146354130 0.068936926
0.084826920 0.133535138 0.062972198
0.107047682 0.140195328 0.065011279
0.130239415 0.147452953 0.067583279
0.162629616 0.156977897 0.069390168
0.195866182 0.167952149 0.071576837
0.220082178 0.167770905 0.061270342
0.247978132 0.168465499 0.051828597
0.276178902 0.169570580 0.043714106
0.311130895 0.171089306 0.035171171
0.346520807 0.174397526 0.021761875
0.385589661 0.178084417 0.011263751
0.426178893 0.182314280 0.004257155
0.476567645 0.187523891 0.000379720
0.544356187 0.193873238 0.001927517
0.613886271 0.200903784 0.004250755
0.674751306 0.208253779 0.010301531
0.733823347 0.215747703 0.020948114
0.762999241 0.219499322 0.020503383
0.789808782 0.223345683 0.020616984
0.809171043 0.227520257 0.023347668
0.828533305 0.231694831 0.026078351
0.869780253 0.239871697 0.036426445
0.899106975 0.249035769 0.053945791
0.923735553 0.259224261 0.076000370
0.939104527 0.270152714 0.103743671
0.937641930 0.270792671 0.098898285
0.936167220 0.271433771 0.094079690
0.934692510 0.272074872 0.089261095
0.933217800 0.272715973 0.084442500
0.018815382 0.175563116 0.085316935
0.033236647 0.171475700 0.081397003
0.056520637 0.169245079 0.076417574
0.081830831 0.166636954 0.072025248
0.105391313 0.163966655 0.068654416
0.122505468 0.166283802 0.070314458
0.143899559 0.168637613 0.072108104
0.167319351 0.172286920 0.073871850
0.192919401 0.176033181 0.075515410
0.218322753 0.180141173 0.068719681
0.244121001 0.184312564 0.061443277
0.273224965 0.189144948 0.054888014
0.314574894 0.194762811 0.048777520
0.347616816 0.195698482 0.036403631
0.380299439 0.197858015 0.023034399
0.415531133 0.200116725 0.012427120
0.460494757 0.203621451 0.002900567
0.521439662 0.210826778 0.006576461
0.582427615 0.218186600 0.011149654
0.638571051 0.225736941 0.019435827
0.690158481 0.233814283 0.029050977
0.730526200 0.238222127 0.026265279
0.769574945 0.242338927 0.024155892
0.795291744 0.247005662 0.025743695
0.818860428 0.251874144 0.028419839
0.880773408 0.259333814 0.035330644
0.923866250 0.269266151 0.061739944
0.942862473 0.281422666 0.114130418
0.946947253 0.293539543 0.166506848
0.946412146 0.290296887 0.153002923
0.945788302 0.287164861 0.136614554
0.944339620 0.284666669 0.121393141
0.939650272 0.281587472 0.106753158
0.017427561 0.157353055 0.077946217
0.032294086 0.167028699 0.078108800
0.061255402 0.178631252 0.077236712
0.094416627 0.189595968 0.075600929
0.130431847 0.201669207 0.074120487
0.144114744 0.196254540 0.075346860
0.157453625 0.191474305 0.076800908
0.172059334 0.187502328 0.078196136
0.190000540 0.184062193 0.079366523
0.216629581 0.192527267 0.076188569
0.243161448 0.201775194 0.072663336
0.274046452 0.213111773 0.069587325
0.313664622 0.224451959 0.066056440
0.343842674 0.223062125 0.052137466
0.374121847 0.223104726 0.039782043
0.408510069 0.223079834 0.026319665
0.448503928 0.223606713 0.015319122
0.499355278 0.231457911 0.019075090
0.550990829 0.239970845 0.025065552
0.600524971 0.248332407 0.031747764
0.648491510 0.256941265 0.039490319
0.699514677 0.261322246 0.034547309
0.746504741 0.266074750 0.031053691
0.779345251 0.271071377 0.031069942
0.812132620 0.276085563 0.030611428
0.892162779 0.281796277 0.035198593
0.938221616 0.291798391 0.091419415
0.947328764 0.302871533 0.168176961
0.950881963 0.330581561 0.231485133
0.949066691 0.315418110 0.206199795
0.947643547 0.303506084 0.179652387
0.946597203 0.296356395 0.154379380
0.945269991 0.289922259 0.128154943
0.011781178 0.142354040 0.072520964
0.031351525 0.162581699 0.074820598
0.066712212 0.187895272 0.077025555
0.107951680 0.216383087 0.078308553
0.158880517 0.248735933 0.079621465
0.165361241 0.233965437 0.080522352
0.172273838 0.219450125 0.082063807
0.179530863 0.204460719 0.082698743
0.187081679 0.192091205 0.083217636
0.213899528 0.206663861 0.084036695
0.239682286 0.223483237 0.084925479
0.275886344 0.240243518 0.085495642
0.316145945 0.256622804 0.085618881
0.340940811 0.252205835 0.070731530
0.368267845 0.248599377 0.056554556
0.403057123 0.246730650 0.043639983
0.438169254 0.244682855 0.030750782
0.479238846 0.253360574 0.035016540
0.520308437 0.262038293 0.039282298
0.561104291 0.271977048 0.044565118
0.601221522 0.283195021 0.051940274
0.661538133 0.287667707 0.044995886
0.721709256 0.292088574 0.037769499
0.763302971 0.297288326 0.035128707
0.801002113 0.302873661 0.034054271
0.903357732 0.304854454 0.035378319
0.945714455 0.314568461 0.129893156
0.950223060 0.330562750 0.212727130
0.952684298 0.355984897 0.265062427
0.951945188 0.346124455 0.251208071
0.950409398 0.329064275 0.223071456
0.947958002 0.308835457 0.184162605
0.946514884 0.297467790 0.148711934
0.007211885 0.175518006 0.097258463
0.009950656 0.190735933 0.102440942
0.039758016 0.206967713 0.105823351
0.089840503 0.230136793 0.108891028
0.155510252 0.252236046 0.109849347
0.162467542 0.247366874 0.103608254
0.169424832 0.242497702 0.097367161
0.176382121 0.237628530 0.091126068
0.183250201 0.232718173 0.084952353
0.207476810 0.241045037 0.089662638
0.233072748 0.250100713 0.094259073
0.271013041 0.259580512 0.098757557
0.307367704 0.271130771 0.103956707
0.334709287 0.270286699 0.087071298
0.366820709 0.270206016 0.070040470
0.406111132 0.271155510 0.053497658
0.446503315 0.273266744 0.038929631
0.486963459 0.281990129 0.043754039
0.527555238 0.290765624 0.048631758
0.569790264 0.300409692 0.055486825
0.612081727 0.310128154 0.062649064
0.665691926 0.313417056 0.055697035
0.715980252 0.316727441 0.049490369
0.756072786 0.320215286 0.045302640
0.792477330 0.324446296 0.043048712
0.884414858 0.326494412 0.038412866
0.936349847 0.336006808 0.086123324
0.948147949 0.340980463 0.165387457
0.952303521 0.363519335 0.234935126
0.950905937 0.348893117 0.218139639
0.949393426 0.334627036 0.199193084
0.948214258 0.320084993 0.180685365
0.947416273 0.307331097 0.162050547
0.009497212 0.219188996 0.126724384
0.010273278 0.224145727 0.133614828
0.017480109 0.231687560 0.139936958
0.074910958 0.244047824 0.142477014
0.154929582 0.257118018 0.143328974
0.160082110 0.260774728 0.127251020
0.166082850 0.266604413 0.113026291
0.171931388 0.274004130 0.099833219
0.177715256 0.280485378 0.085967529
0.201453738 0.281982313 0.095845074
0.228925444 0.282806076 0.104609883
0.261969162 0.284257944 0.113715347
0.298891554 0.286668611 0.123905882
0.327324483 0.290026110 0.103727449
0.365365029 0.294884460 0.084781693
0.408661697 0.299110380 0.064656006
0.452927766 0.305216961 0.047470486
0.493720400 0.312681747 0.053040695
0.535601976 0.320651179 0.059338852
0.577943012 0.328964588 0.066765623
0.620426413 0.337403672 0.074343045
0.669845719 0.339166405 0.066398184
0.709903679 0.341581170 0.061695749
0.744953002 0.344055220 0.057996948
0.780344254 0.346685921 0.054153893
0.866293033 0.352130044 0.046828737
0.920505563 0.362927252 0.061075351
0.946609593 0.373954798 0.113905942
0.949252445 0.376541003 0.171886943
0.948762222 0.359696501 0.173347635
0.948462736 0.345162111 0.174455236
0.948258400 0.331786089 0.175919950
0.948039635 0.318159117 0.177352027
0.012453169 0.272657480 0.162548650
0.012130051 0.264870666 0.167105246
0.014762661 0.262534570 0.178393461
0.060793308 0.259702026 0.180326518
0.157437569 0.262247999 0.181798444
0.159008764 0.277146660 0.154729345
0.160867145 0.296164917 0.131252451
0.165594656 0.316141027 0.109360615
0.170077091 0.336857405 0.087281610
0.194608593 0.326183100 0.101535806
0.224909589 0.318787476 0.115706721
0.256190653 0.310632722 0.130128785
0.290230723 0.302592584 0.144513313
0.321174559 0.310864182 0.122717252
0.363909349 0.319562903 0.099522916
0.411986912 0.328250562 0.077461283
0.459533803 0.339986898 0.055726853
0.501885142 0.345999555 0.062274690
0.544666451 0.353631813 0.070596886
0.587289881 0.361056366 0.078423931
0.630023666 0.368578335 0.086367754
0.672636306 0.368928648 0.078867622
0.706750642 0.369363858 0.073708881
0.736588577 0.370586742 0.070466555
0.766730579 0.371948932 0.067095949
0.844960416 0.380839957 0.059406604
0.897978219 0.394013840 0.064210563
0.932031530 0.409614034 0.083472314
0.947248764 0.420528310 0.112964994
0.947963663 0.391708173 0.129277855
0.948220136 0.366399244 0.150999962
0.948424968 0.343889496 0.171402022
0.949100723 0.330922901 0.191210696
0.016185719 0.341730861 0.208152984
0.015521847 0.313829468 0.211182187
0.015539425 0.295747467 0.221110724
0.047651992 0.278459200 0.228417910
0.161735018 0.267667725 0.226871461
0.157970622 0.295952591 0.187340580
0.158107654 0.327992645 0.152291634
0.157964254 0.365045045 0.120724485
0.160780795 0.404832613 0.087848498
0.188482382 0.381477722 0.107876746
0.218051107 0.358074440 0.126897746
0.251468779 0.337465884 0.147023535
0.283475376 0.320005767 0.169325414
0.315054269 0.331733198 0.141791151
0.361936975 0.345650883 0.115147037
0.411913537 0.363292271 0.091210659
0.464686957 0.381231492 0.065434487
0.509640396 0.385917590 0.073211125
0.554538236 0.391070978 0.082002711
0.597774714 0.396690534 0.090382706
0.640572517 0.402565376 0.099790542
0.671762345 0.401564328 0.092981133
0.701349523 0.400905023 0.087807688
0.730955925 0.400289418 0.082867328
0.756374961 0.400445088 0.079803482
0.821253571 0.417201361 0.078245851
0.868240662 0.434305079 0.081396723
0.901885923 0.453359872 0.092919676
0.930807899 0.472773099 0.108428570
0.944583365 0.431916692 0.099765447
0.947836664 0.391662223 0.125210334
0.948870237 0.359579448 0.167589356
0.949620165 0.344250608 0.201591854
0.017884581 0.403559155 0.206394808
0.016380269 0.361173441 0.204527769
0.016370825 0.333348324 0.214710204
0.024661961 0.307283032 0.223721041
0.124044091 0.287715645 0.220620776
0.125113842 0.306288227 0.188101753
0.128775200 0.324249921 0.156898854
0.138365056 0.342061508 0.125947862
0.146462282 0.365994197 0.099093461
0.170379879 0.338282288 0.113384645
0.193466734 0.315918892 0.127303453
0.219313385 0.295227994 0.143672546
0.249375565 0.272928971 0.157437344
0.293017619 0.308195889 0.143315033
0.345682281 0.343344928 0.128306163
0.409676020 0.387606704 0.112808184
0.482828353 0.432339295 0.095940194
0.528218692 0.431854016 0.102248259
0.573560789 0.431721971 0.108607678
0.618556058 0.431555029 0.115851527
0.656966919 0.432378137 0.125030776
0.683286265 0.432732125 0.112649526
0.710496162 0.433511244 0.100658951
0.737958687 0.434583062 0.090306496
0.765780711 0.435650129 0.080568782
0.818148660 0.451948826 0.087731790
0.861978827 0.469244385 0.096934895
0.894444409 0.486447373 0.111191212
0.920709183 0.505254077 0.130198335
0.936608679 0.461654589 0.111035770
0.946066354 0.422649396 0.103539372
0.947795589 0.386457359 0.126830013
0.948506816 0.356037755 0.162775958
0.018694135 0.469702323 0.199527815
0.018003299 0.415493692 0.199895616
0.016932678 0.378333338 0.208054415
0.016587936 0.344479931 0.218722294
0.083688813 0.313102378 0.220062725
0.093621075 0.315601073 0.187318432
0.105238604 0.320182812 0.160269032
0.116861760 0.324691910 0.134895115
0.133853113 0.328401167 0.108256026
0.154154510 0.303193676 0.119499642
0.176601338 0.277640574 0.128549672
0.199453693 0.256114119 0.138293205
0.222630773 0.236617760 0.147950549
0.270833151 0.284640367 0.144866394
0.329231302 0.342146772 0.142547236
0.409267399 0.412345259 0.138284337
0.501997457 0.489788049 0.131611487
0.547568754 0.483510665 0.136698054
0.593006291 0.476619021 0.140377535
0.636145292 0.469393972 0.144512270
0.672728449 0.463367588 0.151579179
0.697472620 0.465575668 0.132101680
0.722897164 0.468337714 0.114019506
0.748710611 0.471150200 0.096199387
0.775587111 0.474799935 0.082176526
0.819393930 0.489971339 0.095653682
0.857601394 0.507298214 0.112304086
0.886145888 0.523317312 0.134091195
0.911044428 0.539526062 0.158410344
0.925408563 0.494176973 0.131800877
0.937456120 0.455025645 0.115484571
0.945218228 0.418136832 0.105830149
0.946982200 0.385458606 0.114764151
0.020290750 0.537698464 0.191743324
0.018931752 0.470297887 0.190092766
0.017705001 0.421893569 0.198652613
0.017368841 0.381312135 0.212086082
0.043019758 0.338890816 0.216235140
0.059737552 0.327325239 0.189532384
0.079772386 0.316819455 0.164311641
0.100789494 0.306014678 0.140027342
0.120393051 0.297603452 0.120300484
0.138136285 0.266787224 0.122954605
0.157216638 0.244942791 0.129352369
0.176476732 0.222420115 0.133549681
0.197230665 0.202473551 0.137925414
0.246776294 0.263179628 0.147227270
0.314825607 0.341156995 0.156409577
0.410207689 0.437867014 0.164625281
0.520010117 0.548826738 0.172093824
0.567179514 0.535212381 0.172615723
0.609812515 0.522192991 0.175510002
0.651354844 0.509050883 0.178477289
0.690781117 0.496362898 0.180912595
0.713944386 0.499940985 0.151442949
0.737387114 0.504504343 0.126829996
0.761644298 0.509447593 0.102315274
0.777933856 0.514026254 0.082851370
0.816100025 0.529833219 0.106164754
0.853389204 0.545766386 0.130803629
0.876854472 0.561849790 0.162843037
0.899416176 0.577280193 0.197033907
0.911737677 0.531571579 0.164359518
0.921903268 0.488939466 0.139013432
0.932238793 0.452177122 0.121731034
0.941023653 0.418277498 0.109987635
0.021535012 0.601044236 0.172640461
0.020084149 0.528837382 0.180397630
0.018703189 0.468145395 0.188145607
0.017767981 0.418844718 0.201502762
0.024475144 0.367349196 0.211171814
0.034123636 0.338608120 0.189984538
0.056793888 0.313284577 0.168771256
0.085061524 0.288135861 0.146803595
0.111053680 0.265559872 0.127822834
0.128608997 0.239945574 0.128352923
0.145581758 0.214775673 0.128435027
0.160279504 0.193609024 0.129178912
0.177824541 0.173939925 0.129583532
0.230453514 0.244874849 0.149693884
0.305406349 0.341130300 0.172821049
0.408584440 0.467197286 0.197509561
0.531080260 0.606451741 0.220501706
0.583008820 0.586719456 0.216870275
0.626197086 0.567815847 0.215263836
0.667432394 0.548892467 0.213819636
0.709450359 0.529766995 0.211632187
0.729779020 0.534761307 0.174138192
0.751840959 0.540643625 0.139424682
0.765744332 0.546757385 0.109605834
0.782043305 0.553721352 0.082487603
0.814637434 0.570363569 0.114754135
0.847436688 0.586874123 0.151425414
0.869302904 0.601112924 0.195217001
0.889514693 0.616807087 0.243259741
0.895879057 0.573108906 0.210052103
0.904601911 0.530351003 0.178425499
0.910532002 0.490587975 0.156542350
0.918219324 0.453696122 0.134470638
0.024118174 0.644518735 0.201384362
0.021584107 0.572286174 0.198047923
0.020260028 0.507105827 0.197880238
0.018464312 0.449815704 0.200179668
0.017478730 0.386794541 0.197160613
0.027907723 0.362927339 0.182866421
0.038940415 0.340640394 0.169507455
0.068138349 0.320900494 0.154540339
0.099960306 0.301130605 0.140415317
0.118872165 0.271060702 0.135971749
0.137653347 0.247654160 0.132546714
0.156016727 0.225030285 0.129070640
0.173137100 0.203178502 0.124801383
0.225918156 0.274215427 0.146644954
0.298076603 0.369752672 0.173777508
0.395522261 0.485190414 0.202248737
0.511991311 0.608422534 0.228246929
0.549792855 0.595103130 0.222948468
0.587810330 0.581765356 0.217644284
0.618881370 0.569086179 0.213949483
0.648715812 0.556445494 0.210612395
0.689733871 0.563067987 0.182158638
0.732670357 0.570020660 0.154643125
0.764725523 0.577299087 0.133131970
0.792647620 0.585764937 0.112596621
0.824725904 0.602962189 0.143438582
0.851342693 0.619238354 0.175676005
0.872462744 0.633986422 0.215668490
0.893727258 0.648780573 0.256427350
0.900492639 0.614063263 0.229106449
0.907507532 0.580122358 0.205754246
0.914970726 0.546848123 0.183411447
0.921234763 0.515913203 0.167494721
0.025753628 0.682442341 0.228413912
0.023187102 0.615375949 0.216601678
0.021679205 0.545206301 0.206584050
0.019131470 0.480769028 0.198566015
0.016681995 0.409690057 0.182869063
0.020567239 0.389784566 0.176712757
0.031111065 0.370730314 0.169713725
0.051215173 0.353665128 0.162277083
0.085898895 0.338690332 0.154095541
0.108802968 0.310998742 0.145183544
0.128618035 0.284068868 0.136602610
0.148847271 0.259345908 0.127691273
0.172059975 0.239437526 0.120236115
0.223063383 0.311701036 0.146266873
0.288885823 0.399965302 0.173275119
0.382315651 0.503323159 0.205770844
0.492944291 0.610389759 0.235991041
0.516794592 0.603468282 0.229020891
0.540683280 0.596543540 0.222049724
0.564789670 0.589600277 0.215072787
0.588896060 0.582657013 0.208095851
0.651058147 0.591152269 0.190053922
0.712240674 0.600281193 0.171427438
0.759567798 0.608895429 0.158743652
0.803547749 0.617660206 0.147726786
0.834796462 0.635588032 0.171927177
0.855325032 0.651250022 0.203962952
0.875761642 0.666614269 0.235910046
0.896858348 0.680167834 0.270233278
0.905158203 0.655053141 0.248726408
0.911568345 0.629557486 0.232301187
0.917957132 0.604070292 0.216464293
0.923717492 0.579302008 0.201893751
0.027526781 0.718803985 0.258068225
0.025187841 0.654620593 0.236240140
0.022965905 0.582973010 0.215307899
0.019588938 0.511326787 0.193935083
0.017213072 0.432408601 0.170397188
0.017696101 0.418459825 0.171541363
0.024843688 0.405214064 0.171275601
0.038619445 0.392306770 0.170438153
0.069556063 0.380696890 0.169021680
0.096471933 0.351262291 0.153907469
0.119874231 0.326899387 0.140764261
0.144420210 0.303194642 0.127576815
0.170368308 0.280634582 0.115019382
0.221537080 0.348182734 0.141746318
0.284558037 0.430665138 0.174283240
0.369056236 0.521506949 0.208847978
0.474075410 0.612548668 0.244045269
0.483932162 0.611821879 0.235089715
0.493967055 0.611286773 0.226444276
0.503997132 0.610734191 0.217209527
0.514025531 0.610175515 0.207769344
0.605243717 0.619961409 0.198032291
0.692037065 0.630542065 0.190281517
0.754353653 0.640233253 0.187713963
0.812869469 0.650178435 0.186734845
0.840402391 0.666447954 0.208135517
0.860685824 0.681134531 0.231159797
0.880895936 0.695326062 0.256156485
0.899194219 0.708737070 0.283089513
0.906824818 0.692196865 0.270255860
0.913403956 0.676633467 0.259401121
0.919250549 0.661182640 0.250934771
0.925498691 0.644331618 0.242400371
0.029719638 0.750129364 0.289915712
0.027032642 0.691369240 0.255685751
0.023871193 0.619726428 0.221911955
0.020220685 0.541980588 0.189533147
