Samples/Panasonic-Standard/Generated-LUTs/HASLSTD.cube
TITLE "S1RII Standard - Hasselblad_Standard_Phocus_X2D_VLog"
#LUMIXPHOTOSTYLE STD
LUT_3D_SIZE 5
0.000062780 0.000062780 0.000062974
0.402493992 0.026503144 0.078601815
0.587629992 0.003446898 0.108344294
0.818983166 0.000000000 0.171581944
0.924513034 0.000000000 0.238305165
0.000000000 0.522992138 0.000000000
0.317537093 0.288118748 0.010872073
0.540912888 0.291459047 0.030129743
0.693252886 0.235368625 0.020037826
0.950471273 0.000000000 0.240138836
0.000000000 0.764408103 0.000000000
0.303482735 0.529139487 0.000000000
0.517522994 0.459216121 0.000000000
0.695578470 0.422341949 0.000000000
0.963871679 0.000000000 0.267505042
0.000000000 0.934200194 0.000000000
0.290526236 0.769246223 0.000000000
0.530543784 0.685790563 0.000000000
0.736966159 0.629359506 0.000000000
0.974455810 0.356396453 0.178665837
0.000000000 0.974409204 0.000000000
0.189432972 0.954108019 0.000000000
0.441358592 0.952863611 0.000000000
0.790706089 0.952687260 0.000000000
0.978675399 0.964048817 0.000000000
0.001002626 0.002738690 0.005890915
0.214645217 0.000000000 0.272161394
0.569500944 0.000000000 0.317608723
0.995277632 0.000000000 0.769905897
0.986238954 0.000000000 0.495122250
0.000000000 0.547816944 0.308376067
0.354933137 0.355103428 0.356577243
0.600394763 0.306739369 0.358822332
0.803556935 0.240502726 0.392082674
0.951657964 0.022675759 0.481010851
0.000000000 0.881379010 0.140396435
0.277231421 0.684320536 0.274030840
0.613223834 0.600352856 0.359611529
0.822343504 0.570697442 0.393896150
0.991331770 0.000000000 0.768890959
0.000000000 0.972639252 0.000000000
0.230655778 0.914436709 0.125879174
0.585304743 0.888446922 0.272387291
0.862041942 0.838236014 0.389200484
0.986533681 0.627837383 0.599715959
0.000000000 0.996209477 0.000000000
0.000000000 0.992510867 0.000000000
0.307393160 0.988296676 0.000000000
0.775856582 0.988602426 0.000000000
0.985921440 0.968230902 0.425222171
0.000000000 0.000000000 0.000000000
0.100907610 0.000000000 0.135500120
0.418040333 0.000000000 0.477076766
0.746328316 0.000000000 0.462299853
0.996508237 0.000000000 0.864439259
0.000000000 0.487735836 0.593010124
0.262734847 0.266669699 0.578582301
0.539958036 0.209367851 0.600348141
0.779348486 0.173162687 0.614977189
0.987065388 0.000000000 0.778038334
0.000000000 0.890046709 0.542645582
0.260698113 0.688911383 0.587308909
0.622601887 0.622832743 0.624890740
0.856503939 0.573218439 0.645759698
0.964183432 0.439748931 0.688517668
0.000000000 0.974964067 0.356810731
0.015865061 0.936304660 0.448228155
0.543022327 0.916057776 0.537899414
0.886834314 0.872793458 0.641778928
0.987898015 0.660440890 0.763294247
0.000000000 0.992058845 0.000000000
0.000000000 0.993165687 0.000000000
0.187178868 0.989289114 0.000000000
0.774958323 0.990643978 0.000000000
0.986225951 0.976328255 0.667085848
0.000000000 0.000000000 0.000000000
0.000000000 0.000000000 0.000000000
0.270979215 0.000000000 0.365090020
0.670560465 0.000000000 0.635224831
0.986654899 0.000000000 0.749567530
0.011178367 0.334139195 0.760281125
0.180746262 0.163320575 0.621361681
0.459862884 0.054208943 0.706896010
0.705348308 0.000000000 0.792184515
0.984885561 0.000000000 0.870004617
0.000000000 0.843619068 0.869411595
0.141152066 0.596985911 0.837497794
0.527199851 0.522204700 0.849536792
0.824572700 0.447649285 0.870114570
0.987157689 0.010793463 0.903259879
0.000000000 0.978544485 0.850999046
0.002270617 0.938924736 0.834023628
0.508074177 0.923553402 0.871920406
0.895327738 0.895477903 0.896784728
0.984901438 0.772944263 0.909367171
0.000000000 0.995326589 0.117602830
0.000000000 0.991570585 0.365741817
0.000000000 0.992177182 0.251781668
0.671142587 0.991718396 0.450792781
0.986448741 0.983240383 0.888626514
0.000000000 0.000000000 0.000000000
0.000000000 0.000000000 0.000000000
0.000000000 0.000000000 0.000000000
0.526921763 0.000000000 0.671900627
0.988659334 0.000000000 0.969394095
0.005847331 0.015759865 0.041573987
0.000000000 0.000000000 0.000000000
0.009207291 0.000000000 0.011879821
0.000000000 0.000000000 0.000000000
0.717905418 0.000000000 0.843260910
0.019755594 0.080918986 0.241504653
0.018469894 0.214699393 0.554787250
0.000000000 0.000000000 0.000000000
0.021915901 0.000000000 0.029659160
0.985162093 0.000000000 0.983664625
0.021563754 0.583968136 0.960157421
0.019526945 0.523525676 0.946838719
0.237736472 0.699741462 0.977533424
0.708874173 0.458949481 0.976452780
0.989413110 0.000000000 0.987144988
0.000000000 0.988861534 0.985427582
0.000000000 0.986674439 0.985403494
0.000000000 0.989240293 0.983819298
0.000000000 0.991353086 0.978335989
0.986367636 0.986382895 0.986493336
