Samples/Panasonic-Standard/Generated-LUTs/HASLSTD.cube
TITLE "S1RII Standard - Hasselblad_Standard_Phocus_X2D_VLog"
#LUMIXPHOTOSTYLE STD
LUT_3D_SIZE 33
0.000062780 0.000062780 0.000062974
0.099340232 0.014773755 0.046559883
0.129931062 0.019716715 0.035444629
0.183200882 0.023887629 0.044817362
0.229177894 0.026245353 0.052470065
0.271535683 0.027517974 0.059138190
0.316657337 0.028165707 0.065979997
0.360229467 0.028059900 0.072354094
0.402493992 0.026503144 0.078601815
0.439631415 0.024622235 0.084123817
0.470748363 0.021051169 0.088898145
0.505340086 0.014187531 0.094397062
0.536749286 0.007949358 0.099391938
0.569738553 0.004298154 0.105096319
0.598850653 0.002668521 0.110388181
0.550787618 0.005997854 0.101677130
0.587629992 0.003446898 0.108344294
0.632289255 0.000953622 0.116440935
0.675378390 0.000000000 0.126326103
0.717144301 0.000000000 0.137322180
0.744465463 0.000000000 0.144556230
0.764522110 0.000000000 0.151497424
0.784489972 0.000000000 0.158862396
0.802941995 0.000000000 0.165667408
0.818983166 0.000000000 0.171581944
0.668170931 0.010691526 0.111484035
0.817677508 0.000000000 0.171100535
0.817677508 0.000000000 0.171100535
0.992762635 0.000000000 0.649004735
0.994926416 0.000000000 0.748521168
0.994954369 0.000000000 0.750230883
0.924520113 0.000000000 0.238314298
0.924513034 0.000000000 0.238305165
0.018169084 0.130045885 0.007171667
0.114814348 0.109350068 0.032628017
0.144341756 0.070307716 0.020573661
0.185423465 0.061086091 0.029496430
0.220194577 0.056762764 0.036351852
0.251648197 0.056387508 0.041020896
0.288235551 0.054932038 0.046233620
0.313492054 0.065712698 0.045810704
0.346715308 0.058023378 0.052722310
0.376369518 0.050972415 0.058561420
0.403637149 0.047821744 0.064374067
0.434789129 0.037206545 0.072093226
0.459560106 0.028335646 0.078471075
0.481802209 0.024025581 0.084093949
0.502898134 0.019216366 0.088746363
0.524346111 0.014457042 0.093303428
0.587629992 0.003446898 0.108344294
0.632289255 0.000953622 0.116440935
0.675378390 0.000000000 0.126326103
0.717144301 0.000000000 0.137322180
0.744465463 0.000000000 0.144556230
0.764522110 0.000000000 0.151497424
0.784489972 0.000000000 0.158862396
0.802941995 0.000000000 0.165667408
0.818983166 0.000000000 0.171581944
0.668170931 0.010691526 0.111484035
0.817677508 0.000000000 0.171100535
0.817677508 0.000000000 0.171100535
0.992762635 0.000000000 0.649004735
0.994926416 0.000000000 0.748521168
0.994954369 0.000000000 0.750230883
0.924520113 0.000000000 0.238314298
0.924513034 0.000000000 0.238305165
0.023919156 0.194653344 0.000000000
0.100641505 0.147010342 0.027139073
0.142223731 0.140934198 0.029615591
0.176606300 0.136589329 0.027216299
0.210487886 0.131648026 0.021295648
0.243363744 0.125561221 0.021649517
0.275062536 0.122310551 0.017211745
0.305580959 0.115597643 0.020161795
0.332426273 0.112158561 0.024380259
0.367521843 0.098383860 0.038596345
0.394639558 0.093716555 0.043066961
0.424944755 0.082495684 0.050539987
0.457757026 0.066047649 0.060708160
0.479654894 0.058928498 0.066077252
0.505174452 0.047703609 0.072910647
0.530350538 0.035339333 0.080097480
0.587629992 0.003446898 0.108344294
0.632289255 0.000953622 0.116440935
0.589692142 0.020280794 0.094591747
0.606570456 0.017960862 0.098227259
0.744465463 0.000000000 0.144556230
0.764522110 0.000000000 0.151497424
0.784489972 0.000000000 0.158862396
0.802941995 0.000000000 0.165667408
0.818983166 0.000000000 0.171581944
0.668170931 0.010691526 0.111484035
0.817677508 0.000000000 0.171100535
0.817677508 0.000000000 0.171100535
0.992762635 0.000000000 0.649004735
0.994926416 0.000000000 0.748521168
0.994954369 0.000000000 0.750230883
0.924520113 0.000000000 0.238314298
0.946991674 0.000000000 0.274632158
0.019506508 0.250416257 0.000000000
0.100270453 0.195940253 0.023386511
0.141725591 0.183769919 0.029815762
0.177238269 0.174436810 0.030680602
0.210941756 0.166034074 0.027277238
0.242782693 0.160256473 0.021374450
0.274434556 0.152626199 0.014366700
0.301116165 0.150518710 0.005930834
0.326122552 0.147646747 0.001525022
0.354183968 0.143735207 0.010186051
0.380268305 0.138060352 0.019414518
0.410454345 0.127847488 0.029354234
0.449117797 0.104341660 0.043597251
0.473650543 0.097923889 0.047947586
0.498402560 0.092005469 0.052735930
0.522245906 0.081495706 0.059902011
0.544792492 0.070473560 0.066432149
0.567767686 0.062065163 0.072106077
0.586199966 0.059646379 0.075172510
0.606724328 0.053455395 0.081284885
0.744305942 0.000000000 0.144514035
0.764522110 0.000000000 0.151497424
0.784489972 0.000000000 0.158862396
0.802941995 0.000000000 0.165667408
0.818983166 0.000000000 0.171581944
0.953696027 0.000000000 0.288032043
0.988226966 0.000000000 0.527359679
0.990079072 0.000000000 0.565820692
0.988142967 0.000000000 0.525812429
0.988318713 0.000000000 0.529007899
0.986860725 0.000000000 0.502071373
0.990978539 0.000000000 0.593465397
0.989057450 0.000000000 0.542747684
0.007410392 0.301012401 0.000000000
0.094809889 0.234545484 0.016424463
0.141279179 0.218104184 0.027283906
0.183043174 0.204735655 0.031269154
0.214179577 0.199183402 0.029083817
0.245577014 0.191012080 0.024535301
0.274639702 0.187356601 0.015618356
0.298229441 0.183626550 0.009098324
0.323902884 0.179590056 0.002288283
0.350911872 0.177282050 0.001115936
0.374220303 0.172525503 0.002955674
0.404919863 0.163798446 0.013581555
0.436048741 0.149317876 0.018981260
0.459995465 0.145415192 0.020607178
0.483347818 0.140305666 0.024178714
0.506333288 0.132844210 0.030839232
0.530494702 0.124884448 0.038794409
0.553973112 0.119120562 0.045073047
0.576747676 0.110573671 0.052988554
0.605268237 0.101504665 0.060474654
0.744305942 0.000000000 0.144514035
0.764522110 0.000000000 0.151497424
0.784489972 0.000000000 0.158862396
0.802941995 0.000000000 0.165667408
0.818835493 0.000000000 0.171527496
0.978248082 0.000000000 0.396241686
0.982346166 0.000000000 0.440415617
0.972221230 0.000000000 0.359581764
0.976741997 0.000000000 0.386103199
0.986888149 0.000000000 0.502633283
0.987614924 0.000000000 0.516076731
0.989562340 0.000000000 0.552046086
0.937222730 0.000000000 0.253389393
0.000267352 0.351684421 0.000000000
0.089741865 0.276574014 0.004293894
0.136676228 0.257284089 0.014949236
0.179912067 0.242057407 0.027103389
0.212201394 0.231021036 0.030237192
0.242299815 0.223643065 0.027040527
0.270995286 0.217408731 0.020544954
0.295498300 0.212971141 0.012803201
0.321302398 0.208660370 0.004981043
0.350266856 0.202530006 0.003445013
0.374788461 0.197542156 0.001663444
0.399490006 0.194075376 0.000082515
0.421778215 0.191939922 0.001950946
0.447402222 0.185646385 0.004588940
0.474415610 0.181434478 0.007399791
0.496461389 0.173001572 0.008940127
0.535395767 0.170673386 0.015372462
0.552312573 0.159160025 0.023397291
0.586779201 0.161369045 0.030847901
0.601819571 0.147532814 0.038184093
0.744305942 0.000000000 0.144514035
0.764522110 0.000000000 0.151497424
0.784489972 0.000000000 0.158862396
0.802941995 0.000000000 0.165667408
0.818835493 0.000000000 0.171527496
0.969693853 0.000000000 0.344705777
0.969693853 0.000000000 0.344705777
0.969693853 0.000000000 0.344705777
0.969693853 0.000000000 0.344705777
0.969693853 0.000000000 0.344705777
0.969693853 0.000000000 0.344705777
0.969693853 0.000000000 0.344705777
0.969465957 0.000000000 0.340036960
0.000000000 0.395767804 0.000000000
0.083198966 0.309423963 0.000000000
0.002595602 0.368587937 0.000000000
0.175040901 0.278514479 0.017776061
0.206741394 0.265314810 0.025076927
0.235811468 0.257039182 0.027742226
0.262729441 0.248216663 0.024274077
0.291909988 0.242455703 0.017219336
0.321623197 0.235209434 0.007969616
0.351431161 0.230476677 0.003618382
0.374499357 0.228146522 0.001819492
0.395113227 0.222163600 0.000360384
0.427395692 0.225379802 0.000000000
0.450454744 0.216893578 0.001093514
0.471578835 0.208738240 0.003614405
0.492965132 0.201122115 0.005608316
0.523495001 0.199643472 0.004382019
0.539241308 0.191906007 0.004945077
0.589672739 0.213269292 0.037102322
0.616263231 0.214178349 0.056372477
0.744305942 0.000000000 0.144514035
0.764522110 0.000000000 0.151497424
0.784489972 0.000000000 0.158862396
0.802941995 0.000000000 0.165667408
0.969693853 0.000000000 0.344705777
0.969693853 0.000000000 0.344705777
0.969693853 0.000000000 0.344705777
0.969693853 0.000000000 0.344705777
0.969693853 0.000000000 0.344705777
0.969693853 0.000000000 0.344705777
0.969693853 0.000000000 0.344705777
0.956883532 0.000000000 0.283625306
0.929005652 0.000000000 0.237602758
0.000000000 0.442962452 0.000000000
0.000000000 0.435916398 0.000000000
0.000000000 0.410547119 0.000000000
0.168293317 0.313601615 0.005736005
0.205487759 0.296476098 0.019511923
0.234990922 0.286876890 0.023434444
0.263664179 0.277825166 0.024166215
0.288618402 0.270755641 0.018522479
0.318036002 0.262805598 0.011014178
0.347711758 0.257392560 0.005771127
0.372712212 0.248884571 0.002347239
0.395564157 0.245830377 0.000389879
0.425116941 0.245027694 0.000000000
0.453344373 0.245291690 0.000000000
0.468508558 0.237203324 0.000021210
0.489555158 0.229710920 0.002220500
0.511615643 0.226311277 0.001716641
0.528805834 0.221064260 0.001759896
0.586460591 0.254554030 0.042751199
0.604106832 0.244542978 0.026988622
0.744305942 0.000000000 0.144514035
0.656349963 0.234329887 0.044780815
0.661216393 0.212999367 0.020620026
0.672408350 0.199627093 0.029888216
0.716955542 0.209101547 0.048979317
0.969693853 0.000000000 0.344705777
0.969693853 0.000000000 0.344705777
0.969693853 0.000000000 0.344705777
0.990560171 0.000000000 0.580790134
0.766133921 0.036226929 0.120143491
0.774905535 0.067663259 0.110122552
0.784958602 0.099404867 0.100296180
0.942589839 0.000000000 0.237955152
0.000000000 0.522992138 0.000000000
0.000000000 0.522992138 0.000000000
0.000000000 0.522992138 0.000000000
0.168556932 0.385863245 0.000000000
0.206903845 0.370237748 0.000818389
0.245250641 0.354041389 0.003192610
0.278741006 0.341128924 0.009112094
0.288151113 0.297351666 0.017422688
0.317537093 0.288118748 0.010872073
0.346745423 0.282059058 0.006991150
0.375389306 0.278155830 0.003254913
0.403170301 0.279120608 0.000000000
0.433427667 0.281266806 0.000000000
0.459105758 0.286860305 0.000000000
0.486131729 0.289704276 0.004099975
0.516605049 0.290489499 0.019376907
0.540912888 0.291459047 0.030129743
0.556758214 0.284881596 0.016564599
0.574103281 0.276924467 0.009095479
0.594275057 0.268315540 0.004859279
0.630614872 0.272830136 0.039846896
0.646727105 0.265419747 0.020500690
0.666886523 0.263446600 0.021474097
0.727071291 0.270343305 0.128529098
0.693252886 0.235368625 0.020037826
0.735557666 0.239247599 0.045100657
0.981429145 0.000000000 0.430511342
0.981120506 0.000000000 0.427201485
0.981106011 0.000000000 0.427042171
0.983730924 0.000000000 0.455234992
0.984571687 0.000000000 0.464279883
0.985306306 0.000000000 0.473538601
0.950471273 0.000000000 0.240138836
0.000000000 0.573020608 0.000000000
0.000000000 0.567939863 0.000000000
0.000000000 0.567939863 0.000000000
0.000000000 0.567939863 0.000000000
0.000000000 0.567939863 0.000000000
0.000000000 0.567939863 0.000000000
0.000000000 0.567939863 0.000000000
0.309549801 0.367497869 0.006380315
0.341881545 0.356702457 0.009502870
0.367543576 0.346063264 0.008549806
0.392776154 0.339413312 0.007016373
0.418310908 0.331486056 0.011170615
0.442504708 0.324002442 0.012039675
0.472827825 0.328627921 0.032019655
0.498015868 0.323978334 0.032638185
0.519905120 0.321078826 0.030872781
0.531671058 0.309579294 0.005622267
0.560226336 0.316702305 0.027542452
0.579952825 0.311800464 0.021952476
0.588860098 0.294306406 0.000000000
0.653015145 0.325692644 0.111427068
0.677421111 0.321841280 0.115364329
0.701997774 0.312359499 0.117890445
0.711440529 0.301928837 0.088404408
0.723429952 0.290529930 0.063328617
0.729332240 0.274031663 0.023150976
0.981335297 0.000000000 0.429506881
0.981327773 0.000000000 0.429426349
0.981316306 0.000000000 0.429303615
0.981296703 0.000000000 0.429093807
0.981380375 0.000000000 0.430065920
0.982639454 0.000000000 0.443518530
0.988792782 0.000000000 0.537637116
0.000000000 0.613143060 0.000000000
0.000000000 0.606031338 0.000000000
0.000000000 0.606031338 0.000000000
0.000000000 0.606031338 0.000000000
0.000000000 0.606031338 0.000000000
0.000000000 0.606031338 0.000000000
0.271301519 0.414958369 0.000000000
0.305793235 0.400677715 0.003110541
0.338966361 0.387787380 0.005927220
0.367676642 0.373253948 0.005857386
0.396554979 0.371297804 0.005985602
0.424326638 0.366474415 0.005409270
0.447824942 0.361733750 0.012773933
0.471101602 0.355616575 0.019397261
0.494909169 0.352041260 0.017399176
0.516321167 0.348195742 0.014040309
0.562492924 0.368624066 0.111147060
0.584827277 0.367069184 0.112227812
0.606781767 0.361332792 0.101401183
0.630183860 0.359146392 0.103979274
0.653808920 0.357261982 0.105518882
0.672617655 0.352175525 0.095353427
0.685989745 0.341636704 0.072869715
0.697790141 0.328827797 0.043691990
0.706381146 0.315636443 0.005351085
0.709747242 0.296937917 0.000000000
0.716026426 0.271492372 0.012398309
0.729592344 0.249566378 0.024940518
0.818902415 0.288711982 0.107564140
0.841088983 0.278632711 0.124119528
0.859148851 0.261961735 0.118205281
0.972646952 0.000000000 0.336279582
0.978791992 0.000000000 0.402238225
0.000000000 0.647292225 0.000000000
0.000000000 0.598390853 0.000000000
0.000000000 0.598590268 0.000000000
0.000000000 0.598590268 0.000000000
0.000000000 0.598525941 0.000000000
0.000000000 0.598464927 0.000000000
0.267315393 0.451622817 0.000000000
0.301628986 0.436399195 0.000000000
0.338632030 0.423937552 0.009641912
0.367820421 0.412480733 0.005775543
0.393426905 0.403609009 0.002621260
0.422509644 0.400016007 0.002911158
0.447700265 0.392554539 0.002958327
0.472906958 0.384115622 0.010159753
0.496718032 0.379966662 0.011000625
0.520257843 0.374437987 0.011036923
0.542706250 0.371755854 0.012986799
0.584881110 0.392844883 0.096261278
0.609745129 0.390482131 0.099655595
0.632308475 0.388083443 0.101052966
0.649638930 0.383992941 0.088558042
0.662301056 0.376307795 0.060666482
0.672732040 0.365048369 0.022882776
0.683246805 0.349406335 0.000910560
0.689477984 0.332636244 0.000000000
0.694455043 0.312635764 0.000000000
0.707035051 0.294813350 0.001411887
0.770470610 0.317680315 0.015608946
0.816694255 0.328137249 0.094501464
0.833653673 0.313599312 0.091181178
0.843789255 0.289992541 0.066412813
0.820733258 0.249165265 0.052405397
0.974957789 0.000000000 0.373492681
0.000000000 0.671197669 0.000000000
0.000000000 0.632555035 0.000000000
0.000000000 0.632488919 0.000000000
0.000000000 0.632539447 0.000000000
0.000000000 0.632467406 0.000000000
0.000000000 0.632467406 0.000000000
0.256306138 0.483839362 0.000000000
0.294665747 0.467638374 0.000000000
0.334382573 0.451485722 0.003861922
0.365322626 0.440049290 0.004070673
0.396554813 0.430557190 0.002708028
0.423919978 0.423178584 0.003327053
0.450523138 0.417207759 0.003673914
0.468855092 0.403864702 0.000000000
0.488127618 0.392533750 0.000000000
0.508842154 0.380676547 0.000000000
0.525001028 0.372134796 0.000000000
0.589129069 0.423139792 0.090624426
0.611850993 0.420325461 0.097361956
0.630310051 0.411245667 0.079775573
0.643672969 0.401615671 0.046871651
0.652605177 0.389896942 0.007473612
0.662221649 0.376108220 0.000000000
0.671110946 0.357789444 0.000000000
0.676564395 0.339177336 0.000000000
0.690035904 0.324478622 0.000000000
0.715095426 0.316254471 0.000000000
0.798889636 0.375107963 0.076972229
0.842554846 0.377786294 0.171810618
0.840477436 0.356834754 0.101681002
0.821310815 0.306446949 0.030722593
0.811768033 0.265997468 0.043363043
0.971381327 0.000000000 0.347361438
0.000000000 0.694705410 0.000000000
0.000000000 0.671181834 0.000000000
0.000000000 0.671091414 0.000000000
0.000000000 0.671091414 0.000000000
0.000000000 0.671017141 0.000000000
0.000000000 0.671017141 0.000000000
0.254376687 0.514284524 0.000000000
0.294142037 0.498696966 0.000000000
0.330341519 0.484381158 0.000000000
0.363241651 0.471061506 0.000000000
0.390780650 0.453196707 0.000000000
0.415184120 0.441233652 0.000000000
0.438678090 0.429836823 0.000000000
0.460124256 0.418206367 0.000000000
0.480016117 0.404887862 0.000000000
0.499539341 0.392434965 0.000000000
0.515381857 0.383388699 0.000000000
0.591135462 0.451028502 0.085482726
0.609558668 0.438772788 0.063942799
0.625545925 0.427138789 0.031951136
0.634453563 0.413268694 0.000000000
0.644001137 0.397177842 0.000000000
0.651983047 0.381994737 0.000000000
0.658432688 0.365489694 0.000000000
0.674062016 0.353018743 0.000000000
0.697780738 0.345680318 0.000000000
0.719137993 0.339264584 0.000000000
0.740055776 0.334245256 0.000000000
0.826559623 0.401362762 0.101798183
0.820016769 0.369728053 0.020191806
0.971559425 0.000000000 0.346664080
0.971559425 0.000000000 0.346664080
0.976648875 0.000000000 0.373623249
0.000000000 0.714340068 0.000000000
0.000000000 0.706110865 0.000000000
0.000000000 0.706037028 0.000000000
0.000000000 0.705963192 0.000000000
0.000000000 0.705963192 0.000000000
0.000000000 0.705889420 0.000000000
0.254969372 0.542974971 0.000000000
0.289718876 0.516530105 0.000000000
0.320357507 0.500547623 0.000000000
0.353117369 0.484349581 0.000000000
0.379991385 0.470228307 0.000000000
0.404645103 0.457865438 0.000000000
0.429274639 0.445202268 0.000000000
0.451208282 0.430575257 0.000000000
0.473463097 0.416368695 0.000000000
0.492244274 0.408523213 0.000000000
0.514383592 0.405461855 0.000000000
0.586844128 0.466933233 0.042635534
0.605179715 0.453016498 0.011687843
0.616123717 0.438903776 0.000000000
0.626005313 0.421138100 0.000000000
0.633681417 0.404592097 0.000000000
0.640503328 0.388527340 0.000000000
0.657781920 0.383046162 0.000000000
0.681191283 0.378158595 0.000000000
0.703825958 0.369708165 0.000000000
0.725871859 0.361944902 0.000000000
0.743243383 0.358400089 0.000000000
0.968897815 0.000000000 0.323783984
0.968897815 0.000000000 0.323783984
0.968897815 0.000000000 0.323783984
0.968897815 0.000000000 0.323783984
0.968897815 0.000000000 0.323783984
0.000000000 0.738260498 0.000000000
0.000000000 0.738179396 0.000000000
0.000000000 0.738098293 0.000000000
0.000000000 0.738017242 0.000000000
0.000000000 0.738017242 0.000000000
0.000000000 0.737936087 0.000000000
0.250350570 0.547545161 0.000000000
0.281721404 0.530566987 0.000000000
0.311645701 0.515042591 0.000000000
0.345159449 0.498807582 0.000000000
0.371309238 0.484186375 0.000000000
0.395250653 0.469730807 0.000000000
0.420680073 0.455431904 0.000000000
0.445259948 0.445272855 0.000000000
0.469949704 0.438217123 0.000000000
0.492864239 0.434475043 0.000000000
0.515976357 0.430498260 0.000000000
0.579657848 0.480212461 0.000000000
0.592178374 0.463330171 0.000000000
0.604716283 0.445343654 0.000000000
0.613175565 0.428281887 0.000000000
0.620961926 0.412385899 0.000000000
0.642048115 0.409237993 0.000000000
0.665362996 0.405165356 0.000000000
0.688287488 0.400582133 0.000000000
0.710319370 0.392450094 0.000000000
0.728742647 0.387117495 0.000000000
0.746778273 0.381152267 0.000000000
0.979822082 0.009677242 0.398147202
0.979822082 0.009677242 0.398147202
0.979822082 0.009677242 0.398147202
0.979822082 0.009677242 0.398147202
0.973876810 0.000000000 0.329995321
0.000000000 0.764408103 0.000000000
0.000000000 0.764333982 0.000000000
0.000000000 0.764259856 0.000000000
0.000000000 0.764259856 0.000000000
0.000000000 0.764185772 0.000000000
0.000000000 0.764185772 0.000000000
0.246459501 0.559937005 0.000000000
0.273854013 0.544893736 0.000000000
0.303482735 0.529139487 0.000000000
0.335684187 0.512480196 0.000000000
0.364490222 0.499767872 0.000000000
0.392438760 0.488580204 0.000000000
0.419564079 0.480632234 0.000000000
0.445465253 0.473884630 0.000000000
0.469499365 0.468761392 0.000000000
0.495368032 0.463250326 0.000000000
0.517522994 0.459216121 0.000000000
0.568797225 0.487797036 0.000000000
0.580722205 0.469151074 0.000000000
0.591311996 0.450283225 0.000000000
0.605497442 0.440927150 0.000000000
0.626478821 0.437535853 0.000000000
0.648648485 0.432238144 0.000000000
0.672241854 0.428212480 0.000000000
0.695578470 0.422341949 0.000000000
0.715022467 0.417069711 0.000000000
0.733847087 0.411124071 0.000000000
0.753111781 0.404188008 0.000000000
0.982574617 0.000000000 0.429249269
0.788449386 0.310625273 0.019555093
0.982624365 0.000000000 0.430921766
0.982558373 0.000000000 0.428528367
0.963871679 0.000000000 0.267505042
0.000000000 0.789718324 0.000000000
0.000000000 0.789655583 0.000000000
0.000000000 0.789592837 0.000000000
0.000000000 0.789530114 0.000000000
0.000000000 0.789530114 0.000000000
0.000000000 0.789530114 0.000000000
0.240297294 0.583908377 0.000000000
0.270660224 0.570060140 0.000000000
0.301518366 0.555769288 0.000000000
0.333521310 0.542359506 0.000000000
0.365164928 0.529257087 0.000000000
0.395197335 0.516475670 0.000000000
0.420920891 0.506485905 0.000000000
0.446904911 0.498953200 0.000000000
0.473933528 0.492499001 0.000000000
0.498982122 0.487019884 0.000000000
0.521532846 0.482893386 0.000000000
0.542600249 0.478596921 0.000000000
0.567523520 0.475510306 0.000000000
0.587140741 0.471044449 0.000000000
0.610603459 0.467486588 0.000000000
0.632618808 0.459355976 0.000000000
0.655747468 0.454733732 0.000000000
0.680522722 0.449233283 0.000000000
0.703148297 0.444428457 0.000000000
0.721981051 0.440998260 0.000000000
0.739040556 0.437756139 0.000000000
0.975084402 0.169582438 0.271803080
0.975084696 0.169554629 0.271815424
0.975085186 0.169508272 0.271835998
0.976021636 0.246936404 0.349132915
0.958294241 0.244648503 0.162586037
0.959747258 0.103089565 0.215206713
0.000000000 0.813906607 0.000000000
0.000000000 0.813854991 0.000000000
0.000000000 0.813803373 0.000000000
0.000000000 0.813803373 0.000000000
0.000000000 0.813750293 0.000000000
0.216946058 0.660375551 0.000000000
0.247564014 0.643505739 0.000000000
0.270500017 0.599748279 0.000000000
0.300058084 0.586447458 0.000000000
0.332481283 0.573802662 0.000000000
0.368223101 0.560069108 0.000000000
0.395175222 0.546902169 0.000000000
0.421647912 0.533316283 0.000000000
0.448443626 0.524260871 0.000000000
0.477123147 0.517882684 0.000000000
0.500125520 0.513263249 0.000000000
0.575979146 0.592714534 0.004905967
0.619018555 0.608578871 0.094631532
0.646655711 0.602886315 0.099607181
0.591928277 0.493928504 0.000000000
0.615963579 0.487067341 0.000000000
0.638544075 0.482251840 0.000000000
0.663036356 0.477095125 0.000000000
0.688900933 0.472773551 0.000000000
0.709629673 0.468170521 0.000000000
0.726579895 0.464917057 0.000000000
0.820306133 0.549764839 0.174315351
0.859219782 0.569851574 0.174654881
0.858623255 0.531173465 0.055517426
0.939501535 0.277415453 0.113945519
0.939601982 0.278805324 0.113528353
0.965366682 0.429795890 0.276975537
0.954396183 0.246014467 0.150502080
0.000000000 0.876427930 0.000000000
0.000000000 0.851991079 0.000000000
0.000000000 0.851974666 0.000000000
0.000000000 0.851942271 0.000000000
0.187782909 0.707540858 0.000000000
0.217649355 0.695683554 0.000000000
0.250833974 0.686338694 0.000000000
0.288782904 0.677731811 0.000000000
0.297244023 0.616081767 0.000000000
0.327585824 0.603953806 0.000000000
0.360780362 0.591208443 0.000000000
0.390326419 0.580406872 0.000000000
0.421048682 0.569091383 0.000000000
0.449202361 0.556601359 0.000000000
0.475678063 0.547244151 0.000000000
0.548983660 0.625748368 0.000000000
0.590370948 0.644762137 0.067364028
0.559656616 0.550228148 0.000000000
0.635471297 0.611904312 0.000000000
0.658869574 0.600449272 0.000000000
0.701708982 0.618204557 0.078198001
0.726800838 0.610245015 0.079927693
0.759325069 0.617130169 0.139663457
0.774517680 0.589910154 0.075146341
0.785519180 0.573856081 0.039859102
0.797062208 0.558961339 0.019170666
0.831947537 0.575264361 0.081524412
0.841977391 0.558589049 0.035856543
0.854764480 0.544108059 0.020595555
0.864368759 0.522254491 0.000000000
0.899537018 0.555655457 0.100791916
0.922833587 0.546773897 0.113256655
0.933561670 0.350385072 0.072931763
0.000000000 0.897843693 0.000000000
0.000000000 0.874312359 0.000000000
0.000000000 0.874299412 0.000000000
