Samples/Panasonic-Standard/Generated-LUTs/LEICASTD.cube
TITLE "S1RII Standard - L-Log_to_Classic_VLog"
#LUMIXPHOTOSTYLE STD
LUT_3D_SIZE 33
0.014310044 0.010799237 0.013164109
0.065630435 0.033683340 0.028688151
0.097275519 0.041984354 0.029126904
0.152306911 0.053624167 0.026202519
0.204779203 0.059487050 0.021926174
0.253950140 0.057142836 0.011901853
0.306411597 0.046889471 0.003393837
0.355571824 0.029755473 0.000269240
0.400424345 0.014848451 0.000008626
0.437896340 0.004861319 0.000000000
0.466360384 0.000455296 0.000000000
0.496813340 0.000085042 0.000000000
0.522576735 0.000004264 0.000000000
0.547216401 0.000000000 0.000000000
0.567567830 0.000000000 0.000000000
0.503719373 0.000123161 0.000000000
0.536908972 0.000022206 0.000000000
0.579904155 0.000000000 0.000000000
0.621371634 0.000000000 0.000000000
0.653485672 0.000000000 0.000000000
0.673406008 0.000000000 0.000000000
0.687199524 0.000000000 0.000000000
0.700447022 0.000000000 0.000000000
0.712063579 0.000000000 0.000000000
0.722191910 0.000000000 0.000000000
0.552818893 0.000636648 0.000000000
0.721367523 0.000000000 0.000000000
0.721367523 0.000000000 0.000000000
0.798560882 0.000000000 0.103600177
0.798874640 0.000000000 0.104168251
0.798876122 0.000000000 0.104172421
0.772198368 0.000000000 0.001677380
0.772195595 0.000000000 0.001676609
0.023575363 0.039925200 0.032656533
0.053401674 0.040225078 0.032415697
0.094230674 0.042092278 0.029902187
0.129251342 0.050066536 0.027997216
0.161971661 0.055490701 0.026853934
0.193208853 0.059444372 0.025389153
0.228767726 0.059922642 0.018548184
0.253137851 0.060158871 0.013634797
0.286663084 0.055320315 0.008067279
0.315278423 0.049850739 0.004211727
0.345966781 0.041833045 0.001317396
0.377219817 0.031345732 0.000662232
0.402462134 0.022694167 0.000091458
0.426907634 0.014567077 0.000000000
0.446785750 0.010461426 0.000000000
0.466600179 0.006512120 0.000000000
0.536908972 0.000022206 0.000000000
0.579904155 0.000000000 0.000000000
0.621371634 0.000000000 0.000000000
0.653485672 0.000000000 0.000000000
0.673406008 0.000000000 0.000000000
0.687199524 0.000000000 0.000000000
0.700447022 0.000000000 0.000000000
0.712063579 0.000000000 0.000000000
0.722191910 0.000000000 0.000000000
0.552818893 0.000636648 0.000000000
0.721367523 0.000000000 0.000000000
0.721367523 0.000000000 0.000000000
0.798560882 0.000000000 0.103600177
0.798874640 0.000000000 0.104168251
0.798876122 0.000000000 0.104172421
0.772198368 0.000000000 0.001677380
0.772195595 0.000000000 0.001676609
0.000057655 0.086795838 0.047309759
0.033241004 0.052224626 0.037171834
0.070737218 0.053826122 0.035890750
0.107852685 0.057486568 0.034082675
0.143210034 0.061438256 0.031581072
0.178638825 0.063562485 0.028841322
0.211725187 0.064313389 0.023498329
0.241977808 0.064271091 0.017091631
0.267241319 0.063412107 0.012178715
0.300291051 0.057683184 0.007058278
0.327691092 0.053226706 0.003301688
0.355649687 0.045708586 0.001556354
0.387812667 0.034967642 0.000539115
0.410028141 0.027715409 0.000088119
0.431980848 0.020624846 0.000000000
0.452836212 0.013842319 0.000000000
0.536908972 0.000022206 0.000000000
0.579904155 0.000000000 0.000000000
0.505961456 0.003449949 0.000000000
0.518895199 0.002739174 0.000000000
0.673406008 0.000000000 0.000000000
0.687199524 0.000000000 0.000000000
0.700447022 0.000000000 0.000000000
0.712063579 0.000000000 0.000000000
0.722191910 0.000000000 0.000000000
0.552818893 0.000636648 0.000000000
0.721367523 0.000000000 0.000000000
0.721367523 0.000000000 0.000000000
0.798560882 0.000000000 0.103600177
0.798874640 0.000000000 0.104168251
0.798876122 0.000000000 0.104172421
0.772198368 0.000000000 0.001677380
0.763223618 0.000000000 0.000784853
0.000000000 0.121171459 0.052026742
0.014317293 0.078431589 0.044939153
0.055459519 0.073927416 0.042192097
0.096888857 0.072660081 0.039341795
0.136093376 0.071918076 0.036054069
0.171716198 0.071544061 0.032178832
0.206877703 0.070136866 0.025887356
0.235807483 0.069893069 0.019581459
0.261623212 0.069168395 0.014155567
0.287479429 0.066768194 0.010205865
0.312254251 0.063957859 0.006471306
0.340653939 0.058843926 0.002595402
0.375737581 0.045084365 0.001238766
0.397912997 0.040075490 0.000443604
0.419688907 0.034579585 0.000000000
0.439960559 0.027691957 0.000000000
0.459512683 0.021588374 0.000000000
0.479241054 0.016081887 0.000000000
0.494732924 0.012770005 0.000000000
0.510107281 0.008881345 0.000000000
0.673288718 0.000000000 0.000000000
0.687199524 0.000000000 0.000000000
0.700447022 0.000000000 0.000000000
0.712063579 0.000000000 0.000000000
0.722191910 0.000000000 0.000000000
0.782899442 0.000000000 0.016643604
0.797194703 0.000000000 0.100103999
0.797786885 0.000000000 0.102153669
0.797161948 0.000000000 0.099984439
0.796972587 0.000000000 0.099109014
0.796361824 0.000000000 0.096632226
0.798103214 0.000000000 0.102811154
0.797518536 0.000000000 0.101286053
0.000000000 0.155680485 0.051996474
0.002592802 0.100146511 0.049437611
0.043039820 0.093332552 0.046637298
0.094399695 0.089383547 0.043002454
0.130790663 0.088912602 0.039923332
0.168252372 0.086138098 0.035450995
0.200033574 0.085157244 0.030412589
0.227053694 0.083678979 0.025192705
0.254509095 0.082714159 0.019156821
0.281799186 0.080597318 0.013479790
0.306134123 0.077877379 0.008802221
0.334240265 0.073554678 0.004683314
0.363642240 0.065687459 0.002201111
0.385390378 0.062307434 0.000924809
0.406391558 0.058005177 0.000182612
0.426290297 0.050946037 0.000000000
0.446535296 0.042697037 0.000000000
0.466208716 0.035661083 0.000000000
0.485002530 0.028121074 0.000000000
0.503537687 0.023106393 0.000000000
0.673288718 0.000000000 0.000000000
0.687199524 0.000000000 0.000000000
0.700447022 0.000000000 0.000000000
0.712063579 0.000000000 0.000000000
0.722098670 0.000000000 0.000000000
0.791377384 0.000000000 0.067072752
0.793069813 0.000000000 0.078060241
0.788346143 0.000000000 0.040663173
0.790475057 0.000000000 0.059557835
0.795836074 0.000000000 0.094205929
0.796612575 0.000000000 0.097573707
0.797533858 0.000000000 0.101411955
0.765582461 0.000000000 0.000098303
0.000000000 0.191098801 0.046169681
0.000178367 0.124194038 0.051222991
0.027322129 0.115605175 0.049546650
0.078232722 0.110577110 0.046701640
0.119265183 0.106681249 0.043577057
0.155890166 0.103185144 0.039523709
0.189679938 0.100258560 0.034654991
0.217291598 0.097893031 0.029503928
0.246301180 0.095567885 0.024114448
0.276843163 0.091651115 0.017460741
0.303139963 0.088412146 0.011852682
0.329258245 0.085927596 0.006450514
0.349385132 0.084529135 0.004822772
0.372658186 0.080712927 0.003001747
0.395197898 0.078055354 0.001061769
0.417131955 0.072419424 0.000000000
0.440930548 0.067557896 0.000000000
0.459398482 0.058170550 0.000000000
0.478833599 0.057353922 0.000000000
0.495653838 0.045147148 0.000000000
0.673288718 0.000000000 0.000000000
0.687199524 0.000000000 0.000000000
0.700447022 0.000000000 0.000000000
0.712063579 0.000000000 0.000000000
0.722098670 0.000000000 0.000000000
0.787016098 0.000000000 0.028982973
0.787016098 0.000000000 0.028982973
0.787016098 0.000000000 0.028982973
0.787016098 0.000000000 0.028982973
0.787016098 0.000000000 0.028982973
0.787016098 0.000000000 0.028982973
0.787016098 0.000000000 0.028982973
0.785832519 0.000008591 0.027061352
0.000000000 0.222650097 0.037427076
0.000000000 0.143625573 0.051900720
0.000000000 0.193648911 0.044421338
0.061493918 0.131257300 0.048773971
0.101795169 0.126298122 0.045867859
0.138172722 0.123362758 0.042167742
0.171791509 0.118853493 0.038103350
0.206853413 0.116297082 0.032372347
0.240495416 0.112085170 0.026074681
0.272513733 0.109412873 0.018352797
0.297191659 0.108114181 0.012975392
0.319700262 0.104277461 0.008196962
0.344480470 0.104276991 0.005162494
0.369665400 0.098707407 0.002647953
0.391191883 0.094200833 0.001172437
0.412258366 0.089574736 0.000000000
0.434306908 0.085143036 0.000000000
0.453014948 0.078914699 0.000000000
0.473076868 0.090333031 0.000290613
0.491174900 0.089873784 0.000453483
0.673288718 0.000000000 0.000000000
0.687199524 0.000000000 0.000000000
0.700447022 0.000000000 0.000000000
0.712063579 0.000000000 0.000000000
0.787016098 0.000000000 0.028982973
0.787016098 0.000000000 0.028982973
0.787016098 0.000000000 0.028982973
0.787016098 0.000000000 0.028982973
0.787016098 0.000000000 0.028982973
0.787016098 0.000000000 0.028982973
0.787016098 0.000000000 0.028982973
0.775702539 0.000227267 0.013817653
0.759254280 0.000000000 0.001019382
0.000000000 0.256322373 0.023607888
0.000000000 0.252151809 0.025295688
0.000000000 0.227745173 0.034571174
0.043318135 0.151322813 0.048822823
0.090254233 0.144843151 0.046854959
0.127117158 0.141012754 0.043732004
0.163532170 0.137190136 0.039532220
0.194037563 0.133639744 0.034729288
0.229867231 0.129502588 0.028731029
0.262227798 0.126506568 0.021140554
0.291637869 0.121806272 0.014093524
0.315315841 0.119725364 0.008835709
0.340999275 0.117431736 0.005672203
0.364955073 0.115829617 0.003260206
0.386400680 0.111245415 0.001293819
0.407573073 0.106941097 0.000000000
0.426382120 0.102961320 0.000000000
0.444369741 0.097764324 0.000000000
0.466965071 0.117669208 0.000650156
0.484516401 0.107307812 0.000026151
0.673288718 0.000000000 0.000000000
0.523639418 0.095235902 0.000000000
0.535342559 0.075934863 0.000000000
0.549124694 0.065487214 0.000000000
0.570754186 0.067939604 0.000000000
0.787016098 0.000000000 0.028982973
0.787016098 0.000000000 0.028982973
0.787016098 0.000000000 0.028982973
0.797417165 0.000000000 0.099186783
0.631688129 0.001264433 0.000000000
0.638279713 0.002261893 0.000000000
0.646284412 0.005582953 0.000000000
0.772629520 0.001211086 0.003949087
0.000000000 0.311763216 0.069654692
0.000000000 0.311763216 0.069654692
0.000000000 0.311763216 0.069654692
0.026027056 0.189817193 0.046251264
0.064950164 0.183547980 0.045538593
0.111204112 0.177202742 0.043264931
0.152279912 0.171615926 0.039182918
0.185092276 0.150216993 0.033554734
0.221955106 0.145422052 0.028493773
0.255373625 0.142246834 0.022152795
0.284176986 0.139428863 0.014979138
0.310161506 0.139407354 0.008416274
0.337148086 0.139562031 0.006112290
0.358560249 0.142444708 0.003416512
0.381476850 0.143654715 0.001414390
0.406605570 0.143161655 0.002114109
0.426882813 0.142992022 0.002225012
0.444203275 0.136833806 0.000370859
0.461047045 0.129876420 0.000062388
0.479507704 0.121689181 0.000000000
0.502124245 0.123404627 0.000169504
0.518257253 0.114832779 0.000000000
0.534246056 0.111140355 0.000000000
0.566972451 0.126509592 0.029537262
0.562571524 0.086710788 0.000000000
0.585616446 0.085475738 0.000000000
0.792476338 0.000000000 0.073671496
0.792363137 0.000000000 0.073095070
0.792364000 0.000000000 0.073135026
0.793842330 0.000000000 0.083232172
0.794126043 0.000000000 0.085178215
0.794671693 0.000000000 0.087894549
0.777767029 0.001952704 0.004895260
0.000000000 0.345626329 0.069275877
0.000000000 0.342293902 0.068481590
0.000000000 0.342293902 0.068481590
0.000000000 0.342293902 0.068481590
0.000000000 0.342293902 0.068481590
0.000000000 0.342293902 0.068481590
0.000000000 0.342293902 0.068481590
0.177602043 0.189302109 0.032346977
0.216576642 0.184188543 0.029233306
0.248020075 0.178692091 0.023914144
0.277791495 0.175443246 0.018434183
0.305790123 0.171015892 0.012911152
0.332239434 0.166443344 0.008402834
0.358336102 0.169757456 0.010184063
0.383227752 0.166180701 0.007641640
0.403750113 0.163311003 0.005286078
0.420519857 0.153693450 0.000503123
0.441423758 0.158672945 0.001018780
0.461157578 0.153477040 0.000558141
0.476108133 0.139063069 0.000000000
0.506985614 0.166039660 0.033337995
0.526042545 0.162082280 0.032263040
0.546400582 0.154587734 0.030572724
0.559158473 0.142076654 0.006763782
0.573801608 0.128679669 0.000308273
0.583570981 0.110184794 0.000000000
0.792397020 0.000000000 0.072988697
0.792390660 0.000000000 0.072933953
0.792380969 0.000000000 0.072850523
0.792364401 0.000000000 0.072707903
0.792126031 0.000000000 0.069880330
0.793056316 0.000000000 0.075692217
0.797516094 0.000000000 0.095554798
0.000000000 0.371037387 0.067255198
0.000000000 0.366593700 0.065586977
0.000000000 0.366593700 0.065586977
0.000000000 0.366593700 0.065586977
0.000000000 0.366593700 0.065586977
0.000000000 0.366593700 0.065586977
0.119033298 0.216407226 0.028850509
0.163212611 0.210006345 0.026022052
0.204880612 0.204036301 0.023929626
0.241333419 0.196381645 0.020289187
0.272691568 0.196045130 0.015995485
0.304589970 0.193376245 0.014546355
0.328826614 0.190757911 0.011503301
0.353205365 0.187207188 0.008146969
0.377713313 0.184491121 0.005897344
0.399307765 0.181248469 0.003914228
0.426323742 0.198549289 0.042473153
0.445859961 0.196735823 0.041691929
0.466532066 0.191171693 0.033162301
0.486282472 0.188837167 0.033633653
0.506464163 0.186358208 0.033116852
0.523712030 0.180547835 0.023253367
0.538315543 0.169480115 0.005139293
0.552534059 0.157083863 0.000622597
0.565777334 0.142620384 0.000009279
0.576986546 0.128402137 0.000000000
0.591772628 0.109759953 0.000000000
0.610709794 0.090725568 0.000000000
0.648693886 0.120154195 0.005695679
0.666554301 0.112774962 0.014564127
0.683372408 0.095077945 0.005868383
0.801518103 0.014277711 0.075790208
0.790525124 0.000000000 0.057373547
0.000000000 0.392652353 0.044586709
0.000000000 0.363720335 0.000770764
0.000000000 0.363845622 0.000769514
0.000000000 0.363845622 0.000769514
0.000000000 0.363804833 0.000770005
0.000000000 0.363766147 0.000770471
0.099613339 0.238445187 0.023501424
0.146603651 0.231940970 0.021249604
0.192487000 0.226577334 0.019054541
0.229984319 0.221303845 0.016652543
0.261406377 0.217023724 0.011868588
0.293807251 0.215117561 0.010937489
0.323413361 0.210644688 0.010455079
0.350574146 0.205678263 0.007043755
0.374634528 0.202623908 0.005566793
0.398383105 0.198406783 0.004525637
0.419860629 0.196062980 0.003906494
0.445218254 0.212460580 0.032848217
0.466225521 0.210188879 0.033925818
0.485523501 0.207812488 0.033757136
0.502554060 0.202743504 0.023672617
0.518067941 0.193832496 0.004618792
0.532108363 0.183500702 0.001078281
0.546265137 0.169249524 0.000018928
0.558092268 0.156362023 0.000000000
0.572249138 0.143647609 0.000000000
0.592951667 0.130925989 0.000000000
0.619645295 0.137047925 0.000000000
0.648691135 0.148965073 0.006649587
0.664125612 0.135255897 0.004269682
0.676635752 0.110484035 0.001066891
0.680357158 0.080237017 0.000000000
0.789700024 0.000203136 0.048399711
0.000000000 0.408290104 0.028167501
0.000000000 0.385461814 0.000842904
0.000000000 0.385419960 0.000841351
0.000000000 0.385451103 0.000842638
0.000000000 0.385405742 0.000840916
0.000000000 0.385405742 0.000840916
0.073135276 0.258601731 0.017784713
0.125827016 0.251501067 0.014694142
0.179561876 0.244162150 0.012852217
0.218634821 0.238618805 0.011341359
0.257360345 0.234485193 0.009299535
0.289151319 0.230187724 0.008665061
0.319735505 0.226667523 0.008350565
0.345385538 0.218893719 0.004785319
0.368343208 0.211847913 0.001454074
0.392488247 0.204154223 0.000399173
0.412280683 0.199026796 0.000057368
0.445444587 0.232524377 0.032911171
0.465638327 0.230462502 0.035044806
0.484596524 0.221728743 0.021345529
0.500452610 0.212678666 0.005872786
0.514288599 0.201543050 0.000962064
0.529460386 0.190621826 0.000017184
0.543367738 0.176950421 0.000000000
0.556922499 0.165390031 0.000000000
0.576564585 0.155269841 0.000000000
0.598901184 0.147065755 0.000000000
0.633496704 0.185666679 0.011395281
0.662020722 0.199135953 0.073367094
0.669543602 0.169375448 0.017596787
0.667825890 0.123001553 0.000014646
0.681912086 0.097405836 0.000000000
0.791147416 0.000696281 0.049869720
0.000000000 0.423869937 0.011413175
0.000000000 0.409943338 0.001752778
0.000000000 0.409886370 0.001750532
0.000000000 0.409886370 0.001750532
0.000000000 0.409839593 0.001748683
0.000000000 0.409839593 0.001748683
0.060097015 0.278071218 0.012036097
0.111983285 0.271916893 0.009856550
0.162706347 0.265646959 0.008391234
0.206427305 0.259271502 0.007618308
0.244728263 0.249892056 0.006041061
0.277305380 0.243523341 0.004510952
0.307356323 0.236641376 0.002921963
0.335949976 0.229792039 0.001657531
0.362548031 0.222198426 0.000626882
0.386658018 0.214918347 0.000030892
0.408014459 0.209982176 0.000000000
0.443224971 0.250976232 0.033770722
0.464744148 0.241300573 0.018814475
0.483361055 0.231678738 0.006945358
0.497468718 0.219726951 0.000817972
0.511970498 0.207510050 0.000019312
0.526912950 0.197011269 0.000000000
0.541628560 0.187320566 0.000000000
0.561041034 0.178471173 0.000000000
0.581951036 0.171038882 0.000000000
0.600936619 0.164553085 0.000000000
0.619311882 0.158843084 0.000000000
0.656181619 0.204645506 0.029376683
0.661172309 0.173228535 0.000387479
0.792429787 0.000863484 0.055346811
0.792429787 0.000863484 0.055346811
0.800944297 0.007693949 0.080813233
0.000000000 0.437018428 0.003800917
0.000000000 0.432152396 0.001153860
0.000000000 0.432105534 0.001155716
0.000000000 0.432058672 0.001157572
0.000000000 0.432058672 0.001157572
0.000000000 0.432011851 0.001159427
0.050555945 0.296677513 0.006463356
0.100437034 0.284620469 0.005929631
0.145536936 0.277178368 0.004765506
0.193144357 0.269638440 0.005112055
0.229452807 0.262301460 0.003119179
0.263199085 0.256333464 0.001891986
0.296836972 0.249341284 0.000941949
0.327003625 0.240370556 0.000280781
0.358247707 0.232648892 0.000791332
0.382105302 0.228622704 0.000000000
0.405232202 0.226329577 0.000000000
0.440735768 0.260827323 0.015534191
0.463239533 0.250130114 0.005477764
0.479912598 0.240158760 0.000943749
0.494878044 0.227026092 0.000058258
0.508895201 0.215559859 0.000000000
0.524853117 0.206475871 0.000000000
0.544712795 0.202864341 0.000000000
0.565455368 0.197139139 0.000000000
0.585707743 0.189110324 0.000000000
0.605054342 0.181450027 0.000000000
0.621493562 0.177660075 0.000000000
0.796344662 0.002559465 0.065637860
0.796344662 0.002559465 0.065637860
0.796344662 0.002559465 0.065637860
0.796344662 0.002559465 0.065637860
0.796344662 0.002559465 0.065637860
0.000000000 0.452772931 0.001425825
0.000000000 0.452721207 0.001424688
0.000000000 0.452669482 0.001423551
0.000000000 0.452617791 0.001422415
0.000000000 0.452617791 0.001422415
0.000000000 0.452566034 0.001421277
0.044191060 0.301916251 0.002827288
0.086646495 0.295264196 0.004345173
0.130058918 0.288286867 0.003009955
0.180497331 0.280890554 0.003553740
0.218391237 0.273770253 0.001923676
0.252690190 0.266286945 0.000519944
0.289159176 0.259284981 0.000072719
0.320598349 0.253375901 0.000037670
0.350588790 0.249179569 0.000006521
0.377902596 0.247176305 0.000000000
0.401861626 0.243998871 0.000000000
0.437000002 0.269920392 0.003387696
0.455357459 0.259214983 0.000543715
0.474430931 0.247547374 0.000020239
0.490417476 0.236371389 0.000000000
0.506806305 0.227448789 0.000000000
0.526303986 0.223733493 0.000000000
0.548315564 0.219078075 0.000000000
0.570545551 0.214206037 0.000000000
0.590070328 0.206385405 0.000000000
0.607094465 0.201343149 0.000000000
0.623896309 0.195493613 0.000000000
0.831308777 0.077741245 0.120822325
0.831308777 0.077741245 0.120822325
0.831308777 0.077741245 0.120822325
0.831308777 0.077741245 0.120822325
0.814135666 0.037147085 0.090864905
0.000000000 0.469611482 0.001563676
0.000000000 0.469564073 0.001562894
0.000000000 0.469516661 0.001562112
0.000000000 0.469516661 0.001562112
0.000000000 0.469469277 0.001561331
0.000000000 0.469469277 0.001561331
0.034914720 0.312297745 0.001126304
0.073074343 0.306529427 0.001751496
0.117318371 0.300133462 0.001537191
0.166412737 0.292432957 0.001418622
0.208970978 0.286674362 0.001645555
0.245532667 0.280901665 0.000398470
0.280445027 0.277319383 0.000052421
0.313291196 0.274273573 0.000042941
0.341838368 0.271323411 0.000014467
0.372268948 0.267810960 0.000000000
0.397762631 0.265097749 0.000000000
0.430410461 0.278015186 0.000283549
0.449473742 0.266566238 0.000000000
0.469208002 0.255250195 0.000000000
0.488996406 0.250562164 0.000000000
0.508617366 0.246820550 0.000000000
0.529121917 0.241220536 0.000000000
0.551637172 0.236743582 0.000000000
0.574513670 0.230824757 0.000000000
0.593280012 0.225652971 0.000000000
0.610498540 0.220034680 0.000000000
0.627435325 0.212942150 0.000000000
0.838524973 0.102795467 0.125459150
0.662585465 0.135766612 0.000000000
0.838581650 0.103109980 0.126002432
0.838253961 0.101771958 0.125111336
0.810992365 0.036827875 0.059991609
0.000000000 0.486366703 0.001456475
0.000000000 0.486324477 0.001456885
0.000000000 0.486282247 0.001457295
0.000000000 0.486240034 0.001457706
0.000000000 0.486240034 0.001457706
0.000000000 0.486240034 0.001457706
0.017809703 0.328280814 0.000910348
0.057682215 0.323351597 0.000362017
0.103550543 0.318117508 0.000030722
0.150702833 0.312257217 0.000242833
0.197360026 0.306486405 0.000611249
0.239490490 0.300321282 0.000156278
0.273318563 0.295167396 0.000028544
0.306920382 0.291756959 0.000032280
0.340007674 0.288367411 0.000015247
0.369378345 0.284909435 0.000000000
0.395270304 0.282094136 0.000000000
0.419513369 0.279199530 0.000000000
0.443909965 0.275949566 0.000000000
0.465499305 0.273128430 0.000000000
0.488558891 0.269920227 0.000000000
0.511014627 0.263317151 0.000000000
0.532743246 0.258442223 0.000000000
0.556259692 0.252597374 0.000000000
0.578024794 0.247364474 0.000000000
0.596781658 0.243798728 0.000000000
0.612723779 0.240232847 0.000000000
0.845257810 0.147452005 0.075097366
0.845254606 0.147439854 0.075101795
0.845249264 0.147419599 0.075109175
0.858726644 0.195740963 0.118524970
0.837740651 0.135192985 0.021263126
0.824154780 0.081487511 0.045631805
0.000000000 0.502702393 0.001311870
0.000000000 0.502667509 0.001312244
0.000000000 0.502632622 0.001312619
0.000000000 0.502632622 0.001312619
0.000000000 0.502596748 0.001313004
0.002402832 0.367394646 0.000094354
0.014407605 0.361485239 0.000488047
0.040710776 0.342359483 0.000318825
0.084371568 0.337546017 0.000000716
0.133760020 0.333106808 0.000000000
0.186525880 0.327207715 0.000000000
0.228024651 0.321049349 0.000000000
0.264967273 0.313532452 0.000003817
0.300108273 0.309178695 0.000008864
0.336650145 0.306823319 0.000011233
0.363336552 0.303936145 0.000000000
0.403880946 0.347577446 0.013185500
0.436640034 0.359246494 0.060552297
0.465913580 0.355662452 0.064623766
0.465050392 0.289542167 0.000000000
0.489335213 0.283917622 0.000000000
0.512124229 0.279985864 0.000000000
0.536273043 0.275392206 0.000000000
0.560060637 0.270094966 0.000000000
0.580456358 0.265348630 0.000000000
0.597428635 0.262041716 0.000000000
0.636771451 0.318645743 0.106155966
0.675307637 0.330813489 0.108531126
0.686984344 0.296924597 0.034654430
0.817268590 0.143205062 0.014095365
0.817585027 0.144656642 0.014198868
0.851131718 0.259530561 0.113382515
0.837803536 0.140990862 0.026808824
0.000000000 0.546843966 0.064894750
0.000000000 0.527620677 0.060534798
0.000000000 0.527609350 0.060534856
0.000000000 0.527587285 0.060531024
0.000137177 0.393443825 0.000223445
0.000427272 0.389005889 0.000170044
0.007924705 0.386773087 0.000185787
0.019263634 0.381684880 0.023032473
0.064217610 0.356116322 0.000000000
0.111194112 0.352155562 0.000000000
0.161063397 0.347311067 0.000000000
0.204690938 0.342978075 0.000000000
0.253256472 0.338258082 0.000000000
0.290667948 0.331479736 0.000000000
0.325276564 0.326806521 0.000000000
0.365602823 0.369922385 0.009418039
0.399471508 0.383826210 0.046623338
0.412311804 0.327045598 0.000000000
0.459574007 0.361032183 0.021223473
0.487256611 0.353558955 0.022233951
0.520193476 0.366276818 0.063435579
0.545562105 0.360407021 0.064103772
0.572540323 0.365830267 0.092333585
0.596865654 0.344847719 0.060131940
0.612751654 0.331656388 0.041703679
0.628787643 0.320104367 0.025743515
0.655429411 0.331799059 0.059084188
0.671393587 0.317462658 0.031524878
0.687764748 0.305752310 0.017401130
0.702523168 0.287734782 0.004022931
0.733258664 0.315468470 0.056036948
0.762138257 0.308459033 0.052819198
0.816135749 0.189403991 0.004647800
0.000000000 0.565227961 0.064913812
0.000000000 0.545179056 0.060910325
0.000000000 0.545167949 0.060912300
0.000000000 0.545154327 0.060912717
