Samples/Panasonic-Standard/Generated-LUTs/LEICASTD.cube
TITLE "S1RII Standard - L-Log_to_Classic_VLog"
#LUMIXPHOTOSTYLE STD
LUT_3D_SIZE 5
0.014310044 0.010799237 0.013164109
0.400424345 0.014848451 0.000008626
0.536908972 0.000022206 0.000000000
0.722191910 0.000000000 0.000000000
0.772195595 0.000000000 0.001676609
0.000000000 0.311763216 0.069654692
0.221955106 0.145422052 0.028493773
0.426882813 0.142992022 0.002225012
0.562571524 0.086710788 0.000000000
0.777767029 0.001952704 0.004895260
0.000000000 0.469611482 0.001563676
0.117318371 0.300133462 0.001537191
0.397762631 0.265097749 0.000000000
0.574513670 0.230824757 0.000000000
0.810992365 0.036827875 0.059991609
0.000000000 0.601854322 0.023764239
0.008545244 0.454161321 0.000000000
0.347193005 0.426949932 0.000000000
0.585280163 0.388691044 0.000074109
0.882601914 0.270022499 0.041517792
0.000000000 0.667118517 0.154629332
0.000000000 0.604908116 0.008141017
0.048642996 0.640450923 0.000111057
0.532524276 0.697349349 0.000000000
0.910477751 0.735386619 0.132678245
0.001031089 0.032290081 0.193317486
0.240201244 0.043967151 0.155963905
0.525458762 0.000036196 0.144583249
0.798893250 0.000000000 0.104220651
0.795815421 0.000000000 0.098609417
0.000000000 0.352338774 0.315013973
0.215046025 0.214248452 0.208060696
0.440544413 0.197089756 0.200442885
0.611205448 0.160486000 0.194286506
0.788736835 0.039271431 0.204120342
0.000000000 0.560897915 0.411634743
0.036896540 0.392597102 0.242460983
0.418486331 0.370347137 0.241346842
0.619772465 0.356545992 0.252600501
0.853101146 0.125993516 0.299263302
0.000000000 0.686850112 0.501178407
0.000032921 0.556291364 0.303683988
0.268807875 0.572077336 0.296386260
0.641267202 0.542353102 0.293406376
0.929943898 0.450970034 0.320710616
0.000000000 0.751430958 0.614533854
0.000000000 0.738177506 0.474259301
0.002204605 0.740865217 0.409783184
0.371359527 0.807452104 0.403896292
0.944782055 0.748154796 0.370861760
0.000000000 0.045874013 0.301434019
0.203670647 0.010020774 0.274512270
0.455951848 0.000000000 0.278076439
0.649811478 0.000000000 0.240773151
0.803797744 0.000000000 0.177273657
0.000000000 0.355839162 0.440308258
0.095254981 0.215907534 0.349485007
0.400728799 0.198990124 0.337817169
0.590774797 0.183883586 0.329130718
0.820925186 0.010543161 0.328166029
0.000000000 0.577058455 0.545778355
0.038476398 0.423365212 0.403347833
0.418548484 0.415041681 0.400239410
0.647087102 0.395810938 0.402011126
0.837971746 0.344575597 0.379210460
0.000000000 0.695510267 0.624161017
0.000098932 0.592023946 0.459959792
0.238272249 0.613895555 0.452499121
0.654260779 0.593891852 0.452709606
0.936781479 0.501636606 0.437557270
0.000000000 0.745079718 0.661590909
0.000000000 0.746131624 0.627453191
0.000326055 0.759020370 0.528364551
0.313281826 0.832987856 0.546157519
0.931793410 0.797009947 0.517540983
0.000000000 0.072249829 0.399479099
0.126188787 0.042336387 0.396273387
0.408047644 0.005920247 0.403104614
0.608297852 0.000000000 0.349870672
0.806985622 0.000000000 0.364790681
0.000000000 0.354023889 0.542796706
0.029877859 0.223650201 0.473776681
0.369031046 0.197987913 0.477236264
0.561447751 0.179105553 0.467749924
0.838583284 0.041323115 0.441402028
0.000000000 0.573759482 0.642824394
0.002893727 0.432284612 0.536970324
0.339836485 0.427986596 0.547815524
0.618569111 0.410258544 0.544920139
0.903475911 0.295766943 0.509191604
0.000000000 0.708663793 0.719769677
0.000036097 0.620125981 0.601577493
0.230271616 0.646271197 0.613896741
0.654404839 0.642492938 0.619301636
0.921086857 0.584460086 0.590621644
0.000000000 0.754983841 0.753706223
0.000000000 0.739084013 0.717877387
0.000000000 0.773865634 0.670999371
0.291419478 0.851471210 0.682410445
0.916598773 0.844282113 0.672572036
0.000000000 0.292302164 0.683323124
0.000000000 0.159892691 0.586797543
0.044983321 0.355395233 0.721484585
0.586610074 0.000588253 0.484642319
0.823786123 0.000003389 0.633944269
0.000000000 0.293632843 0.657812916
0.000000000 0.364137536 0.718569200
0.242625415 0.194982218 0.645034665
0.490785022 0.389133029 0.774831397
0.827002161 0.171226694 0.759210975
0.000000000 0.506715452 0.757289475
0.000000000 0.425511769 0.702014906
0.144063887 0.432730481 0.757233861
0.529187754 0.415944462 0.784050648
0.903509247 0.207776364 0.752944335
0.000000000 0.618277343 0.772967004
0.000000000 0.602141236 0.771180038
0.072706695 0.645220155 0.773042401
0.561938824 0.644767834 0.817841673
0.949232156 0.568290966 0.809440065
0.000000000 0.738564177 0.795717417
0.000000000 0.729670154 0.788180869
0.000000000 0.771456384 0.785957485
0.084449131 0.842410881 0.808637839
0.902414278 0.883698458 0.852603995
