Luts/Rec709-Input/Rec709_to_Leica_Classic_65.cube
TITLE "Rec.709 to Leica Classic"
LUT_3D_SIZE 65
0.0142977 0.0107881 0.0131533
0.0143745988 0.0108339102 0.0131900014
0.0147035744 0.0110298878 0.0133470113
0.0153717158 0.0114279136 0.0136658945
0.0164399178 0.0120642638 0.0141757143
0.0179574183 0.0129682705 0.0148999704
0.0199663892 0.0141650563 0.0158587901
0.0225041427 0.015676849 0.0170699814
0.0256043933 0.0175237329 0.0185496352
0.0292980595 0.0197241268 0.0203125079
0.0362811659 0.0226253163 0.0221238678
0.0462297618 0.026754076 0.0245785104
0.0574852902 0.0314257457 0.0273561102
0.0707103538 0.0353329199 0.0286652448
0.0843216975 0.0389371771 0.029237653
0.0977081387 0.0425359163 0.0298061062
0.111904087 0.0457731537 0.0290989665
0.125884025 0.0489326673 0.0282899399
0.140036538 0.0519147531 0.0275830804
0.157659819 0.0544226447 0.0273999475
0.174975392 0.0567889923 0.0270585116
0.191969538 0.0589292715 0.0264843545
0.210979729 0.0593656325 0.0233300086
0.229775228 0.0596149676 0.0198749292
0.247975459 0.0598732778 0.0165476358
0.267918222 0.0575504214 0.0128601544
0.287941646 0.0545230398 0.00921019312
0.307400688 0.0513414265 0.00604934262
0.32625621 0.0476817585 0.00332680825
0.344963622 0.0426677131 0.00230591642
0.363280232 0.0383265638 0.00128340653
0.381104705 0.0341320631 0.000456101906
0.398912605 0.0298950905 0
0.417994394 0.0247349619 0
0.43828704 0.0193053527 0
0.460083799 0.0152417289 2.29622607e-05
0.482334608 0.0119100443 0.000150032444
0.504610499 0.00892691042 0.000307310664
0.527648132 0.00596726363 0.000487101608
0.551249706 0.00363805468 0.000481907048
0.574702212 0.00307606922 0.00025358741
0.598653198 0.00275768856 3.36972118e-05
0.622826621 0.00272656216 0.000653815201
0.648682268 0.0036873737 0.0023766527
0.675010835 0.00468666537 0.00412422593
0.699221004 0.00456338421 0.00518998496
0.72586859 0.00557673885 0.00774389405
0.748435584 0.00595759638 0.0118148336
0.767712871 0.00969219257 0.0150162981
0.790701036 0.0207642402 0.0205627497
0.803951499 0.0242493742 0.0571159537
0.818340072 0.0596027671 0.0874461521
0.8297785 0.0923500855 0.105559978
0.839707677 0.118083012 0.116555268
0.851110737 0.150632379 0.123770386
0.860378219 0.185126751 0.129043495
0.871431821 0.215624757 0.138909227
0.882440007 0.249672211 0.14497795
0.893262015 0.283385863 0.155940647
0.9045108 0.315193914 0.170834315
0.916386046 0.347585418 0.18429763
0.926615167 0.380903502 0.205404634
0.938264003 0.415082892 0.225268637
0.947993619 0.449418259 0.248571472
0.958322339 0.486036596 0.274072973
0.0143535395 0.0108520647 0.0132058847
0.0144058599 0.0108807138 0.0132286312
0.0147348354 0.0110766914 0.0133856411
0.0154029768 0.0114747171 0.0137045243
0.0164711789 0.0121110673 0.0142143441
0.0179886793 0.013015074 0.0149386002
0.0199976503 0.0142118598 0.0158974199
0.0225354037 0.0157236525 0.0171086112
0.0256356544 0.0175705364 0.0185882649
0.0293293205 0.0197709304 0.0203511376
0.0363173408 0.0226587196 0.0221487565
0.0462659367 0.0267874793 0.0246033991
0.0575190062 0.0314581578 0.0273804199
0.0707496543 0.0353531676 0.0286729998
0.0843565808 0.0389522013 0.0292454781
0.0977348546 0.0425487799 0.0298136302
0.111928676 0.0457825389 0.0291000755
0.125900571 0.0489424996 0.0282920292
0.140063779 0.0519217775 0.0275886856
0.157680443 0.054428499 0.0274052505
0.174989661 0.056793995 0.0270639852
0.191987388 0.0589280282 0.0264851401
0.210999699 0.059375286 0.0233337761
0.229789993 0.0596246015 0.0198797072
0.247985594 0.0598828942 0.0165533128
0.267933129 0.0575545118 0.0128648719
0.287952164 0.0545281699 0.0092152425
0.307407341 0.0513472191 0.00605505689
0.326263188 0.0477003279 0.00333051737
0.344982544 0.0427320699 0.00230594451
0.363296972 0.0383883211 0.00128360732
0.381119305 0.0341914721 0.000455176269
0.398925507 0.0299508122 0
0.418005542 0.024788139 0
0.438298025 0.01935633 0
0.460104461 0.0153348017 2.52737025e-05
0.482352197 0.0119973221 0.000151303735
0.504626011 0.00900831735 0.000308581955
0.527661683 0.00604285494 0.000488372899
0.551270833 0.00373712861 0.000478718876
0.574736589 0.00308540111 0.0002545906
0.598684116 0.00276626743 3.46917759e-05
0.622868955 0.00274318898 0.000662666136
0.648720259 0.00370204282 0.0023824609
0.675044995 0.00469996044 0.00412962911
0.699264098 0.00458239494 0.00519235701
0.725907365 0.00559357146 0.00775762842
0.748468028 0.00597241049 0.011826582
0.767761922 0.00974709302 0.015038704
0.790745828 0.020813365 0.0205771288
0.803990012 0.024288503 0.0571377034
0.818377971 0.059746735 0.0874412834
0.829811461 0.0924750355 0.105553762
0.839741941 0.118209488 0.116542772
0.851140846 0.150744696 0.123759075
0.860404906 0.185224336 0.129036682
0.871458246 0.215707082 0.138904773
0.882463303 0.249745214 0.144973788
0.89328216 0.283446366 0.155944337
0.904528627 0.315247319 0.170837465
0.916401761 0.347632762 0.184302085
0.926627621 0.380945163 0.205411028
0.938275082 0.415119577 0.225272951
0.948001697 0.449450422 0.248577963
0.958329498 0.486064967 0.274078716
0.0145924229 0.011125708 0.0134308439
0.0146442674 0.0111540247 0.0134533202
0.0148685713 0.0112769183 0.0135509004
0.0155367127 0.0116749441 0.0138697836
0.0166049147 0.0123112943 0.0143796034
0.0181224152 0.013215301 0.0151038595
0.0201313861 0.0144120868 0.0160626792
0.0226691396 0.0159238795 0.0172738705
0.0257693903 0.0177707634 0.0187535243
0.0294630564 0.0199711573 0.020516397
0.0364720981 0.0228016204 0.0222552311
0.046420694 0.02693038 0.0247098737
0.0576624994 0.0315965172 0.0274842419
0.0709170698 0.0354396159 0.0287061488
0.084505255 0.0390163274 0.0292789339
0.0978486973 0.042603692 0.0298458016
0.112033478 0.0458226 0.0291048436
0.125971034 0.0489844932 0.0283009874
0.140179979 0.0519517787 0.0276126664
0.157768387 0.0544535056 0.0274279446
0.17505047 0.0568153654 0.027087408
0.19207141 0.0589336992 0.0264905099
0.211084943 0.0594165829 0.0233499301
0.229853005 0.0596658148 0.0199001781
0.248028823 0.0599240331 0.0165776248
0.267996774 0.0575720305 0.012885079
0.287997049 0.0545501355 0.00923686291
0.307436009 0.0513719022 0.00607941781
0.326293598 0.0477791022 0.0033463058
0.345063718 0.0430058236 0.00230606889
0.363368795 0.0386510945 0.00128446992
0.381181957 0.0344443277 0.000451217763
0.398980879 0.030188014 0
0.418053398 0.0250145728 0
0.438345133 0.0195734588 0
0.460192792 0.0157314471 3.51621236e-05
0.482427393 0.0123693674 0.000156742359
0.50469233 0.00935542523 0.000314020578
0.527719616 0.0063652466 0.000493811523
0.55136107 0.00415978554 0.00046512993
0.57488336 0.00312522445 0.000258882458
0.598816155 0.00280288395 3.89428785e-05
0.623049743 0.00281417155 0.000700482324
0.648882525 0.00376468072 0.00240729283
0.675190923 0.00475674109 0.00415273046
0.699448198 0.0046635978 0.00520250862
0.726073036 0.00566548069 0.00781636243
0.748606653 0.00603570423 0.0118768232
0.767971535 0.00998170016 0.0151344875
0.790937267 0.021023316 0.0206385971
0.804154624 0.0244557388 0.0572307049
0.818539981 0.0603621492 0.0874204994
0.829952367 0.0930091928 0.105527203
0.839888436 0.118750218 0.116489361
0.851269578 0.151224924 0.123710723
0.860519018 0.1856416 0.129007559
0.871571242 0.216059114 0.138885738
0.882562929 0.250057402 0.144955996
0.893368311 0.283705109 0.155960126
0.904604865 0.31547572 0.17085094
0.916468971 0.347835251 0.184321144
0.926680888 0.381123349 0.20543838
0.938322466 0.415276483 0.225291408
0.948036248 0.449587991 0.248605725
0.958360119 0.48618632 0.274103281
0.0150775891 0.0116814707 0.0138877305
0.0151294336 0.0117097874 0.0139102068
0.015351226 0.0118309274 0.014006361
0.015808327 0.0120816002 0.0142054213
0.016876529 0.0127179504 0.0147152411
0.0183940295 0.0136219571 0.0154394972
0.0204030004 0.0148187429 0.0163983169
0.0229407539 0.0163305356 0.0176095082
0.0260410045 0.0181774195 0.019089162
0.0297346707 0.0203778134 0.0208520347
0.0368019156 0.0231017588 0.0224774911
0.0467350024 0.0272206079 0.024926121
0.0579502404 0.0318760343 0.0276942331
0.0712535518 0.0356143372 0.0287733386
0.0848044432 0.0391458346 0.0293467797
0.0981094928 0.0427028652 0.0298734522
0.112244377 0.0459035214 0.0291146451
0.126112553 0.0490694375 0.0283192808
0.140414299 0.0520124644 0.0276613803
0.15794559 0.0545041045 0.0274740736
0.17517281 0.0568586128 0.0271350103
0.192252042 0.0590004911 0.0265126874
0.211257132 0.0595004524 0.023382921
0.229980195 0.0597495151 0.0199419065
0.248123153 0.0600238742 0.016626169
0.268125388 0.0576077109 0.0129262459
0.28808766 0.0545948415 0.00928086807
0.307497189 0.0514207946 0.00612780758
0.326409743 0.0481096316 0.0033640933
0.34522969 0.0435541287 0.00230634256
0.363515694 0.0391777815 0.00128623997
0.381310149 0.0349514955 0.000443185102
0.399094209 0.0306639777 0
0.418151384 0.0254692421 0
0.43847688 0.0201583408 0
0.460371893 0.0165295211 5.52452672e-05
0.482579869 0.0131184147 0.000167788071
0.504826813 0.0100546996 0.000325066291
0.527837101 0.00701512443 0.000504857235
0.551543623 0.00501233606 0.000437779052
0.575179988 0.0032056161 0.000267600016
0.599083187 0.0028768345 4.75584817e-05
0.623415339 0.00295760478 0.000777045999
0.649210792 0.00389131637 0.00245764751
0.675486243 0.00487158476 0.0041995809
0.69982082 0.00482789524 0.0052231455
0.726408471 0.00581102395 0.0079355397
0.748887366 0.00616384733 0.0119787681
0.768396124 0.0104568956 0.0153286733
0.791321209 0.0214484724 0.0207857495
0.804488223 0.0247946025 0.0574193666
0.818868384 0.0616096252 0.0873785092
0.830238045 0.0940921477 0.105473439
0.840185507 0.119846736 0.11638112
0.851530671 0.152198928 0.123612705
0.860750495 0.186488019 0.128948541
0.871800489 0.216773311 0.138847164
0.882765076 0.250690846 0.14491993
0.893543135 0.284230169 0.155992206
0.90475959 0.315939253 0.17087832
0.916605384 0.348246231 0.184359856
0.926789008 0.381485033 0.205493924
0.938418655 0.415594993 0.225328895
0.948106389 0.449867265 0.248662102
0.958422285 0.486432688 0.274153167
0.0158532567 0.0125700055 0.0146181855
0.0159051012 0.0125983222 0.0146406618
0.0161268935 0.0127194622 0.014736816
0.0165773484 0.0129654945 0.0149321028
0.0173107768 0.0133680985 0.0152518475
0.0188282773 0.0142721052 0.0159761035
0.0208372482 0.015468891 0.0169349232
0.0233750017 0.0169806837 0.0181461145
0.0264752523 0.0188275676 0.0196257683
0.0303743941 0.0210415539 0.0213491257
0.0376309969 0.0237744525 0.0229498298
0.047237508 0.0276846145 0.02527185
0.0584001374 0.0323188313 0.0280275735
0.0717817869 0.0358913299 0.0288803879
0.0852751606 0.0393508721 0.0294549685
0.0985448578 0.0428507154 0.0298884036
0.112576174 0.046031677 0.0291306401
0.126342171 0.0491904567 0.0283449324
0.140784276 0.0521088061 0.027739289
0.158224993 0.0545844773 0.0275479279
0.175349054 0.0569838407 0.0272596483
0.192478985 0.059081855 0.0265457871
0.211529819 0.0596345304 0.0234361711
0.23018604 0.059893911 0.0200084183
0.248279241 0.0601995825 0.0167031853
0.268329221 0.0576650333 0.0129924139
0.288231288 0.0546664661 0.00935138606
0.307603604 0.0514953747 0.00620202231
0.326566 0.048772199 0.00345674004
0.345498002 0.0444100431 0.00230683847
0.363753298 0.0400009442 0.00128912023
0.381517636 0.0357451097 0.000430362109
0.399277737 0.0314092722 0
0.418319471 0.0261848934 0
0.438786852 0.0214900445 0
0.460657419 0.0177850576 8.73535234e-05
0.482822967 0.0142980849 0.000185447586
0.505041245 0.0111571513 0.000342725805
0.528024448 0.00804076787 0.00052251675
0.551833518 0.00635935025 0.000394729573
0.575542205 0.00389555705 0.000255217653
0.599506993 0.00299392105 6.12821742e-05
0.623995501 0.0031849144 0.000898792297
0.649732065 0.00409218115 0.00253793562
0.675955483 0.00505388124 0.0042742957
0.700413025 0.00508884977 0.00525619092
0.72694189 0.00604232699 0.00812576994
0.749333862 0.00636760011 0.0121414926
0.76907182 0.0112130681 0.015638168
0.791928466 0.0221443928 0.0211781373
0.805019564 0.0253341856 0.0577203771
0.819391669 0.0635973594 0.0873119896
0.830693391 0.0958182595 0.105387968
0.840659189 0.121595126 0.116208715
0.851947105 0.153752448 0.123456505
0.861119795 0.18783838 0.128854543
0.872166322 0.217913001 0.138785736
0.883087731 0.2517019 0.144862455
0.893822231 0.28506839 0.156043536
0.905006642 0.316679379 0.170922125
0.916823231 0.348902548 0.184421761
0.926962157 0.382062649 0.205576917
0.938572303 0.41610377 0.225388832
0.948218441 0.450313415 0.248752211
0.958521606 0.486826305 0.274232903
0.0169551792 0.0138322685 0.0156558785
0.0170070237 0.0138605853 0.0156783548
0.017228816 0.0139817252 0.015774509
0.0176792709 0.0142277575 0.0159697958
0.018399443 0.0146211057 0.0162820139
0.0194451749 0.0151957133 0.0167384128
0.0214541458 0.0163924992 0.0176972325
0.0239918993 0.0179042918 0.0189084238
0.0270921499 0.0197511758 0.0203880776
0.0315147389 0.0219997883 0.0220107703
0.0388087996 0.024730089 0.0236208396
0.0479513734 0.0283437877 0.0257629967
0.0590638679 0.0329129574 0.0284499083
0.072512031 0.0362799608 0.0290316926
0.0859280345 0.0396379623 0.029608079
0.0991495634 0.0430577329 0.029910336
0.113036302 0.0462111936 0.0291540401
0.126670549 0.0493401324 0.0283762804
0.141300157 0.0522442471 0.0278500221
0.158587229 0.05479043 0.0277326748
0.175574731 0.0572237519 0.0274908218
0.192794801 0.0591972532 0.026593903
0.211889013 0.0598283674 0.0235127059
0.230493682 0.0601438474 0.020101149
0.248497143 0.0604491814 0.0168133409
0.2686151 0.0577470194 0.0130871251
0.288447711 0.0547627663 0.00944680497
0.307792593 0.0521837202 0.00628692056
0.326753548 0.0496049913 0.00361482436
0.345736633 0.0453548194 0.0024036292
0.364096309 0.041132268 0.00129331805
0.381817467 0.0368377232 0.000412186406
0.399543493 0.0324364522 0
0.418579663 0.027178176 0
0.439225244 0.0233349697 0
0.461061348 0.019527103 0.000132966893
0.483166913 0.0159373965 0.000210534902
0.505344678 0.0126915067 0.000367813121
0.528456883 0.00996478371 0.000475191766
0.552241297 0.00823997828 0.000334968742
0.575902842 0.00563185599 0.000202134575
0.600100764 0.00316757857 8.02188601e-05
0.624807255 0.00349548311 0.00102681285
0.650465227 0.00437421996 0.0026515373
0.676615776 0.00530999724 0.00437997253
0.701246973 0.00545598603 0.00530324032
0.727693703 0.00636802708 0.00839536538
0.749963365 0.00665471857 0.0123721085
0.770025191 0.0122798633 0.0160758206
0.792788547 0.0231400341 0.0218084906
0.805770191 0.0260961533 0.0581467038
0.820131372 0.0664071243 0.0872187751
0.831342687 0.0982820068 0.105277357
0.841329452 0.124069059 0.115965156
0.852536608 0.155951646 0.123235673
0.861642786 0.189750686 0.128721761
0.872684597 0.219527543 0.138698976
0.883544979 0.253134687 0.144781199
0.894217862 0.286256588 0.156116542
0.90535694 0.317728794 0.17098442
0.917118788 0.349832504 0.184532501
0.927209543 0.382881793 0.205672497
0.938790291 0.416825597 0.225473987
0.94837744 0.450946492 0.24888017
0.958662559 0.487384917 0.274346136
0.0184139796 0.0155033387 0.0170296475
0.018465824 0.0155316554 0.0170521238
0.0186876164 0.0156527954 0.017148278
0.0191380712 0.0158988277 0.0173435648
0.0198582433 0.0162921759 0.0176557829
0.0208813284 0.016850971 0.0180993235
0.022270837 0.0176152348 0.0187064297
0.0248085905 0.0191270275 0.019917621
0.0279088411 0.0209739114 0.0213972748
0.0330647425 0.023265567 0.0228967858
0.0403680553 0.025995226 0.0245091684
0.0488964373 0.0292164464 0.0264132103
0.0602395355 0.0334909726 0.0286615899
0.0734433204 0.0367859001 0.0292306455
0.0866615591 0.0400708956 0.0298009285
0.0999257706 0.0433264605 0.0299405948
0.113615283 0.0464623067 0.0291971867
0.126950704 0.0497760795 0.0285662416
0.141878756 0.0526476854 0.0281759692
0.159033215 0.0551277682 0.0280347644
0.175888455 0.0575586311 0.0278012345
0.193274574 0.0594011053 0.0266705789
0.212239384 0.0600425278 0.0236185277
0.230883449 0.0604686311 0.020225863
0.248780344 0.0607789774 0.0169599621
0.269010283 0.057847574 0.013205841
0.288790697 0.0556178388 0.00954389038
0.308082445 0.0534053403 0.00638104871
0.327026428 0.0506532256 0.00381511714
0.345955513 0.0463704188 0.00260099272
0.364350123 0.0422418895 0.00143443789
0.382229663 0.0382273222 0.00038819743
0.399943655 0.0337549191 0
0.419190965 0.0295369458 0
0.439802185 0.0256971834 0
0.46159313 0.0217619987 0.000193352991
0.483615931 0.0180476473 0.00024830394
0.505744287 0.0146678836 0.000401025425
0.529079867 0.0126188902 0.000389915157
0.552774086 0.0106724199 0.00025827887
0.5763743 0.00788178462 0.000133922115
0.600521222 0.00523950395 1.87464054e-05
0.625865607 0.00389801194 0.00118675429
0.651422902 0.00474178079 0.00280111444
0.677454498 0.00563256721 0.00451299634
0.702338039 0.00593570581 0.00536570404
0.728678444 0.00679409356 0.00875110533
0.750788241 0.00703068489 0.0126764172
0.771275727 0.013678955 0.0166516154
0.793907508 0.0244367648 0.0226601326
0.806756432 0.0270967543 0.0587087939
0.821104068 0.0701018359 0.0870976588
0.832201436 0.101542442 0.105140752
0.842212038 0.127326595 0.11564515
0.853313291 0.158849216 0.12294523
0.862332218 0.192271511 0.128547321
0.873368154 0.221656885 0.138585027
0.884148305 0.255025173 0.144674335
0.894740086 0.287824956 0.156213345
0.905819489 0.319114457 0.171067006
0.91748387 0.351059226 0.184722086
0.927536388 0.38396404 0.205799055
0.939078366 0.417779498 0.225586736
0.948587602 0.451783291 0.249049479
0.958848906 0.488123427 0.274495971
0.0202567518 0.0176142524 0.0187650072
0.0203085962 0.0176425691 0.0187874834
0.0205303886 0.0177637091 0.0188836376
0.0209808434 0.0180097414 0.0190789245
0.0217010155 0.0184030895 0.0193911425
0.0227241006 0.0189618846 0.0198346832
0.0240785305 0.0197016558 0.0204218726
0.0258402435 0.0206716002 0.0211924496
0.0289404942 0.0225184841 0.0226721034
0.035034411 0.0248637015 0.0240189321
0.0423377238 0.0275933605 0.0256313147
0.0507363324 0.0307324495 0.0274855586
0.0616563902 0.0342040824 0.0289262322
0.0744559826 0.0374999024 0.0295279349
0.0871955756 0.04088203 0.0301769963
0.100612083 0.044103573 0.0302532286
0.113965377 0.0473826006 0.0296263178
0.127106401 0.0506798743 0.0290271358
0.142464893 0.0534339862 0.0287424155
0.159674693 0.0556217543 0.0284322087
0.17634921 0.0580376709 0.0282064297
0.193886767 0.0596755602 0.0267743159
0.212666398 0.0603127468 0.0237551512
0.23116062 0.0607332048 0.0203896344
0.249335055 0.0612910507 0.0171148005
0.269599813 0.0591860432 0.0133084395
0.289285167 0.0571133966 0.00964755577
0.308487442 0.0548602178 0.00648624352
0.327407168 0.0518967772 0.00405479735
0.34626559 0.0475790513 0.00283800244
0.364641671 0.0434705891 0.00169721994
0.382520134 0.0395106307 0.00062465372
0.400570461 0.0366865379 0
0.41999413 0.0325367085 0
0.440540145 0.028556675 5.17905268e-05
0.462260215 0.0244763172 0.000269633354
0.484164141 0.0206284181 0.00031385987
0.50631897 0.0172963467 0.000411297721
0.529853939 0.0158684202 0.000286560759
0.553436127 0.013656356 0.000165163691
0.576960515 0.0106481461 5.09650082e-05
0.601229696 0.00826545439 1.56856113e-06
0.626835951 0.00710944459 0.001387293
0.652612317 0.0051969319 0.00298874844
0.678497244 0.00603247696 0.00467990286
0.703695772 0.00653169185 0.0054448708
0.729905628 0.00732418561 0.00919857842
0.751816714 0.00749902281 0.0130592037
0.772836925 0.0154252456 0.0173731994
0.795261562 0.0260119797 0.0238203667
0.808035328 0.0297001688 0.0591134302
0.822322244 0.0747288555 0.0869483233
0.833277815 0.105629023 0.104971016
0.843319281 0.131413186 0.115244826
0.854288377 0.162487089 0.122581414
0.863198373 0.195438397 0.128329137
0.87422748 0.224333609 0.13844255
0.884907185 0.257403014 0.144540483
0.895397276 0.289798612 0.156335874
0.906401844 0.320858975 0.171171516
0.917943688 0.352604262 0.184961381
0.927948192 0.38532759 0.205958958
0.939441433 0.418981714 0.225729186
0.948852542 0.452838213 0.249263202
0.959083884 0.489054669 0.274685125
0.0225079774 0.0201930535 0.0208850121
0.0225598219 0.0202213702 0.0209074883
0.0227741824 0.020360274 0.0210088268
0.0232069323 0.0206486254 0.0212164643
0.0238987983 0.0211096318 0.0215484281
0.0248816713 0.021764543 0.0220200198
0.0261828659 0.0226315592 0.0226443452
0.0278265488 0.0237267834 0.0234329997
0.0306322107 0.0249233026 0.0241594405
0.0366100344 0.027412125 0.0255667079
0.0436723533 0.0303147221 0.0272304166
0.0517197782 0.033632048 0.0291346398
0.0624528517 0.0358011131 0.0296576393
0.0748210777 0.039086019 0.0302934325
0.0872341107 0.0424383789 0.0309598837
0.100743934 0.045560203 0.0308362865
0.114433342 0.0486698825 0.0302601232
0.127333101 0.051924541 0.0296842511
0.14318438 0.0544796249 0.0294905412
0.160170648 0.0565967664 0.0291503702
0.176888078 0.0586182601 0.0287009454
0.194634116 0.0600050356 0.0268979674
0.213321224 0.0610486668 0.0239395796
0.231798396 0.0620959081 0.0206480225
0.250212582 0.0626666742 0.0173341021
0.27036387 0.0607507247 0.0134682783
0.2899459 0.0588033345 0.00976617955
0.309033635 0.0565183189 0.0065964035
0.327968474 0.0533686726 0.00436168035
0.346785824 0.04907837 0.00317507797
0.365113283 0.0454866132 0.00198379705
0.383038906 0.0441043448 0.000645330993
0.401072971 0.0415737512 0
0.420642355 0.0367389509 0
0.441442261 0.0318787625 0.000144978556
0.463068379 0.0276400466 0.000362821383
0.484828204 0.0236458757 0.000393988563
0.507350029 0.0213746823 0.000279361845
0.530781182 0.0196918317 0.000166497073
0.554229171 0.0171751774 5.67710781e-05
0.577703569 0.0139085881 4.55647023e-06
0.602436459 0.0130027242 0.000118508371
0.627938714 0.0113923472 0.00163004513
0.653670807 0.00863595554 0.00321601287
0.679772982 0.00652458194 0.00487735547
0.705324483 0.00724516136 0.00554193582
0.731380267 0.00795986653 0.00974236014
0.753053273 0.00806147919 0.0135243887
0.774716885 0.0175275342 0.0182461674
0.796893748 0.0279109243 0.0252281754
0.809683039 0.0359568289 0.0589117252
0.823794761 0.0803217389 0.0867713096
0.834580262 0.110573684 0.104767853
0.844660531 0.136363252 0.114761598
0.855470582 0.166897869 0.122141545
0.864249413 0.199281108 0.128065832
0.875271055 0.227584023 0.138270683
0.885829396 0.260292538 0.144378671
0.896196392 0.29219843 0.156485929
0.907110358 0.322981343 0.17129947
0.918504442 0.354484754 0.185240081
0.928449657 0.38698802 0.206154353
0.939883718 0.420446239 0.225903244
0.949175394 0.454123749 0.249524069
0.959370313 0.490189828 0.274916027
0.0240567835 0.0258519249 0.0243179376
0.0241062092 0.0258856204 0.0243424846
0.0243176538 0.0260297707 0.0244474974
0.0247470926 0.0263225366 0.0246607758
0.0254336649 0.0267906008 0.0250017581
0.0264090177 0.0274555384 0.0254861616
0.0277002565 0.0283358283 0.0261274481
0.0295853066 0.0293655732 0.0268318685
0.032856323 0.0303004933 0.0272887678
0.0370475057 0.031401581 0.0278412361
0.044078535 0.034317644 0.0295255381
0.0523098958 0.0373389442 0.031144691
0.0634529255 0.0390574208 0.0311908171
0.0751370984 0.0411644431 0.0313333233
0.0872090257 0.0444227348 0.0319679451
0.10075842 0.0473869782 0.0315697258
0.114372601 0.0503608202 0.0310098453
0.127565494 0.0533897523 0.0304646327
0.14402759 0.0557016357 0.030366264
0.160802028 0.0582154174 0.030056713
0.177342473 0.0607216238 0.0296613717
0.195847462 0.0619684977 0.0271916074
0.214451872 0.0630611129 0.0242161864
0.232739338 0.0640432696 0.0209499822
0.251334808 0.064161349 0.0175547326
0.271341214 0.062243162 0.0137596711
0.290817144 0.0604108188 0.010088503
0.309868154 0.0584778812 0.0068015721
0.328771138 0.0552942215 0.00472615735
0.347585334 0.0533559455 0.00331341093
0.36589862 0.0515992767 0.00194307123
0.383726275 0.0500133461 0.000614054119
0.401698771 0.0470403108 0
0.421196395 0.0420023915 6.65592955e-05
0.441984499 0.0367837017 0.000256003601
0.46391692 0.031445295 0.000473846428
0.485990053 0.0281813284 0.000325712694
0.508550134 0.0260118928 0.000131570172
0.531861257 0.0240525152 3.1694867e-05
0.555209063 0.0211834054 7.75794743e-06
0.578612816 0.017636675 5.09330305e-06
0.603842608 0.0184362512 0.000358004196
0.629220802 0.0163316627 0.00191268849
0.654833068 0.0131807558 0.00348401781
0.681279564 0.0127005089 0.00503828541
0.707223756 0.00807508841 0.00565800894
0.73310328 0.00870078126 0.0103861124
0.755272425 0.0103210513 0.0145211283
0.776918757 0.0199890024 0.0192742467
0.798807665 0.030137865 0.0268919406
0.811618663 0.0433063789 0.0586809484
