Luts/Rec709-Input/Rec709_to_Leica_Natural_65.cube
TITLE "Rec.709 to Leica Natural"
LUT_3D_SIZE 65
0.00717174 0.00679026 0.00660716
0.00730184561 0.00679484844 0.00661061191
0.00785844152 0.00681447794 0.00662537931
0.00898887433 0.00685434496 0.00665537154
0.0107961724 0.00691808303 0.00670332211
0.0133636414 0.00700863008 0.00677144126
0.0167626325 0.00712850246 0.00686162204
0.0210562743 0.00727992653 0.00697553937
0.0263016088 0.00746491398 0.00711470666
0.0325509468 0.00768530968 0.0072805118
0.0406542972 0.00782244271 0.00749362073
0.0499698592 0.00813087601 0.00773714807
0.0605090705 0.00848343591 0.00801353898
0.0725662394 0.00858311907 0.008325676
0.0845883587 0.00893245888 0.00869507875
0.0963732652 0.00945677447 0.00909634564
0.109982266 0.00918863215 0.00953770322
0.12320132 0.00941640249 0.0100139028
0.136184832 0.010086528 0.010526095
0.150900982 0.00926246447 0.011132594
0.165180593 0.00860626711 0.0117601534
0.179255426 0.0083175423 0.0124210729
0.195854293 0.00834805434 0.0131534972
0.212017588 0.00857020389 0.0139048066
0.227693684 0.00902577141 0.0146803241
0.245602419 0.00855712867 0.0156671678
0.263774108 0.00805770616 0.0167378533
0.28136753 0.00790233434 0.0178238061
0.298589174 0.0088763488 0.0189663663
0.317002446 0.00927602766 0.0201989695
0.334906223 0.010439503 0.0214107426
0.352321882 0.0115876555 0.0226877997
0.369758718 0.012505871 0.024113517
0.389296704 0.0115852985 0.0258887622
0.410097243 0.0107111106 0.0278749463
0.431984954 0.0125039599 0.0299230617
0.455020218 0.013963555 0.0323673634
0.479135389 0.0141797055 0.0352571156
0.504133287 0.014603572 0.0384719521
0.529886649 0.0164254308 0.0418611133
0.556284813 0.020085859 0.0454268066
0.58333623 0.0242001993 0.0494148527
0.610876716 0.0261173505 0.0542478074
0.638730486 0.0326055774 0.0596345841
0.667049686 0.0396051681 0.0652524483
0.695463349 0.0427400086 0.0707304169
0.724069833 0.0557669499 0.0768265532
0.75279365 0.0651571309 0.0840285575
0.781488262 0.0744584947 0.0910776498
0.810281941 0.0920763638 0.0981008092
0.838684382 0.101133893 0.107119618
0.866858814 0.120638453 0.1157728
0.894653466 0.142389635 0.124272117
0.922071139 0.164425513 0.135431448
0.947093241 0.191672009 0.145952494
0.965474541 0.220003565 0.156965885
0.984616203 0.249097752 0.171984225
0.991129803 0.282174812 0.18518156
0.996576006 0.314596722 0.201941627
1 0.346571196 0.220817734
1 0.38031364 0.238976428
1 0.41135444 0.262549482
1 0.444597979 0.285394691
1 0.476008751 0.310097416
1 0.508862805 0.335789054
0.00719498843 0.00693081491 0.00661949605
0.00731497359 0.00693307721 0.00662307369
0.0078715695 0.0069527067 0.00663784109
0.00900200231 0.00699257373 0.00666783332
0.0108093004 0.0070563118 0.00671578389
0.0133767694 0.00714685885 0.00678390304
0.0167757605 0.00726673123 0.00687408382
0.0210694023 0.0074181553 0.00698800115
0.0263147368 0.00760314275 0.00712716844
0.0325640748 0.00782353845 0.00729297358
0.0406822121 0.00795475597 0.00750652793
0.049997774 0.00826318927 0.00775005528
0.0605346761 0.0086158748 0.00802643476
0.072594176 0.00871276984 0.00833857948
0.0846155545 0.00905836124 0.00870757538
0.0963932626 0.00958309912 0.00910878334
0.110005959 0.00931079017 0.0095501338
0.123225016 0.00952146092 0.0100263576
0.136212577 0.0101843175 0.0105388365
0.150922788 0.009361133 0.0111452485
0.165197205 0.00870570625 0.011772748
0.17928305 0.00837280032 0.0124344132
0.195880808 0.008488826 0.0131629298
0.2120397 0.00871161904 0.013914172
0.227711878 0.00916775906 0.0146896296
0.245625624 0.00870105214 0.0156781576
0.263793534 0.00820231039 0.0167487581
0.281383535 0.00804761202 0.0178346285
0.298612581 0.0089414143 0.0189769349
0.317023062 0.00940412181 0.0202051797
0.334924902 0.0105616831 0.0214174414
0.352338893 0.0117047079 0.0226946874
0.369775714 0.0126139251 0.0241211483
0.389312079 0.0116878741 0.0258968384
0.410110117 0.0108096516 0.0278831335
0.431994843 0.012669087 0.0299289431
0.455029286 0.0141154219 0.0323730063
0.479143326 0.0143210731 0.0352635905
0.504140202 0.0147345623 0.0384792521
0.529890673 0.0166057883 0.0418663181
0.556291703 0.0201739907 0.0454353253
0.583342266 0.0242807971 0.0494236565
0.61088029 0.0262500143 0.0542571951
0.638733072 0.0327299944 0.0596412579
0.667051872 0.0397178308 0.065258954
0.695464026 0.0429017171 0.0707350068
0.724070232 0.0559120402 0.0768347648
0.752793827 0.065285393 0.0840362033
0.781487403 0.074618831 0.0910827902
0.810281171 0.0922201156 0.0981049196
0.838683492 0.101259917 0.107126138
0.86685655 0.120785363 0.115776276
0.894651347 0.142519812 0.124275362
0.922067373 0.164552119 0.135434992
0.94708913 0.191784298 0.145955721
0.965470944 0.22010281 0.156972164
0.984614137 0.249186461 0.171989784
0.99112707 0.28225343 0.185186434
0.996576391 0.314662519 0.201949578
1 0.346629394 0.220824726
1 0.380364914 0.238984365
1 0.411397357 0.262557143
1 0.444635536 0.285400876
1 0.476040236 0.310104022
1 0.508890593 0.335794897
0.00729444594 0.00753211328 0.00667227007
0.00741423516 0.00753433054 0.00667585014
0.00792773142 0.00754405375 0.00669115298
0.00905816422 0.00758392078 0.00672114521
0.0108654623 0.00764765884 0.00676909577
0.0134329313 0.00773820589 0.00683721492
0.0168319224 0.00785807827 0.00692739571
0.0211255642 0.00800950234 0.00704131303
0.0263708987 0.0081944898 0.00718048032
0.0326202367 0.0084148855 0.00734628547
0.0408016327 0.0085207963 0.00756174536
0.0501171947 0.0088292296 0.0078052727
0.060643518 0.00918249063 0.00808159987
0.0727130486 0.00926747301 0.00839377732
0.0847314079 0.00959700435 0.00876103231
0.0964784163 0.0101235432 0.00916198897
0.110106946 0.00983343024 0.00960330903
0.123326093 0.00997091388 0.0100796372
0.136330989 0.010602706 0.0105933415
0.151015842 0.0097832745 0.0111993819
0.165268082 0.00913113834 0.011826626
0.179404876 0.00869416431 0.0124876434
0.195994081 0.00909107496 0.0132032804
0.212134163 0.00931661702 0.0139542351
0.227789605 0.00977520309 0.014729437
0.245724781 0.00931678451 0.0157251695
0.263876543 0.00882095112 0.0167954072
0.281452141 0.00866772861 0.0178809936
0.298713024 0.00921820996 0.0190223221
0.31711155 0.00994932641 0.0202320025
0.335005084 0.0110818383 0.0214463313
0.352411916 0.0122031558 0.0227243641
0.369848648 0.0130740953 0.0241539864
0.389378056 0.012124817 0.0259315606
0.410165398 0.0112295069 0.0279183188
0.432037352 0.0133728948 0.0299543244
0.455068257 0.0147628339 0.0323973395
0.479177435 0.0149238741 0.0352914574
0.504169917 0.0152932484 0.0385106252
0.529908022 0.0173752243 0.0418887381
0.556321253 0.0205500693 0.0454718733
0.583368149 0.024624805 0.0494613533
0.610895646 0.0268163714 0.0542973899
0.638744193 0.0332612375 0.0596698587
0.667061274 0.040198972 0.0652868245
0.695466969 0.0435924367 0.0707546822
0.724071979 0.0565318715 0.0768699171
0.752794618 0.0658334018 0.0840689292
0.781483759 0.075303982 0.0911048025
0.810277898 0.092834472 0.0981225216
0.838679702 0.101798562 0.107154043
0.866846885 0.121413349 0.115791162
0.894642299 0.143076315 0.124289256
0.922051278 0.165093403 0.135450162
0.947071556 0.192264407 0.145969535
0.965455566 0.220527175 0.156999031
0.984605302 0.249565793 0.172013568
0.991115379 0.282589634 0.185207284
0.996578041 0.314943903 0.201983592
1 0.346878293 0.220854634
1 0.380584205 0.239018318
1 0.411580916 0.262589915
1 0.444796174 0.285427336
1 0.476174907 0.310132284
1 0.509009451 0.335819889
0.00749644174 0.00875333569 0.00677945281
0.00761623096 0.00875555295 0.00678303289
0.00812869303 0.00876503845 0.00679834857
0.0091722277 0.00878493229 0.00682942035
0.0109795258 0.00884867035 0.00687737092
0.0135469948 0.00893921741 0.00694549007
0.0169459859 0.00905908978 0.00703567085
0.0212396277 0.00921051385 0.00714958818
0.0264849622 0.00939550131 0.00728875547
0.0327343002 0.00961589701 0.00745456061
0.0410415192 0.00967289848 0.00767376621
0.0503597351 0.00997884377 0.00791741796
0.0608611076 0.0103334622 0.00819362173
0.0729512967 0.0103943249 0.0085058649
0.0849642658 0.0106911184 0.00886958208
0.0967158306 0.0111917974 0.00927003269
0.110310186 0.010895119 0.00971129076
0.123529916 0.0108837899 0.0101878345
0.136570066 0.0114526524 0.0107040221
0.151203679 0.0106408047 0.0113093124
0.165411082 0.00999532133 0.0119360401
0.179644036 0.010005454 0.0125653382
0.19622334 0.0103143442 0.0132852193
0.212325352 0.0105454503 0.0140355923
0.227944993 0.0110377395 0.014816503
0.24592559 0.0105674378 0.0158206355
0.264044645 0.0100774913 0.0168901386
0.281593615 0.00991106125 0.017975939
0.298916369 0.0100209862 0.0190979075
0.317292707 0.011042957 0.020287731
0.335169258 0.0121258167 0.0215061465
0.352561447 0.0132041637 0.0227856735
0.369997886 0.0139984222 0.0242216201
0.389513062 0.0130029947 0.0260029273
0.410274345 0.0123150287 0.0279732749
0.432124672 0.0147894444 0.0300069615
0.455148272 0.0160664718 0.0324477105
0.479247466 0.0161384054 0.0353488785
0.504230921 0.0164195558 0.0385750514
0.529943932 0.0189273556 0.0419350328
0.556381648 0.0213091682 0.0455466193
0.583421038 0.0253195543 0.0495380791
0.610927164 0.0279607684 0.0543791921
0.638767077 0.0343351378 0.059728194
0.667080615 0.0411720221 0.0653436205
0.695473181 0.0449899375 0.0707948397
0.724075719 0.0577864144 0.0769414228
0.752796378 0.0669429144 0.0841354778
0.781476504 0.0766916654 0.091149617
0.810271173 0.0940773984 0.0981613071
0.8386721 0.1028901 0.107210763
0.866827352 0.12268627 0.115821472
0.894623999 0.144204584 0.124317532
0.922018674 0.166191038 0.13548103
0.947035931 0.19323816 0.145997635
0.965424386 0.221388004 0.157053615
0.984587391 0.250335381 0.172061888
0.99109166 0.283271809 0.185249642
0.996581391 0.315514909 0.202052666
1 0.347383426 0.220915371
1 0.38102929 0.239087268
1 0.411953506 0.262656464
1 0.445122262 0.28548107
1 0.476448298 0.310189675
1 0.509250754 0.335870641
0.00781938585 0.0107057851 0.00695081298
0.00793917507 0.0107080024 0.00695439306
0.00845163714 0.0107174879 0.00696970875
0.00949243518 0.0107367527 0.00700081453
0.0111618866 0.0107688073 0.0070504776
0.0137293557 0.0108593543 0.00711859674
0.0171283467 0.0109792267 0.00720877753
0.0214219886 0.0111306508 0.00732269485
0.026667323 0.0113156382 0.00746186214
0.0330108633 0.0115173834 0.00762924902
0.041373399 0.0115632528 0.00785044053
0.0507475006 0.0118168083 0.00809671203
0.0611994656 0.0121741146 0.00837267145
0.0733234563 0.0121966219 0.00868501749
0.0853298399 0.012440745 0.00904307288
0.0971412671 0.0128772405 0.00944272538
0.110629983 0.0125931167 0.00988388451
0.123806364 0.0124662678 0.0103602293
0.136948391 0.0128120971 0.0108809258
0.151500798 0.0120122684 0.0114850288
0.16564597 0.0118730782 0.0120754108
0.179977065 0.0122347937 0.012682595
0.19658767 0.0122703877 0.0134161869
0.212627932 0.0125290202 0.0141696816
0.228189984 0.0130848665 0.0149618284
0.246245039 0.0125672612 0.0159732241
0.264312265 0.0120853045 0.017041626
0.281826018 0.0118523021 0.0181299867
0.299163724 0.0125447352 0.0191575563
0.317586189 0.0127545817 0.0203802023
0.335435293 0.0137613046 0.0216048549
0.352803793 0.014773923 0.0228864951
0.370239468 0.0154484157 0.024332295
0.389725898 0.0143919718 0.0261171705
0.410439317 0.0146922126 0.0280156374
0.432266954 0.0170191945 0.0300940743
0.455278556 0.0181200794 0.03253083
0.479361489 0.0180535889 0.0354429286
0.504330236 0.018197398 0.0386799877
0.530003181 0.0213799286 0.0420111269
0.556455052 0.0230433 0.0456518052
0.583506475 0.0264195388 0.04966119
0.610978457 0.0297742971 0.0545104282
0.63880448 0.0360381916 0.0598221336
0.667112209 0.0427163163 0.0654349472
0.69548376 0.0472095148 0.0708595821
0.724082227 0.0597802203 0.0770560504
0.75279962 0.068707157 0.0842421005
0.781465312 0.0788996301 0.0912215613
0.81025943 0.0960548425 0.0982584035
0.838660205 0.104628469 0.107301576
0.866796396 0.124714445 0.115870142
0.894594958 0.146002946 0.1243629
0.921966785 0.167941186 0.135530539
0.946979162 0.194791259 0.146042681
0.965374682 0.222761365 0.157140932
0.984558841 0.251563478 0.17213918
0.991053807 0.284360655 0.185317392
0.996586747 0.316426482 0.202163084
1 0.348189979 0.221012462
1 0.38174007 0.239197479
1 0.412547544 0.262760215
1 0.445643143 0.285566967
1 0.476885049 0.31028141
1 0.509636278 0.335951768
0.00827816407 0.0134794579 0.00719424928
0.00839795329 0.0134816751 0.00719782936
0.00891041536 0.0134911606 0.00721314504
0.0099512134 0.0135104255 0.00724425082
0.0116152064 0.0135412254 0.0072939817
0.0139884197 0.0135871236 0.00736451413
0.0173874108 0.013706996 0.00745469492
0.0216810526 0.01385842 0.00756861225
0.026926387 0.0140434075 0.00770777954
0.0335099068 0.0141976406 0.00787919585
0.0418448715 0.0142487126 0.00810142618
0.0512983649 0.0144278426 0.00835141932
0.0616972004 0.014777899 0.00862681939
0.0738340069 0.0147584885 0.00893942153
0.085835224 0.0149271039 0.00928942174
0.0977323146 0.0152731754 0.00968796235
0.111073575 0.0150065755 0.0101289818
0.124124204 0.0148945494 0.0106042539
0.137477678 0.0147445511 0.0111321353
0.151930819 0.0147761931 0.0116761983
0.165984048 0.0150933113 0.0122337913
0.180444508 0.0154028279 0.0128490726
0.197070728 0.0151485175 0.0136123316
0.213048646 0.0154265714 0.0143772432
0.228534774 0.015993514 0.0151682297
0.246695551 0.0154085256 0.0161899297
0.264701214 0.0148645017 0.0172603531
0.282133529 0.0153901424 0.0182432011
0.29950194 0.0162524747 0.0192423888
0.317932655 0.0158539923 0.0204916448
0.335820333 0.0160169533 0.0217512876
0.35315465 0.0169420586 0.0230353851
0.370588446 0.0174523909 0.0244945923
0.390023191 0.0163327889 0.0262801632
0.410679756 0.0179887868 0.0280826221
0.432474511 0.0201154749 0.0302238593
0.455468435 0.0209749105 0.0326541994
0.479527674 0.0207198956 0.0355811402
0.504441696 0.0216848667 0.0387872507
0.530091128 0.0248045627 0.0421235066
0.556528842 0.0261995766 0.0457829402
0.583629242 0.0279691387 0.0498367057
0.611044571 0.032388013 0.0546546529
0.63885931 0.0384288081 0.0599569674
0.667158462 0.0448859393 0.0655657217
0.695500134 0.0503320647 0.0709526693
0.724092576 0.0625877965 0.0772195205
0.752805122 0.0711933937 0.0843940365
0.78145026 0.0820140883 0.0913243805
0.810242819 0.0988477961 0.0984160086
0.838643853 0.107083874 0.107430854
0.86675299 0.127581156 0.115939723
0.894553684 0.14854669 0.12446356
0.921893567 0.170417561 0.135601204
0.946898909 0.196989816 0.146106926
0.96530438 0.224706267 0.157265082
0.984518464 0.253303292 0.172249064
0.991000178 0.285903705 0.185413699
0.996594354 0.317718666 0.202319909
1 0.349333592 0.221150359
1 0.382726386 0.239359909
1 0.413386133 0.262897467
1 0.446382147 0.285688968
1 0.477504786 0.310411689
1 0.510183404 0.336066984
0.00888552606 0.0171514356 0.0075165269
0.00900531528 0.0171536529 0.00752010698
0.00951777735 0.0171631384 0.00753542266
0.0105585754 0.0171824032 0.00756652844
0.0122225684 0.0172132032 0.00761625932
0.0145864566 0.017256958 0.0076869076
0.0177303774 0.0173182035 0.00778025718
0.0220240192 0.0174696275 0.00789417451
0.0272693537 0.017654615 0.0080333418
0.0341408843 0.0177515509 0.00821121122
0.042469039 0.017803908 0.00843369814
0.0520276367 0.0178845083 0.00868861825
0.0625907824 0.018137961 0.00896226675
0.0744780175 0.018152703 0.0092760393
0.0863210146 0.0183112526 0.00962269944
0.0984912281 0.0184478591 0.0100124607
0.111644387 0.018242259 0.0104489282
0.124563495 0.0186266665 0.0108684434
0.138160335 0.0189133591 0.0113484011
0.152498708 0.0190215055 0.011887259
0.166432595 0.0193255696 0.0124608837
0.181082606 0.0195105378 0.0131170419
0.197589243 0.0192551436 0.0138910571
0.213591303 0.0192783642 0.0146520432
0.228986609 0.0198374879 0.0154417566
0.247303422 0.0190603149 0.0164820754
0.265194042 0.0194707043 0.0174197934
0.282541907 0.0203950071 0.0183404231
0.29997084 0.0209532667 0.0193697398
0.318347873 0.0203657749 0.0206314128
0.336231712 0.0199352704 0.0219179546
0.353625948 0.0197147993 0.0232405166
0.371035574 0.0200534002 0.024708841
0.390395175 0.0205881972 0.0263770235
0.411008381 0.0222153423 0.0281829383
0.432758542 0.0240921426 0.0304060258
0.455727261 0.0246450833 0.032832639
0.479754897 0.0241557525 0.0357720613
0.504585146 0.026535693 0.0389218257
0.530214095 0.0292349041 0.0422797182
0.556632114 0.0302901142 0.0459628699
0.583715565 0.03173163 0.0500189524
0.611133953 0.035801358 0.0548400923
0.638934868 0.0415431273 0.0601378519
0.667219491 0.0476666264 0.0657372425
0.695524183 0.0544118615 0.0710778427
0.724108227 0.0662606852 0.0774370202
0.752813991 0.0744492608 0.084595987
0.781431838 0.0860977778 0.091461576
0.810221487 0.102504031 0.0986247632
0.838623174 0.110309306 0.107602472
0.866696543 0.131350359 0.116032617
0.894499466 0.151894102 0.124626769
0.921797523 0.173678229 0.135695343
0.946793369 0.199886458 0.146192425
0.96521186 0.227270105 0.157429626
0.984465337 0.255597903 0.172394685
0.990929439 0.287939715 0.185541306
0.996604424 0.319424303 0.202527461
1 0.350843652 0.221332863
1 0.383988119 0.239586004
1 0.414494078 0.263079117
1 0.447358753 0.285850438
1 0.478323949 0.310584088
1 0.510906728 0.336219457
0.00965275221 0.021789917 0.00792363142
0.00977254143 0.0217921343 0.0079272115
0.0102850035 0.0218016198 0.00794252719
0.0113258015 0.0218208846 0.00797363297
0.0129897945 0.0218516846 0.00802336385
0.0153536827 0.0218954394 0.00809401213
0.0184831595 0.021953365 0.00818754115
0.0224572584 0.0220313434 0.00830542823
0.0277025928 0.0222163308 0.00844459552
0.0349293394 0.0222425116 0.00863094071
0.0432574941 0.0222948687 0.00885342762
0.0528345527 0.0223553643 0.00910934601
0.0636568695 0.0223882069 0.00938576667
0.075240888 0.0226074244 0.00967299771
0.0868329777 0.0230895431 0.00996625024
0.0994753563 0.0234150668 0.0103135998
0.112421165 0.0236361201 0.010704394
0.125138727 0.0240095185 0.0111395103
0.138853942 0.0241714514 0.0116562583
0.153237617 0.0242653739 0.0122195663
0.167016975 0.0245736842 0.0128019826
0.181882447 0.0246723465 0.0134715001
0.198231038 0.0244435412 0.0142430149
0.214104918 0.0244219006 0.0150050241
0.229707108 0.0249353723 0.0157345373
0.248031593 0.0252266816 0.0166340541
0.265821223 0.0256923285 0.0175508816
0.283091628 0.0263811417 0.0184876129
0.300594093 0.0265823988 0.0195529729
0.318901251 0.0257806672 0.0208285634
0.336729921 0.0250670107 0.0221576566
0.354089501 0.0244926329 0.0235190198
0.371537863 0.0251606864 0.0248539255
0.390877576 0.0259836537 0.0265009156
0.411432883 0.0273331429 0.0283817213
0.433131316 0.0289287493 0.0306519266
0.456063719 0.0291101718 0.0330955316
0.480038386 0.0287927957 0.0360054239
0.504778004 0.0324769219 0.0391051992
0.530379512 0.0346710519 0.0424885708
0.556771224 0.035320471 0.0461999982
0.583822096 0.0368710212 0.0501883584
0.611193137 0.0412497092 0.0550611634
0.63903497 0.0453976997 0.0603699965
0.667300459 0.0511135296 0.0659567644
0.69555831 0.059479991 0.0712389721
0.724131087 0.070830552 0.0777134375
0.752827713 0.0785055062 0.0848523362
0.781410967 0.0911934441 0.0916365688
0.810194074 0.107030651 0.098887401
0.838580803 0.114773343 0.107788283
0.86662687 0.136070033 0.116151197
0.894432279 0.156089557 0.124833571
0.921677628 0.177768616 0.135815199
0.946661184 0.203523035 0.146301146
0.965095877 0.230491098 0.157637775
0.984398752 0.258482473 0.172578869
0.990840501 0.290500659 0.185702672
0.996617141 0.321570722 0.202789534
1 0.35274481 0.221563312
1 0.385577246 0.239871393
1 0.415890017 0.263308488
1 0.448589592 0.286054335
1 0.479356633 0.310801742
1 0.511818816 0.336411968
0.0105900353 0.0274565254 0.00842097133
0.0107098245 0.0274587426 0.0084245514
0.0112089092 0.0274764575 0.00843772824
0.0122178383 0.0275153271 0.00846373863
0.0138308803 0.0275774705 0.00850532318
0.0161223868 0.0276657522 0.00856439868
0.0191560399 0.0277826255 0.00864260686
0.0229881828 0.0279302612 0.00874140027
0.0285699142 0.0280936895 0.00886696982
0.0356983645 0.0282615179 0.00902641862
0.0439701771 0.028468406 0.00921487691
0.053407278 0.0287071793 0.00943450154
0.0648490811 0.0288331789 0.00970635504
0.0761225998 0.0291479333 0.00999502456
0.0874369735 0.0296017662 0.0103092998
0.100335736 0.0297676315 0.0106953894
0.113319137 0.0300372294 0.0111128585
0.125799427 0.030423404 0.0115535193
0.139662839 0.0304997541 0.0120820749
0.153850214 0.0306294652 0.0126413898
0.167710973 0.0309701672 0.0132192335
0.182856193 0.0308697695 0.0139091176
0.199011463 0.0311090509 0.0145762735
0.214698901 0.0318426248 0.0151784251
0.23053889 0.0325753199 0.0158539445
0.24886247 0.0326002507 0.0167946902
0.266633732 0.0328043507 0.0177463965
0.283807988 0.0332396288 0.0187003857
0.301403511 0.0329570376 0.0198392909
0.31962975 0.0318425492 0.0211617453
0.337364111 0.0312493171 0.0224623522
0.354574607 0.0321458169 0.0236154177
0.372015895 0.0328573107 0.0249364237
0.39137453 0.0329094409 0.0266366521
0.411969232 0.0332869123 0.0286806019
0.433606037 0.0345760595 0.0309744147
0.456492071 0.0343331201 0.0334363393
0.480333728 0.0362663609 0.0362164173
0.505030024 0.0394705386 0.0393481967
0.530595883 0.0410836 0.0427601435
0.556964575 0.0412346879 0.0464629859
0.583917823 0.0442401106 0.050448845
0.611265234 0.0479384324 0.0553352248
0.639100721 0.0513060824 0.0606397189
0.667402877 0.0553503011 0.0662258656
0.695605465 0.0655465124 0.0714401075
0.724163536 0.0763110372 0.0780534701
0.752848176 0.0833775663 0.0851672584
0.781389006 0.0973257793 0.0918527796
0.810163464 0.112485825 0.0992094682
0.838490596 0.12115115 0.107943752
0.866544177 0.141773961 0.116297871
0.894352138 0.161165741 0.125087135
0.921533288 0.182723078 0.135963006
0.946501398 0.207932043 0.146435023
0.964955518 0.23439957 0.157892491
0.9843182 0.261985413 0.172804221
0.990732479 0.293612779 0.185900059
0.996632674 0.324180636 0.203109531
1 0.355057788 0.2218447
1 0.387509094 0.240213667
1 0.417589903 0.263588564
1 0.450088998 0.286303314
1 0.480615062 0.311067457
1 0.512930622 0.336647003
0.00995248695 0.0351778267 0.00880434468
0.0100688623 0.0351817852 0.00880761352
0.0105667197 0.0351987197 0.00882159775
0.0115778561 0.0352331133 0.00884999936
0.0131944269 0.0352881007 0.00889540692
0.0154909467 0.0353662163 0.00895991342
0.0185312365 0.0354696312 0.00904531155
0.0227115543 0.0355948681 0.00915499046
0.0290752117 0.0357331058 0.00929608091
0.0364803683 0.0359414244 0.00946741199
0.0447676246 0.0361217754 0.00967091966
0.0542729378 0.0363204089 0.00990509968
0.065739192 0.0364340388 0.0101788046
0.0771370123 0.0367159942 0.0104786303
0.0881574309 0.0371874792 0.0107920548
0.101242734 0.0372521438 0.0111898408
0.114034634 0.0375834559 0.0116056006
0.12654824 0.038020771 0.0120485507
0.140612732 0.0378995989 0.0125952343
0.154525848 0.0384743629 0.0130289348
0.168145277 0.039305369 0.0134613769
0.183890914 0.0398329093 0.0140547912
0.199919903 0.0401643918 0.0146960365
0.215455637 0.0406355169 0.0153186149
0.231613853 0.0409686077 0.01605157
0.249792935 0.0406809876 0.0170625785
0.267501882 0.04055944 0.0181024007
0.284721154 0.0406250574 0.0190825102
0.302420354 0.0400577777 0.0202424263
0.320462107 0.040259875 0.0213756377
0.338040841 0.0406533468 0.0225302944
0.35517171 0.0412242474 0.0237083368
0.372631668 0.0414892823 0.0250785075
0.391908024 0.0411835818 0.0268737804
0.41244926 0.041058277 0.0289997639
0.434159025 0.0411751884 0.0313736329
0.4569496 0.042532836 0.0337646527
0.480710039 0.0447696324 0.0364965416
0.505351911 0.0474511919 0.039662929
0.530888552 0.0483670268 0.0430528147
0.557222437 0.0479832474 0.0467484521
0.584052544 0.0526991658 0.0508715754
0.611365203 0.0556580928 0.0556755065
0.639178019 0.0583996446 0.0609646979
0.667396649 0.0635555294 0.0664142642
0.695669139 0.0726023624 0.0716854661
0.724208428 0.0826992878 0.0784616591
0.752841098 0.0908167485 0.0854659681
0.781367752 0.10450284 0.0921136595
0.810131007 0.118880832 0.0995947907
0.838387361 0.128641286 0.108132213
0.866449055 0.148482853 0.116475116
0.894259381 0.167144343 0.125390492
0.921364323 0.188565857 0.136141028
0.946313424 0.213137479 0.146596002
0.964819811 0.239043583 0.158193093
0.984223348 0.26612908 0.173073182
0.990604674 0.297297221 0.186135578
0.996651174 0.327272683 0.203490533
1 0.357799867 0.222179743
1 0.38978841 0.240590603
1 0.419607371 0.26392205
