Luts/Rec709-Input/Rec709_to_Leica_Classic.cube
TITLE "Rec.709 to Leica Classic"
LUT_3D_SIZE 33
0.0142977 0.0107881 0.0131533
0.0147035744 0.0110298878 0.0133470113
0.0164399178 0.0120642638 0.0141757143
0.0199663892 0.0141650563 0.0158587901
0.0256043933 0.0175237329 0.0185496352
0.0362811659 0.0226253163 0.0221238678
0.0574852902 0.0314257457 0.0273561102
0.0843216975 0.0389371771 0.029237653
0.111904087 0.0457731537 0.0290989665
0.140036538 0.0519147531 0.0275830804
0.174975392 0.0567889923 0.0270585116
0.210979729 0.0593656325 0.0233300086
0.247975459 0.0598732778 0.0165476358
0.287941646 0.0545230398 0.00921019312
0.32625621 0.0476817585 0.00332680825
0.363280232 0.0383265638 0.00128340653
0.398912605 0.0298950905 0
0.43828704 0.0193053527 0
0.482334608 0.0119100443 0.000150032444
0.527648132 0.00596726363 0.000487101608
0.574702212 0.00307606922 0.00025358741
0.622826621 0.00272656216 0.000653815201
0.675010835 0.00468666537 0.00412422593
0.72586859 0.00557673885 0.00774389405
0.767712871 0.00969219257 0.0150162981
0.803951499 0.0242493742 0.0571159537
0.8297785 0.0923500855 0.105559978
0.851110737 0.150632379 0.123770386
0.871431821 0.215624757 0.138909227
0.893262015 0.283385863 0.155940647
0.916386046 0.347585418 0.18429763
0.938264003 0.415082892 0.225268637
0.958322339 0.486036596 0.274072973
0.0145924229 0.011125708 0.0134308439
0.0148685713 0.0112769183 0.0135509004
0.0166049147 0.0123112943 0.0143796034
0.0201313861 0.0144120868 0.0160626792
0.0257693903 0.0177707634 0.0187535243
0.0364720981 0.0228016204 0.0222552311
0.0576624994 0.0315965172 0.0274842419
0.084505255 0.0390163274 0.0292789339
0.112033478 0.0458226 0.0291048436
0.140179979 0.0519517787 0.0276126664
0.17505047 0.0568153654 0.027087408
0.211084943 0.0594165829 0.0233499301
0.248028823 0.0599240331 0.0165776248
0.287997049 0.0545501355 0.00923686291
0.326293598 0.0477791022 0.0033463058
0.363368795 0.0386510945 0.00128446992
0.398980879 0.030188014 0
0.438345133 0.0195734588 0
0.482427393 0.0123693674 0.000156742359
0.527719616 0.0063652466 0.000493811523
0.57488336 0.00312522445 0.000258882458
0.623049743 0.00281417155 0.000700482324
0.675190923 0.00475674109 0.00415273046
0.726073036 0.00566548069 0.00781636243
0.767971535 0.00998170016 0.0151344875
0.804154624 0.0244557388 0.0572307049
0.829952367 0.0930091928 0.105527203
0.851269578 0.151224924 0.123710723
0.871571242 0.216059114 0.138885738
0.893368311 0.283705109 0.155960126
0.916468971 0.347835251 0.184321144
0.938322466 0.415276483 0.225291408
0.958360119 0.48618632 0.274103281
0.0158532567 0.0125700055 0.0146181855
0.0161268935 0.0127194622 0.014736816
0.0173107768 0.0133680985 0.0152518475
0.0208372482 0.015468891 0.0169349232
0.0264752523 0.0188275676 0.0196257683
0.0376309969 0.0237744525 0.0229498298
0.0584001374 0.0323188313 0.0280275735
0.0852751606 0.0393508721 0.0294549685
0.112576174 0.046031677 0.0291306401
0.140784276 0.0521088061 0.027739289
0.175349054 0.0569838407 0.0272596483
0.211529819 0.0596345304 0.0234361711
0.248279241 0.0601995825 0.0167031853
0.288231288 0.0546664661 0.00935138606
0.326566 0.048772199 0.00345674004
0.363753298 0.0400009442 0.00128912023
0.399277737 0.0314092722 0
0.438786852 0.0214900445 0
0.482822967 0.0142980849 0.000185447586
0.528024448 0.00804076787 0.00052251675
0.575542205 0.00389555705 0.000255217653
0.623995501 0.0031849144 0.000898792297
0.675955483 0.00505388124 0.0042742957
0.72694189 0.00604232699 0.00812576994
0.76907182 0.0112130681 0.015638168
0.805019564 0.0253341856 0.0577203771
0.830693391 0.0958182595 0.105387968
0.851947105 0.153752448 0.123456505
0.872166322 0.217913001 0.138785736
0.893822231 0.28506839 0.156043536
0.916823231 0.348902548 0.184421761
0.938572303 0.41610377 0.225388832
0.958521606 0.486826305 0.274232903
0.0184139796 0.0155033387 0.0170296475
0.0186876164 0.0156527954 0.017148278
0.0198582433 0.0162921759 0.0176557829
0.022270837 0.0176152348 0.0187064297
0.0279088411 0.0209739114 0.0213972748
0.0403680553 0.025995226 0.0245091684
0.0602395355 0.0334909726 0.0286615899
0.0866615591 0.0400708956 0.0298009285
0.113615283 0.0464623067 0.0291971867
0.141878756 0.0526476854 0.0281759692
0.175888455 0.0575586311 0.0278012345
0.212239384 0.0600425278 0.0236185277
0.248780344 0.0607789774 0.0169599621
0.288790697 0.0556178388 0.00954389038
0.327026428 0.0506532256 0.00381511714
0.364350123 0.0422418895 0.00143443789
0.399943655 0.0337549191 0
0.439802185 0.0256971834 0
0.483615931 0.0180476473 0.00024830394
0.529079867 0.0126188902 0.000389915157
0.5763743 0.00788178462 0.000133922115
0.625865607 0.00389801194 0.00118675429
0.677454498 0.00563256721 0.00451299634
0.728678444 0.00679409356 0.00875110533
0.771275727 0.013678955 0.0166516154
0.806756432 0.0270967543 0.0587087939
0.832201436 0.101542442 0.105140752
0.853313291 0.158849216 0.12294523
0.873368154 0.221656885 0.138585027
0.894740086 0.287824956 0.156213345
0.91748387 0.351059226 0.184722086
0.939078366 0.417779498 0.225586736
0.958848906 0.488123427 0.274495971
0.0225079774 0.0201930535 0.0208850121
0.0227741824 0.020360274 0.0210088268
0.0238987983 0.0211096318 0.0215484281
0.0261828659 0.0226315592 0.0226443452
0.0306322107 0.0249233026 0.0241594405
0.0436723533 0.0303147221 0.0272304166
0.0624528517 0.0358011131 0.0296576393
0.0872341107 0.0424383789 0.0309598837
0.114433342 0.0486698825 0.0302601232
0.14318438 0.0544796249 0.0294905412
0.176888078 0.0586182601 0.0287009454
0.213321224 0.0610486668 0.0239395796
0.250212582 0.0626666742 0.0173341021
0.2899459 0.0588033345 0.00976617955
0.327968474 0.0533686726 0.00436168035
0.365113283 0.0454866132 0.00198379705
0.401072971 0.0415737512 0
0.441442261 0.0318787625 0.000144978556
0.484828204 0.0236458757 0.000393988563
0.530781182 0.0196918317 0.000166497073
0.577703569 0.0139085881 4.55647023e-06
0.627938714 0.0113923472 0.00163004513
0.679772982 0.00652458194 0.00487735547
0.731380267 0.00795986653 0.00974236014
0.774716885 0.0175275342 0.0182461674
0.809683039 0.0359568289 0.0589117252
0.834580262 0.110573684 0.104767853
0.855470582 0.166897869 0.122141545
0.875271055 0.227584023 0.138270683
0.896196392 0.29219843 0.156485929
0.918504442 0.354484754 0.185240081
0.939883718 0.420446239 0.225903244
0.959370313 0.490189828 0.274916027
0.0259058511 0.0328278122 0.0286881365
0.0260530839 0.0328943899 0.028737203
0.0271043906 0.0335918646 0.0292456313
0.0295604688 0.0350757216 0.0302924806
0.03556537 0.0367239605 0.0310967494
0.0444890446 0.0389877857 0.0322172556
0.064491614 0.0428068072 0.0329654057
0.0877239325 0.0472229856 0.0330137934
0.114446912 0.0542697245 0.0324647475
0.145293466 0.0590199292 0.0315571112
0.178092286 0.0638728823 0.0308050552
0.215667434 0.0654905889 0.0246898208
0.252833235 0.0658550497 0.0179380494
0.291883881 0.0629738752 0.0104833277
0.329783882 0.0617349894 0.00487171668
0.366851436 0.0582377623 0.00189666194
0.402470903 0.0529916133 3.21681695e-05
0.442572312 0.0423137129 0.000385727363
0.4869894 0.035347346 0.000206064662
0.533187847 0.0288764524 9.16405335e-06
0.580330134 0.0241764033 5.70973896e-06
0.630655898 0.0218733551 0.00218639302
0.682918223 0.0203925948 0.00523073881
0.735041464 0.00981711365 0.0111346403
0.779441142 0.0228076626 0.0204594402
0.813843565 0.0517537986 0.058423985
0.837883268 0.123112266 0.104263603
0.858479976 0.178126752 0.121027912
0.877936011 0.235883393 0.137837572
0.898242121 0.298341591 0.156875392
0.91995437 0.359306989 0.185813778
0.941020017 0.42420879 0.226353079
0.960107109 0.493109871 0.275511648
0.0187798704 0.0544433677 0.038281032
0.0191198661 0.0544694748 0.0382878377
0.0205749371 0.0545804374 0.0383166895
0.0235933309 0.0547966536 0.0383710841
0.0293732485 0.0555854929 0.0386221635
0.0419012337 0.057164017 0.038775941
0.0632543777 0.0586320179 0.0381777889
0.0880567805 0.0624537834 0.0377572663
0.11637288 0.0663433948 0.0368011305
0.148142642 0.0695612151 0.0354918966
0.181685759 0.0727322137 0.0325557469
0.218443895 0.0755478534 0.0264601158
0.256012885 0.0768361771 0.0190347777
0.294387249 0.0761261283 0.0109406658
0.331864349 0.0739052682 0.00577607762
0.368683506 0.0709614601 0.00246283971
0.404602567 0.0705329946 0.000189747624
0.444405331 0.0649572814 0.000374238963
0.488277847 0.0563509232 0.000277233591
0.535343945 0.0452733094 1.01270629e-05
0.584399994 0.0392237134 0.000281776724
0.634023433 0.0346276159 0.00284402286
0.686771296 0.0382748945 0.00569928045
0.738283927 0.0254030113 0.0128539817
0.785111652 0.0308828439 0.022924192
0.819057912 0.0725332038 0.0592017364
0.84216049 0.13931879 0.103579608
0.862368249 0.192636909 0.119602057
0.881397082 0.246659598 0.137287528
0.900922149 0.306346684 0.157230725
0.921851156 0.365615588 0.18657393
0.942510473 0.429143961 0.226948918
0.961075534 0.496947958 0.276298161
0.00737828835 0.0781840162 0.0453748028
0.00772832354 0.0781991728 0.0453689297
0.00961897814 0.0782273811 0.0453248352
0.0134634286 0.0782824134 0.0452346506
0.0234394538 0.0787408491 0.0450561791
0.0398364566 0.0797360391 0.0446948277
0.0612135491 0.0813103175 0.0439324356
0.0908201197 0.0835697353 0.0429446225
0.119238827 0.0866696703 0.0414829929
0.151545855 0.0883467931 0.0390824948
0.185828224 0.0900279696 0.0347511699
0.222147329 0.0910555933 0.0286205828
0.259793937 0.0927929677 0.0205565769
0.296912064 0.0944456638 0.0120491446
0.334568395 0.0951762035 0.0064361034
0.370794507 0.0950303787 0.00289898408
0.406237121 0.0928367373 0.000740846288
0.446270614 0.0886296737 0.000616202342
0.490345613 0.0832950234 0.000424428813
0.537304932 0.0754064419 6.22969322e-06
0.586955265 0.0627012261 0.00112578922
0.639169903 0.0570542466 0.00345144238
0.691329524 0.0590438656 0.00628147581
0.74307509 0.0534769611 0.0117848304
0.78886092 0.0541914419 0.0222423637
0.824904621 0.0980293642 0.0605866951
0.848127955 0.161327493 0.101492595
0.867132074 0.210417413 0.117875269
0.885700304 0.259907375 0.136204672
0.904263325 0.316257669 0.157423803
0.924211138 0.373465048 0.187535018
0.94437113 0.435304803 0.227702006
0.962287648 0.501751927 0.277288427
0.0029692258 0.103708068 0.0499252262
0.00342616775 0.103771591 0.0499155933
0.00534528609 0.104043017 0.0498755199
0.0128857786 0.104483116 0.0496817867
0.024150593 0.105192961 0.049396805
0.0396940622 0.106314099 0.0489202261
0.0638934245 0.108086221 0.0478782229
0.0909036015 0.11027815 0.0466788367
0.123011986 0.112127221 0.0441114055
0.152953549 0.114113495 0.0414723647
0.18947153 0.115600545 0.0365954292
0.224177646 0.117444414 0.0311675785
0.262770567 0.118247862 0.0224441775
0.299820654 0.119341846 0.014098739
0.337085358 0.119174917 0.00842365808
0.372811814 0.120777749 0.00428050253
0.408395762 0.120744884 0.00142659404
0.447479199 0.118649699 0.00066619774
0.491658933 0.11370422 0.000470560552
0.539725099 0.107239852 0.00116729697
0.589448716 0.0976930545 0.000944127953
0.642267036 0.0901870428 0.00308572044
0.696686246 0.0838892268 0.00851863446
0.748552707 0.0851361105 0.0107002192
0.793434945 0.0842183639 0.024076161
0.82878232 0.130384829 0.064372674
0.854838035 0.186570133 0.0986927009
0.87282054 0.231689361 0.115186594
0.890847431 0.2755778 0.134452802
0.908250525 0.328084624 0.157686077
0.927041348 0.382878948 0.188710053
0.946401143 0.442682949 0.228937293
0.963751782 0.507554859 0.278493259
0.0126437864 0.133034573 0.0519774969
0.013029016 0.133084668 0.0519691414
0.0146515604 0.13329877 0.0519342101
0.0178263685 0.133732587 0.0518671097
0.028947299 0.134456455 0.0514409146
0.0467820533 0.135545695 0.050707752
0.0675263324 0.137225196 0.0496177899
0.0939854311 0.138963068 0.0475338313
0.123677945 0.140770337 0.0447330217
0.157287161 0.142810318 0.041038446
0.191628848 0.144454576 0.0359668317
0.227835169 0.146483872 0.0304365507
0.265571052 0.14827098 0.0221810277
0.30205026 0.149825148 0.0143549855
0.339581342 0.150929425 0.0103368919
0.374505069 0.151666864 0.00641327174
0.409694083 0.150318993 0.00366548417
0.44901833 0.149497768 0.000830801331
0.493091003 0.146064785 0.000787583092
0.541239835 0.142351269 0.00112197681
0.592868789 0.138657677 0.000563291954
0.645029436 0.127221247 0.00302736604
0.70000271 0.123452857 0.0118228054
0.754697754 0.120041354 0.0110365455
0.799107669 0.127680529 0.0293407578
0.833140181 0.16784491 0.0690873938
0.859992575 0.210222415 0.0959568785
0.879990329 0.254082383 0.11155927
0.89677205 0.293613201 0.132490291
0.912871708 0.341791653 0.158033649
0.930340298 0.393852584 0.190110717
0.948566935 0.451283214 0.230719606
0.965472836 0.514376245 0.279921664
0.0156309857 0.165965658 0.048996705
0.0161841084 0.166027152 0.0489708027
0.0185868598 0.166285224 0.0488585341
0.0234743784 0.1667955 0.0486302664
0.030875616 0.167601679 0.0482820901
0.0454423677 0.168662748 0.0475288497
0.0677655407 0.169991436 0.046000771
0.0950963792 0.171527868 0.0437417809
0.123776037 0.173029251 0.0410509162
0.158626161 0.17451719 0.036912771
0.194060028 0.176416231 0.0316071493
0.230815442 0.177797461 0.0259196361
0.267985142 0.179921252 0.0190631977
0.305396718 0.181675166 0.0141666127
0.34144868 0.182931673 0.010122288
0.376954345 0.184164298 0.00726592528
0.412152062 0.184224286 0.00553613823
0.450569735 0.183946731 0.00295740818
0.495159735 0.1822441 0.0018861043
0.543161188 0.178297361 0.00191622514
0.594589196 0.174465796 0.00165957453
0.648795846 0.173556792 0.00589399948
0.702977672 0.164992626 0.0163379452
0.757977892 0.159601836 0.0119954351
0.805276795 0.174532203 0.0353235121
0.838942164 0.20403123 0.0705793471
0.865641342 0.236322257 0.0933623839
0.885733041 0.274320586 0.110025677
0.903428094 0.313872336 0.130354921
0.918103126 0.35730811 0.15848391
0.934098806 0.406355681 0.191747355
0.951047299 0.46113361 0.232786914
0.967452516 0.52222292 0.281580994
0.0195542261 0.199666556 0.0407786108
0.0200428189 0.199721484 0.0407418954
0.0221086288 0.199955902 0.0405858578
0.0261870878 0.200429273 0.0402739134
0.0345004655 0.201376154 0.0394505585
0.047152801 0.202752946 0.0381321031
0.067687443 0.204024476 0.036257964
0.0921243294 0.205513071 0.033695923
0.127239462 0.207531892 0.0294788328
0.159735546 0.209197209 0.0251101947
0.195602181 0.211077021 0.020705758
0.234873127 0.213080005 0.0174068701
0.270071451 0.214814052 0.0117549849
0.308073724 0.215977868 0.0109638444
0.344621276 0.217281065 0.00966269005
0.379323881 0.217337129 0.00744640041
0.41409004 0.217275986 0.00665727942
0.453268025 0.217677814 0.00558145654
0.497013537 0.216733881 0.00320059877
0.545663177 0.216576937 0.00413648476
0.597392439 0.214133297 0.00585068031
0.651032592 0.21127537 0.0150048092
0.706198646 0.209639724 0.0206700136
0.760519647 0.203879582 0.014458056
0.808871939 0.217095509 0.0413312693
0.846430391 0.236920578 0.0676641754
0.871740582 0.264489424 0.0907215569
0.891985986 0.296401122 0.108734395
0.908711122 0.333057382 0.130451436
0.923911188 0.37453414 0.159054858
0.938300889 0.420335386 0.193628901
0.953838767 0.472230879 0.235156724
0.969663606 0.531072537 0.283499245
0.024070585 0.233962564 0.0271998575
0.0246849183 0.234026407 0.0271375014
0.0272872827 0.234298387 0.0268727651
0.0324482149 0.234845247 0.0263448729
0.040373839 0.235705021 0.0255265156
0.0510062766 0.236898219 0.0244133683
0.0681401691 0.238257123 0.0226327675
0.0966424447 0.23971292 0.0195485299
0.12796177 0.241613939 0.0161234326
0.163023466 0.243815978 0.0128770733
0.199050536 0.245497225 0.0105977986
0.235786361 0.247502848 0.00824717656
0.275058929 0.249437405 0.00768260229
0.310967809 0.250668452 0.00708517367
0.346523004 0.25223339 0.006446305
0.383098445 0.253281704 0.00719204873
0.416611305 0.253492441 0.00586864672
0.455339091 0.253860128 0.00553042799
0.50010795 0.254299732 0.00566060528
0.547767799 0.252594137 0.00699176514
0.599940572 0.251684673 0.0158711344
0.653871807 0.250106837 0.0220513807
0.708710967 0.250309497 0.0240180966
0.763269254 0.248855467 0.0213304059
0.811669343 0.255408448 0.0465803459
0.852174079 0.270833856 0.0675107637
0.878975406 0.293423269 0.088324272
0.898595074 0.320136085 0.108140182
0.913927166 0.353217056 0.131525665
0.92917453 0.392146395 0.16025958
0.942924768 0.435719578 0.195762745
0.956936185 0.484573775 0.237854499
0.971539738 0.540531689 0.286161816
0.0245082197 0.269831375 0.0159015083
0.0250266715 0.269888927 0.0158527511
0.0272256075 0.27013429 0.0156456481
0.0315993769 0.270628504 0.015232215
0.0404054855 0.271563835 0.0145500204
0.0544222047 0.273021517 0.0135792029
0.0725976425 0.274874224 0.012535387
0.0969458353 0.276451764 0.0102466406
0.126601612 0.278043926 0.00749954887
0.164405037 0.27990362 0.00595519433
0.202580808 0.281968229 0.00475972759
0.237852861 0.283447308 0.00325298566
0.276845745 0.284860937 0.00377746881
0.315321225 0.286485828 0.0039499573
0.350014864 0.287136688 0.00393604917
0.38509333 0.287723601 0.00460453901
0.419923501 0.288663297 0.0052518923
0.458145348 0.288659085 0.00590686495
0.501905532 0.289410618 0.00854362087
0.551001128 0.289985599 0.0167503979
0.602414148 0.289085603 0.0252403472
0.657217323 0.289841478 0.0274770651
0.711240291 0.287783752 0.028755724
0.765678147 0.290072608 0.0300910696
0.814946577 0.293414198 0.0519227827
0.854555214 0.304810514 0.0717348335
0.887290422 0.322745436 0.0862376478
0.905579157 0.345213604 0.107698909
0.919484152 0.374730427 0.132654216
0.933612972 0.410012473 0.162583253
0.947797917 0.452251979 0.198202774
0.960321086 0.498064749 0.240853281
0.973601372 0.550928731 0.289120829
0.0305521626 0.304757071 0.00648310349
0.0312279452 0.304826453 0.00644414745
0.0340975656 0.305122094 0.00627872593
0.0398215308 0.305716784 0.00594876339
0.048696031 0.30665224 0.00543718332
0.0607580128 0.307950883 0.00474184531
0.0768744329 0.30960335 0.00410641321
0.100138685 0.311767953 0.00372237971
0.131325054 0.313235326 0.00270507894
0.165297857 0.314964493 0.00160227517
0.201790174 0.317056888 0.0010207506
0.24320676 0.318926114 0.00131430023
0.279509799 0.320288306 0.00196940566
0.316422376 0.321857391 0.00284349723
0.35487558 0.32317878 0.00372679245
0.38820214 0.323765355 0.00493520446
0.42183769 0.324621919 0.00725811882
0.461750846 0.325734575 0.0129568332
0.504539452 0.325907581 0.0156720473
0.553284462 0.325885548 0.0256599789
0.605454694 0.32556602 0.0349112026
0.659247923 0.324762037 0.0354227925
0.714236698 0.326003381 0.038683328
0.76767688 0.326314096 0.0407940385
0.818131018 0.332051864 0.0584136165
0.858322903 0.338164816 0.0744572
0.890819908 0.351632541 0.0874596843
0.912672306 0.371597294 0.108584412
0.925335543 0.397404671 0.135281501
0.937963403 0.429102122 0.166012654
0.951411757 0.468127369 0.201440728
0.963978032 0.512642922 0.244152719
0.975841851 0.562230833 0.29237608
0.0313256938 0.339869562 0.00460358499
0.0319111989 0.339928709 0.00457736685
0.0343998215 0.340180851 0.00446612024
0.0393751104 0.340688596 0.00424464946
0.0471181591 0.341488722 0.00390250263
0.0611641847 0.342782728 0.00344434529
0.0807759927 0.344500651 0.0035309025
0.104068956 0.346593557 0.00364350524
0.131222492 0.348501837 0.00339574745
0.1625662 0.349960032 0.00257726001
0.203212635 0.35173545 0.00183447935
0.24532319 0.353792032 0.00207218007
0.282756921 0.355325803 0.00268547146
0.319192993 0.356329456 0.00453229734
0.356230979 0.357464285 0.00585502956
0.392434477 0.358694951 0.0067188413
0.425304989 0.359040092 0.0111391873
0.463666477 0.359727338 0.0177628959
0.508354825 0.361125409 0.0224250541
0.555968093 0.360811899 0.0303067568
0.608393778 0.361595751 0.0391814928
0.662229254 0.361093992 0.0427341417
0.716526087 0.361763364 0.0474030317
0.769892957 0.362318368 0.0524008511
0.819998051 0.36533294 0.066109631
0.862915723 0.37115437 0.0764700179
0.894338463 0.381089389 0.0901083788
0.918127519 0.398480427 0.112237481
0.931427855 0.421068899 0.13844373
0.942545209 0.449202448 0.169754502
0.955250328 0.484986673 0.204978074
0.967308265 0.527276079 0.247843567
0.978253099 0.574398012 0.295925638
0.0362300507 0.373703883 0.00554893359
0.0369302079 0.37376719 0.00551431536
0.0399086965 0.374037092 0.00536714016
0.0458756436 0.374580711 0.00507274771
0.0551943279 0.37543761 0.00461421125
0.0685683617 0.376629221 0.00443394909
0.0858150691 0.378164991 0.00445429017
0.106429081 0.380043916 0.00448279143
0.133826657 0.382393794 0.00449616464
0.168619819 0.384057981 0.00352351409
0.205843911 0.385676046 0.00246528432
0.24456821 0.387568832 0.00256938115
0.287465058 0.389582653 0.00276536304
0.324260089 0.39068674 0.00420574804
0.359355296 0.391740137 0.00576181181
0.394681621 0.392941169 0.00667257515
0.430583735 0.394154564 0.00897355849
0.467372766 0.394724227 0.0143941633
0.510898938 0.395656063 0.021245977
0.559851152 0.396421058 0.0301141227
0.610781188 0.396023153 0.0404478476
0.665739919 0.396772485 0.0502584382
0.718648172 0.395889585 0.0549200041
0.772395247 0.398317552 0.0602122357
0.822211 0.399425696 0.0714161807
0.866123245 0.403750708 0.0798732882
0.898295938 0.411334737 0.0950538543
0.921599196 0.425329961 0.117144862
0.937791042 0.445844278 0.141995897
0.947371523 0.470456402 0.173916187
0.958941016 0.502688642 0.20978089
0.970291299 0.542010199 0.251980955
0.980859157 0.587551838 0.299816452
0.0423201455 0.412773645 0.00375009271
0.0429222632 0.412827706 0.00372062642
0.0454857112 0.413058295 0.00359525013
0.0506309864 0.413523251 0.00334395862
0.0589170512 0.414257052 0.00312482139
0.0707558829 0.415280306 0.00314062313
0.0910149683 0.416791547 0.00312867745
0.115738224 0.418654979 0.00311549439
0.144286091 0.420851864 0.00310500186
0.176082929 0.423234058 0.00299431113
0.209720813 0.424606013 0.00185484268
0.248075995 0.426103063 0.00196556994
0.288962337 0.427749416 0.00255211378
0.331156717 0.429581286 0.00319222869
0.365268353 0.430516862 0.0050549563
0.399100601 0.431360963 0.00701864839
0.433422999 0.432376538 0.00908619767
0.472811325 0.433679427 0.0118860511
0.514832665 0.433882197 0.0229239345
0.562981579 0.434862712 0.0308847679
0.614552682 0.435353651 0.0405544641
0.668375057 0.43545194 0.0503570842
0.72180313 0.436031126 0.0602455539
0.774326222 0.436535612 0.0684884826
0.825047249 0.43876249 0.0779128003
0.867851588 0.440177384 0.0856724684
0.903448811 0.447014727 0.102345271
0.925746867 0.457273333 0.123304878
0.942155739 0.474172644 0.149368607
0.953195951 0.496333008 0.179508845
0.963337119 0.524299112 0.216121082
0.973978752 0.560224837 0.257207492
0.98335601 0.602302684 0.304889975
0.0575953606 0.457135639 0.00569792802
0.0583048633 0.457190365 0.00567710753
0.061327858 0.457423846 0.005588548
0.0675771113 0.457880507 0.00561540179
0.0774264954 0.458600208 0.00569184543
0.0910747411 0.459606223 0.00580131734
0.108555879 0.460910003 0.00594769635
0.129747323 0.46251431 0.00613472127
0.154397803 0.464414795 0.00636598838
0.188161659 0.466606198 0.00543808339
0.225493244 0.468694048 0.00381023813
0.260576911 0.469942317 0.0029794732
0.297559893 0.471385521 0.00332605891
0.335703974 0.472969155 0.00361852459
0.374012499 0.474657048 0.00372559888
0.407174584 0.475654863 0.00489348391
0.439086207 0.476482215 0.00651741151
0.476957026 0.477525789 0.00934799986
0.521638819 0.478818279 0.0141159245
0.567419101 0.479215979 0.0244028978
0.618886144 0.480198962 0.0375131838
0.672326074 0.480239328 0.0516447267
0.725128024 0.480429646 0.0659804094
0.777075737 0.480720747 0.0771445875
0.827294907 0.481957981 0.084665569
0.870460915 0.483152868 0.0980576141
0.90546224 0.487009182 0.113048987
0.93085765 0.495483416 0.132322276
0.946524569 0.507990247 0.159065324
0.959521315 0.527655938 0.187570925
0.968801239 0.551197947 0.224250728
0.978172202 0.582703988 0.264379786
0.986295273 0.620525925 0.311459981
0.0806034523 0.506624411 0.00897735901
0.0812096304 0.506668087 0.00897890674
0.0837941459 0.50685452 0.00898555723
0.0890001499 0.507231112 0.00899920808
0.0986680746 0.50782872 0.0087274673
0.113252941 0.508667081 0.0081229634
0.132037893 0.509757144 0.00734610199
0.154964198 0.511103673 0.00640067364
0.181841341 0.512705693 0.00529622393
0.212395485 0.514556607 0.00414181537
0.246249503 0.516647391 0.00294276216
0.281033652 0.518567969 0.00180868117
0.312606375 0.519703217 0.00226606163
0.34578257 0.520980848 0.00296861302
