Luts/Rec709-Input/Rec709_to_Leica_Natural.cube
TITLE "Rec.709 to Leica Natural"
LUT_3D_SIZE 33
0.00717174 0.00679026 0.00660716
0.00785844152 0.00681447794 0.00662537931
0.0107961724 0.00691808303 0.00670332211
0.0167626325 0.00712850246 0.00686162204
0.0263016088 0.00746491398 0.00711470666
0.0406542972 0.00782244271 0.00749362073
0.0605090705 0.00848343591 0.00801353898
0.0845883587 0.00893245888 0.00869507875
0.109982266 0.00918863215 0.00953770322
0.136184832 0.010086528 0.010526095
0.165180593 0.00860626711 0.0117601534
0.195854293 0.00834805434 0.0131534972
0.227693684 0.00902577141 0.0146803241
0.263774108 0.00805770616 0.0167378533
0.298589174 0.0088763488 0.0189663663
0.334906223 0.010439503 0.0214107426
0.369758718 0.012505871 0.024113517
0.410097243 0.0107111106 0.0278749463
0.455020218 0.013963555 0.0323673634
0.504133287 0.014603572 0.0384719521
0.556284813 0.020085859 0.0454268066
0.610876716 0.0261173505 0.0542478074
0.667049686 0.0396051681 0.0652524483
0.724069833 0.0557669499 0.0768265532
0.781488262 0.0744584947 0.0910776498
0.838684382 0.101133893 0.107119618
0.894653466 0.142389635 0.124272117
0.947093241 0.191672009 0.145952494
0.984616203 0.249097752 0.171984225
0.996576006 0.314596722 0.201941627
1 0.38031364 0.238976428
1 0.444597979 0.285394691
1 0.508862805 0.335789054
0.00729444594 0.00753211328 0.00667227007
0.00792773142 0.00754405375 0.00669115298
0.0108654623 0.00764765884 0.00676909577
0.0168319224 0.00785807827 0.00692739571
0.0263708987 0.0081944898 0.00718048032
0.0408016327 0.0085207963 0.00756174536
0.060643518 0.00918249063 0.00808159987
0.0847314079 0.00959700435 0.00876103231
0.110106946 0.00983343024 0.00960330903
0.136330989 0.010602706 0.0105933415
0.165268082 0.00913113834 0.011826626
0.195994081 0.00909107496 0.0132032804
0.227789605 0.00977520309 0.014729437
0.263876543 0.00882095112 0.0167954072
0.298713024 0.00921820996 0.0190223221
0.335005084 0.0110818383 0.0214463313
0.369848648 0.0130740953 0.0241539864
0.410165398 0.0112295069 0.0279183188
0.455068257 0.0147628339 0.0323973395
0.504169917 0.0152932484 0.0385106252
0.556321253 0.0205500693 0.0454718733
0.610895646 0.0268163714 0.0542973899
0.667061274 0.040198972 0.0652868245
0.724071979 0.0565318715 0.0768699171
0.781483759 0.075303982 0.0911048025
0.838679702 0.101798562 0.107154043
0.894642299 0.143076315 0.124289256
0.947071556 0.192264407 0.145969535
0.984605302 0.249565793 0.172013568
0.996578041 0.314943903 0.201983592
1 0.380584205 0.239018318
1 0.444796174 0.285427336
1 0.509009451 0.335819889
0.00781938585 0.0107057851 0.00695081298
0.00845163714 0.0107174879 0.00696970875
0.0111618866 0.0107688073 0.0070504776
0.0171283467 0.0109792267 0.00720877753
0.026667323 0.0113156382 0.00746186214
0.041373399 0.0115632528 0.00785044053
0.0611994656 0.0121741146 0.00837267145
0.0853298399 0.012440745 0.00904307288
0.110629983 0.0125931167 0.00988388451
0.136948391 0.0128120971 0.0108809258
0.16564597 0.0118730782 0.0120754108
0.19658767 0.0122703877 0.0134161869
0.228189984 0.0130848665 0.0149618284
0.264312265 0.0120853045 0.017041626
0.299163724 0.0125447352 0.0191575563
0.335435293 0.0137613046 0.0216048549
0.370239468 0.0154484157 0.024332295
0.410439317 0.0146922126 0.0280156374
0.455278556 0.0181200794 0.03253083
0.504330236 0.018197398 0.0386799877
0.556455052 0.0230433 0.0456518052
0.610978457 0.0297742971 0.0545104282
0.667112209 0.0427163163 0.0654349472
0.724082227 0.0597802203 0.0770560504
0.781465312 0.0788996301 0.0912215613
0.838660205 0.104628469 0.107301576
0.894594958 0.146002946 0.1243629
0.946979162 0.194791259 0.146042681
0.984558841 0.251563478 0.17213918
0.996586747 0.316426482 0.202163084
1 0.38174007 0.239197479
1 0.445643143 0.285566967
1 0.509636278 0.335951768
0.00888552606 0.0171514356 0.0075165269
0.00951777735 0.0171631384 0.00753542266
0.0122225684 0.0172132032 0.00761625932
0.0177303774 0.0173182035 0.00778025718
0.0272693537 0.017654615 0.0080333418
0.042469039 0.017803908 0.00843369814
0.0625907824 0.018137961 0.00896226675
0.0863210146 0.0183112526 0.00962269944
0.111644387 0.018242259 0.0104489282
0.138160335 0.0189133591 0.0113484011
0.166432595 0.0193255696 0.0124608837
0.197589243 0.0192551436 0.0138910571
0.228986609 0.0198374879 0.0154417566
0.265194042 0.0194707043 0.0174197934
0.29997084 0.0209532667 0.0193697398
0.336231712 0.0199352704 0.0219179546
0.371035574 0.0200534002 0.024708841
0.411008381 0.0222153423 0.0281829383
0.455727261 0.0246450833 0.032832639
0.504585146 0.026535693 0.0389218257
0.556632114 0.0302901142 0.0459628699
0.611133953 0.035801358 0.0548400923
0.667219491 0.0476666264 0.0657372425
0.724108227 0.0662606852 0.0774370202
0.781431838 0.0860977778 0.091461576
0.838623174 0.110309306 0.107602472
0.894499466 0.151894102 0.124626769
0.946793369 0.199886458 0.146192425
0.984465337 0.255597903 0.172394685
0.996604424 0.319424303 0.202527461
1 0.383988119 0.239586004
1 0.447358753 0.285850438
1 0.510906728 0.336219457
0.0105900353 0.0274565254 0.00842097133
0.0112089092 0.0274764575 0.00843772824
0.0138308803 0.0275774705 0.00850532318
0.0191560399 0.0277826255 0.00864260686
0.0285699142 0.0280936895 0.00886696982
0.0439701771 0.028468406 0.00921487691
0.0648490811 0.0288331789 0.00970635504
0.0874369735 0.0296017662 0.0103092998
0.113319137 0.0300372294 0.0111128585
0.139662839 0.0304997541 0.0120820749
0.167710973 0.0309701672 0.0132192335
0.199011463 0.0311090509 0.0145762735
0.23053889 0.0325753199 0.0158539445
0.266633732 0.0328043507 0.0177463965
0.301403511 0.0329570376 0.0198392909
0.337364111 0.0312493171 0.0224623522
0.372015895 0.0328573107 0.0249364237
0.411969232 0.0332869123 0.0286806019
0.456492071 0.0343331201 0.0334363393
0.505030024 0.0394705386 0.0393481967
0.556964575 0.0412346879 0.0464629859
0.611265234 0.0479384324 0.0553352248
0.667402877 0.0553503011 0.0662258656
0.724163536 0.0763110372 0.0780534701
0.781389006 0.0973257793 0.0918527796
0.838490596 0.12115115 0.107943752
0.894352138 0.161165741 0.125087135
0.946501398 0.207932043 0.146435023
0.9843182 0.261985413 0.172804221
0.996632674 0.324180636 0.203109531
1 0.387509094 0.240213667
1 0.450088998 0.286303314
1 0.512930622 0.336647003
0.00966054852 0.0440223444 0.00934710329
0.0100390536 0.0440425614 0.00936537103
0.0125325389 0.0441315574 0.00943975795
0.0181228926 0.0443090602 0.00959100801
0.0296359443 0.0445790108 0.00984881411
0.0456797947 0.045016766 0.0102208628
0.0666531422 0.0452291222 0.0107344054
0.0895287931 0.0460303954 0.0112818811
0.11457326 0.0470400292 0.0118929864
0.141596603 0.0481946976 0.0126732028
0.168688897 0.049216286 0.0135648481
0.200937012 0.0495748102 0.0150078092
0.232981685 0.0497294969 0.01654425
0.26848271 0.0493537875 0.0184844743
0.303374951 0.0505872924 0.0202902382
0.33889419 0.0508824684 0.0226715508
0.373402637 0.0509111733 0.0253317168
0.413031594 0.0497349558 0.0294079695
0.457393835 0.0524915933 0.0341255649
0.505782202 0.056245048 0.0399722693
0.557432801 0.0581894984 0.0469866554
0.611502962 0.064373871 0.0561525453
0.667392711 0.0729172628 0.0666371393
0.724264576 0.0900016784 0.0789389829
0.781349425 0.112717365 0.0924226841
0.838272401 0.137247949 0.108356642
0.894154664 0.174036787 0.125746572
0.946097029 0.219155422 0.146786054
0.984114039 0.270930229 0.173388063
0.996672783 0.330861765 0.203935357
1 0.392437961 0.241030682
1 0.45394123 0.286945973
1 0.515790565 0.337253472
0.0099982527 0.0661030891 0.0100651464
0.0106850346 0.0661233173 0.0100819069
0.0136233733 0.0662091282 0.0101536553
0.0196039736 0.0663841615 0.0102996053
0.0300116829 0.0667021322 0.0105335797
0.0469833032 0.0670701358 0.0108618219
0.0681919695 0.0676580452 0.011316861
0.091307984 0.0680183579 0.0119396393
0.116335364 0.0685921743 0.0126867573
0.143495953 0.0690987032 0.01351627
0.171567352 0.0704543152 0.0142737777
0.203000379 0.0710905312 0.0153741841
0.23575302 0.0718983273 0.0167026955
0.270764765 0.0725020988 0.0184862596
0.305637752 0.0723094085 0.0205636705
0.340820289 0.0721104035 0.0232423521
0.375327761 0.0736062358 0.0262098303
0.414420209 0.0737936887 0.0301376653
0.458430038 0.0745241455 0.0348485491
0.506687507 0.0766658837 0.040733226
0.558049167 0.0816176812 0.047909824
0.611913991 0.0844526262 0.0573630422
0.667446273 0.0947063753 0.0672312789
0.724217968 0.108442948 0.0799299246
0.781304417 0.131957107 0.0931545967
0.838007074 0.15783529 0.109028423
0.893899479 0.190645917 0.126611618
0.945579726 0.233656317 0.147261461
0.983852255 0.282545929 0.174164321
0.996725838 0.339541176 0.20493973
1 0.398886176 0.24211033
1 0.458994174 0.287795472
1 0.519549599 0.338054718
0.0107231417 0.0911826475 0.0104614973
0.011396988 0.0911982564 0.0104738502
0.0143554436 0.0912927756 0.0105267654
0.0203467559 0.0914849073 0.0106344314
0.031817162 0.0917092774 0.0108091864
0.0485417212 0.0920365353 0.0110542678
0.0684292486 0.0925860955 0.0114097119
0.0935810685 0.0931608002 0.0118658058
0.118098194 0.0936895302 0.0124709784
0.145525732 0.0945073714 0.0133417269
0.174492131 0.094835032 0.0143920477
0.205546381 0.0952246217 0.0156763553
0.23906368 0.0961195005 0.0169562363
0.273056317 0.0970571521 0.0185311172
0.308425998 0.0978167977 0.0212024479
0.342933427 0.0979750705 0.0241316561
0.377149169 0.0980663026 0.0271285547
0.41615953 0.0986627298 0.0311697678
0.459912486 0.100352005 0.0359350414
0.507580774 0.102470439 0.0416406962
0.558758878 0.105647764 0.0496228917
0.612359625 0.112429281 0.0585901785
0.667626192 0.120060919 0.0680585855
0.723973328 0.133519695 0.0804938145
0.781028073 0.152901032 0.0936768474
0.837665399 0.181837821 0.109838245
0.893305896 0.212664178 0.127359347
0.944954092 0.251422091 0.147877717
0.983534823 0.296811035 0.174970527
0.996792787 0.350243769 0.206066446
1 0.406909535 0.243470817
1 0.465302266 0.288866399
1 0.524254528 0.339064181
0.0117768142 0.118373434 0.0107319702
0.0123303455 0.118398926 0.0107434523
0.0146539681 0.11851077 0.0107920782
0.0222132061 0.118595636 0.0108724855
0.0334820834 0.118778262 0.0109969882
0.0484213743 0.119144871 0.0111806848
0.0704929071 0.11954129 0.0115268619
0.0931877871 0.120185385 0.0118718761
0.120743059 0.120842962 0.012465223
0.14618559 0.121613489 0.0130901363
0.177484541 0.12220774 0.0140363411
0.207285094 0.122758717 0.0154987347
0.242224881 0.123043396 0.0176611367
0.27588305 0.123668034 0.0200003264
0.311265572 0.123485257 0.0226520315
0.345247259 0.12471738 0.0253868728
0.379606521 0.125805125 0.0283690876
0.417734104 0.126630809 0.0320670486
0.461203188 0.127928978 0.0371151244
0.50898836 0.12995699 0.0435471791
0.55941388 0.133574444 0.0511259802
0.612608816 0.140218943 0.0596933787
0.667920576 0.148839083 0.069686188
0.723806058 0.161807248 0.0812888566
0.780629353 0.177680585 0.094658776
0.836964604 0.204218347 0.110315576
0.892606325 0.237475749 0.12802178
0.944232961 0.272186819 0.148296071
0.983166083 0.313668168 0.175758457
0.996874469 0.363016949 0.207446949
1 0.41653225 0.245127591
1 0.47271117 0.290274857
1 0.529937683 0.340293326
0.0164080961 0.147126776 0.00973887722
0.0168756835 0.14714524 0.00975138533
0.0188443339 0.147226248 0.00980453735
0.0226926467 0.147400267 0.00991080315
0.0337351771 0.147491563 0.0101454107
0.0509654909 0.147582757 0.01067305
0.0710463573 0.148086923 0.011252408
0.0950322266 0.148672193 0.0119818124
0.12061834 0.149411944 0.0128831346
0.149871299 0.150235372 0.0139903532
0.179370872 0.150919304 0.0153447121
0.211162564 0.151832281 0.0169195118
0.245243289 0.152542987 0.0188656171
0.278664477 0.153294272 0.0210682485
0.314302463 0.153813624 0.0236258546
0.347528876 0.154216229 0.026445689
0.381649058 0.154283936 0.0296406666
0.419872137 0.155062629 0.0335158189
0.462670531 0.157210576 0.038367486
0.509621948 0.160597887 0.0449009545
0.560290869 0.164771263 0.0523468118
0.613046093 0.168419543 0.060734851
0.667506004 0.179677048 0.0702689641
0.7237677 0.192346227 0.0819158972
0.779876541 0.207166072 0.0948611016
0.836231641 0.229132129 0.110444696
0.89157398 0.259258378 0.128399968
0.943673825 0.295996225 0.1485283
0.98275245 0.333074208 0.176727299
0.996971633 0.377822755 0.209096111
1 0.427749641 0.247093584
1 0.481200201 0.292049914
1 0.536618071 0.341751882
0.0174637842 0.179335165 0.011374
0.0180642894 0.179350395 0.0113954058
0.0206173618 0.179403192 0.0114885096
0.0256809666 0.179486057 0.0116804371
0.0333463325 0.179645911 0.0119829751
0.0475517079 0.17985107 0.0124496845
0.0690177217 0.180108773 0.0130535719
0.0945829963 0.180417144 0.0137743741
0.120040186 0.180813755 0.0147092474
0.150802046 0.181017784 0.0159264
0.181516991 0.181657095 0.0172170224
0.214588805 0.18182832 0.0189659969
0.247982743 0.182763223 0.0206360735
0.282538625 0.183775687 0.0225494587
0.316593142 0.184648339 0.0247091973
0.350217653 0.185869105 0.0270767861
0.383995412 0.186905328 0.0300345261
0.421045836 0.188240914 0.0342082059
0.464029794 0.189849832 0.0397160272
0.510704036 0.191813995 0.0461847572
0.56061534 0.195565926 0.0527747649
0.613100434 0.203300778 0.0606647161
0.667211253 0.211048173 0.0708673717
0.723124151 0.222521883 0.0816492356
0.779183897 0.238883543 0.0952538464
0.835307946 0.256918996 0.110438249
0.890486777 0.283279284 0.12906259
0.94235333 0.316006405 0.149918115
0.982302065 0.354879098 0.177895279
0.997084952 0.394585763 0.21102706
1 0.440530893 0.249379309
1 0.490923534 0.294111755
1 0.544302284 0.343447999
0.0197613203 0.212750715 0.0120614709
0.0202704675 0.212764557 0.0120771098
0.0224231712 0.212825394 0.0121437754
0.0266731246 0.212956705 0.0122780372
0.0345312412 0.213184649 0.0125233438
0.0462136711 0.213530698 0.012880036
0.0658299311 0.213883413 0.0133179287
0.0884786172 0.21431162 0.0138446092
0.120887134 0.214854154 0.0147747296
0.149695481 0.215338172 0.0157426484
0.181567054 0.215982237 0.0169822986
0.217425338 0.216652652 0.0185954334
0.249217304 0.217339234 0.0201672099
0.284924917 0.217829224 0.0226651292
0.319347646 0.218580004 0.0255634105
0.352526696 0.218930116 0.0286590434
0.385849163 0.219569701 0.0321591942
0.423308499 0.221133864 0.0360947768
0.465046179 0.223209899 0.0404879193
0.511294478 0.226815526 0.0460676382
0.560763565 0.230849844 0.0523089234
0.612797901 0.236202431 0.0614217652
0.667003373 0.244501855 0.0713824929
0.722211352 0.254926232 0.0812287867
0.778286181 0.269032067 0.0957386967
0.834168518 0.28734533 0.110238416
0.889374938 0.309213349 0.129950335
0.94094111 0.337834919 0.151746337
0.981552947 0.373698188 0.179749604
0.997215032 0.413199018 0.213250913
1 0.454822112 0.251992873
1 0.501850474 0.296497154
1 0.552967028 0.345396581
0.0219513404 0.247285129 0.0115535598
0.0225160945 0.247295524 0.0115727212
0.0249083164 0.247341191 0.011654321
0.0296519112 0.247439709 0.011818242
0.0369350588 0.247612226 0.0120755545
0.0467024603 0.24788596 0.0124318286
0.0625684231 0.248174339 0.0130458638
0.0888882361 0.248446665 0.014062841
0.11765913 0.24907436 0.0151510309
0.150437832 0.249881483 0.0164156881
0.183335908 0.250393212 0.018054326
0.21686515 0.251210962 0.0198453715
0.253465165 0.252104624 0.0218683575
0.287104162 0.252743581 0.0241668413
0.320418769 0.253786661 0.0265921215
0.355251135 0.254987096 0.0293197043
0.387242151 0.255845022 0.0321490682
0.423972651 0.257341748 0.0357770019
0.46630703 0.25963237 0.0402908875
0.511646942 0.26164306 0.0459328823
0.561107066 0.265224669 0.0539653529
0.612472202 0.270710628 0.0617203904
0.666095604 0.278546835 0.0709392835
0.721460807 0.288126574 0.0825501523
0.777029983 0.299528325 0.0960811007
0.832929348 0.317478095 0.11156483
0.888126308 0.336815052 0.131227634
0.939431964 0.361244045 0.154150884
0.980786372 0.39290183 0.182078031
0.996802538 0.431081058 0.215911707
1 0.470549689 0.254939949
1 0.513928657 0.299266472
1 0.562198966 0.347781655
0.0205076731 0.284525025 0.0141670502
0.0209855695 0.284539056 0.0141876015
0.0230124504 0.28459996 0.014275233
0.0270437742 0.28472789 0.01445181
0.0345418706 0.284911628 0.0147493083
0.0459861291 0.285163411 0.015182805
0.0604079723 0.285490962 0.015687776
0.0819341029 0.285824929 0.016423836
0.109740564 0.286229448 0.0173857643
0.14723109 0.286613466 0.0185874967
0.184492105 0.287212892 0.0197777886
0.21701727 0.287641501 0.0214225782
0.253808613 0.288116683 0.0233136748
0.290042391 0.288878119 0.0251270017
0.322832066 0.289353265 0.0274801393
0.35624271 0.290076943 0.0300146411
0.389424613 0.291177225 0.0326252708
0.425425734 0.292319157 0.035969982
0.466559549 0.29455051 0.0412107521
0.512168653 0.297587628 0.0471033892
0.560325788 0.300829206 0.0542804692
0.612182647 0.306275086 0.0620258156
0.665347664 0.311760262 0.0712702223
0.720394605 0.320813911 0.0839711813
0.775742679 0.331354001 0.0966224324
0.831530657 0.345696553 0.113397796
0.88676772 0.365761577 0.132917169
0.937879851 0.385992206 0.156891643
0.979603081 0.413452986 0.184607561
0.996208081 0.447843272 0.219267845
0.999987254 0.487304922 0.258247027
1 0.527129177 0.302349957
1 0.572345676 0.3504395
0.0225608524 0.320337312 0.016714244
0.0231149288 0.320347649 0.0167286403
0.0254676849 0.320392638 0.0167899545
0.0301604035 0.320487724 0.0169131479
0.0374353197 0.320649575 0.0171065454
0.0473217171 0.320898744 0.0173742289
0.0599728786 0.321197841 0.0176453988
0.0798064078 0.321568886 0.0180268008
0.110867228 0.32178982 0.0187455543
0.144706268 0.322168242 0.0195501797
0.180991421 0.322807195 0.020286237
0.221032664 0.323411809 0.0214155812
0.255321579 0.323865731 0.0227622337
0.290181691 0.324580613 0.0246409736
0.326177961 0.32542348 0.0273551396
0.357921784 0.32609194 0.0303181824
0.389768414 0.327097279 0.0334342254
0.426756035 0.328684512 0.037242592
0.466937108 0.330214624 0.042234951
0.511852893 0.332525168 0.0478814278
0.560278331 0.335513012 0.0547132533
0.611243145 0.33938948 0.0623362986
0.664584274 0.345510415 0.0732594575
0.718958765 0.35247955 0.0854388222
0.774624932 0.363592593 0.0977965231
0.830003274 0.374531697 0.115905414
0.885073425 0.391293935 0.135019294
0.936566916 0.411666136 0.160299854
0.978364562 0.434978368 0.18867787
0.996283272 0.465377074 0.223429373
0.999832705 0.501755931 0.262150589
1 0.541392138 0.305748566
1 0.583374936 0.353371925
0.0211495596 0.35619666 0.0150949746
0.0216310353 0.356205012 0.0151203032
0.0236774874 0.356241325 0.0152284219
0.0277687543 0.356317904 0.0154468431
0.0341359206 0.356447875 0.0157929076
0.0467376754 0.356624738 0.0162974813
0.0640225727 0.356815979 0.0169190339
0.0845603866 0.357100686 0.0176893251
0.109979175 0.357385186 0.0187083736
0.141241704 0.357639647 0.0200329605
0.180965562 0.358062815 0.0216285612
0.222304134 0.358735212 0.0233045482
0.258350328 0.359222612 0.0252829231
0.292387596 0.35961876 0.0276328339
0.32694908 0.3602264 0.0301575926
0.360862076 0.361024841 0.0328239545
0.39157507 0.361614633 0.0357865862
0.427161896 0.362673211 0.0393888312
0.468320725 0.364584266 0.0434609747
0.511875116 0.366203609 0.0482320185
0.559931079 0.369231585 0.0544850856
0.610391159 0.372580732 0.0640740115
0.663355643 0.377681882 0.0746761972
0.717846875 0.383957485 0.086908475
0.773016719 0.392514198 0.101757903
0.828489157 0.403720208 0.118944161
0.883429134 0.417234928 0.138416335
0.935180639 0.436304899 0.164749071
0.97707716 0.457420436 0.19331342
0.996375402 0.483846413 0.227957723
0.999668756 0.51710526 0.266407
1 0.55507817 0.309590871
1 0.595247531 0.356579249
0.0255382398 0.390547549 0.0190496319
0.026182034 0.390554872 0.0190716819
0.0289207675 0.39058665 0.0191657908
0.0344074745 0.390653403 0.0193558361
0.0429763556 0.390766051 0.0196567356
0.0548780349 0.390895625 0.0200504761
0.0700192709 0.391066162 0.0205480869
0.0881197066 0.391315847 0.0211650579
0.113559038 0.391638629 0.0220075777
0.147617943 0.391862871 0.0232140756
0.184142672 0.392185036 0.0245701267
0.222379056 0.392739703 0.0259638368
0.262451655 0.393363157 0.0276051419
0.296416046 0.393692233 0.0296011095
0.32905527 0.394124273 0.0317490467
0.361747755 0.39476548 0.0339878925
0.394431068 0.3955986 0.036332862
0.428462767 0.396337195 0.0394025809
0.468217375 0.397713391 0.043742216
0.51248581 0.399626436 0.0501006333
0.559298837 0.401622322 0.0576712119
0.610163035 0.405273987 0.0664226027
0.66225738 0.408865294 0.0764635848
0.716779449 0.415173814 0.0886515503
0.77143915 0.421781422 0.105901292
0.826920454 0.432224347 0.122903691
0.881717234 0.443676775 0.14385701
0.933081547 0.459581708 0.169826328
0.97577809 0.480910689 0.198411234
0.996475048 0.50336822 0.232911432
0.999643636 0.533053124 0.271499109
1 0.568172875 0.313938327
1 0.608081174 0.360105259
0.0306002792 0.429288492 0.0210847937
0.0311539895 0.429294491 0.0211044432
0.0335113608 0.429320489 0.0211883383
0.0382430641 0.429374936 0.0213579095
0.0457091627 0.429449991 0.021616002
0.0561038029 0.429536296 0.0219589312
0.0757748977 0.429629944 0.0225502985
0.0998749769 0.429774435 0.0232891523
0.127713292 0.429989995 0.0241673973
0.158745593 0.430276509 0.0251912991
0.191713135 0.430479305 0.0264380779
0.226912822 0.430747634 0.0279518708
0.263857619 0.431094789 0.0301857694
0.301997358 0.431590935 0.0326124606
0.333500275 0.43184338 0.0353454451
0.364221576 0.432248549 0.0381295609
0.395443614 0.432814083 0.0412016498
0.431350526 0.433674601 0.0450179242
0.469257035 0.434662178 0.049477215
0.512559497 0.436255704 0.0552490864
0.559432524 0.438149828 0.0620392165
0.608989469 0.440586837 0.0701190059
0.66129192 0.444240022 0.0803231305
0.714889291 0.448797633 0.0943636607
0.769982483 0.455596883 0.110672871
0.82490699 0.463331133 0.127653212
0.879687957 0.474652092 0.151438755
0.930686512 0.487304189 0.176206691
0.974330897 0.505514673 0.206271685
0.996577475 0.527047296 0.239321075
0.999661103 0.552470586 0.278055861
1 0.584360121 0.319438848
1 0.621506065 0.364721017
0.0425054898 0.471914803 0.0298588341
0.0432101077 0.471915566 0.0298876284
0.04621224 0.471919132 0.0300106215
0.0522615034 0.4719252 0.0302610804
0.0617709975 0.471938569 0.0306591601
0.0749473694 0.471965866 0.0312193465
0.0918225558 0.472016141 0.0319517628
0.112276991 0.472100995 0.0328628177
0.136066618 0.472234147 0.0339558141
0.169790978 0.472415025 0.0352180064
0.206522577 0.472592676 0.036664572
0.238302488 0.472678265 0.0383809506
0.271698986 0.472891679 0.0403257352
0.306004291 0.473244473 0.0423991099
0.340087873 0.473792075 0.0445230081
0.36997917 0.47414857 0.0468516983
0.398991637 0.474471706 0.049552054
0.432754097 0.475073491 0.0527615116
0.472098112 0.476077827 0.0566857944
0.513233567 0.47713061 0.0616997518
0.55951801 0.478959498 0.0684418055
0.608522479 0.48077023 0.0782788282
0.660062484 0.48369096 0.0896275552
0.713369333 0.487550219 0.10310381
0.767842327 0.492933793 0.11926071
0.822588041 0.499337877 0.138670842
0.877029815 0.508254904 0.160656103
0.928485619 0.520227327 0.185916038
0.97197719 0.534322857 0.216412327
0.99612276 0.554992585 0.248292531
0.999670004 0.576640633 0.286403115
1 0.604458498 0.326725599
1 0.637808055 0.370768342
0.0561793521 0.517642265 0.0434371641
0.0567655928 0.517642472 0.0434597059
0.0592650922 0.51764357 0.0435560096
0.0642997962 0.517646846 0.0437509551
0.0739252796 0.51765109 0.0440575777
0.088627305 0.517660066 0.0444870915
0.107563371 0.517682223 0.0450496595
0.130674431 0.517725915 0.0457509194
0.157768615 0.517801303 0.0465942243
0.188545611 0.517918911 0.0476434761
0.222628564 0.518091358 0.0488904961
0.256674457 0.518270771 0.0503085362
0.284765721 0.518447833 0.0522238373
0.314293235 0.518708164 0.0545080858
0.345039332 0.519054662 0.0571713516
0.376631664 0.519510568 0.0600529208
0.405935733 0.519844326 0.0630228741
0.436867425 0.52010819 0.0669781706
0.473884827 0.520673696 0.0720457225
0.51617743 0.521716661 0.0780082689
0.559922105 0.522686852 0.0856926498
0.608483744 0.524576838 0.0949179409
0.658983995 0.526606779 0.105444486
0.711697956 0.529873606 0.118183315
0.765451492 0.533657332 0.134489211
0.820108914 0.539454841 0.152667922
0.874078577 0.54635936 0.174505415
0.925836126 0.556211508 0.200273786
0.96930727 0.568465533 0.228635977
0.994587054 0.584227784 0.26096893
0.999628393 0.606018431 0.296615824
1 0.62866124 0.336345938
1 0.658075908 0.378498512
