Luts/Rec709-Input/Rec709_to_Leica_Classic.cube
TITLE "Rec.709 to Leica Classic"
LUT_3D_SIZE 5
0.0142977 0.0107881 0.0131533
0.111904087 0.0457731537 0.0290989665
0.398912605 0.0298950905 0
0.767712871 0.00969219257 0.0150162981
0.958322339 0.486036596 0.274072973
0.0029692258 0.103708068 0.0499252262
0.123011986 0.112127221 0.0441114055
0.408395762 0.120744884 0.00142659404
0.793434945 0.0842183639 0.024076161
0.963751782 0.507554859 0.278493259
0.0362300507 0.373703883 0.00554893359
0.133826657 0.382393794 0.00449616464
0.430583735 0.394154564 0.00897355849
0.822211 0.399425696 0.0714161807
0.980859157 0.587551838 0.299816452
0.422935374 0.757756915 0.18285273
0.459124264 0.761522785 0.174209468
0.576537742 0.772485112 0.148587965
0.844878623 0.786848606 0.171096676
0.999919229 0.803685676 0.401504793
0.907073266 0.957171824 0.751982977
0.908639822 0.957380945 0.751907448
0.915163622 0.958244891 0.751587867
0.94366154 0.961643714 0.749357561
0.999283613 0.971101025 0.758032536
0.0294967369 0.0198677109 0.102224836
0.102609716 0.0387990964 0.100308289
0.378466502 0.0381699145 0.0913391305
0.763517757 0.0179280319 0.121800611
0.957919434 0.485730332 0.310493252
0.00552360817 0.101538528 0.10426996
0.10980846 0.107979712 0.104913381
0.387782219 0.12130336 0.102526553
0.7847388 0.100908136 0.13010163
0.963282446 0.50722963 0.314914492
0.0312931777 0.365912738 0.112184223
0.114242126 0.374737439 0.111224753
0.414170256 0.387532661 0.100071907
0.812844617 0.394221264 0.155532321
0.980318362 0.587132628 0.335266399
0.40389522 0.760294769 0.264207349
0.443277073 0.763590948 0.259724202
0.564496684 0.773946671 0.237815354
0.839949115 0.786070138 0.244740468
0.999917619 0.803388609 0.429246143
0.90646292 0.957669273 0.75746951
0.908035179 0.957876004 0.757362794
0.914570287 0.958725761 0.756905366
0.943166173 0.962126585 0.75431542
0.99925426 0.971533401 0.762569704
0.00027877015 0.0594026564 0.345352056
0.0606673913 0.0512474664 0.35536709
0.367809778 0.0528868725 0.351308392
0.761959989 0.0223653226 0.334953269
0.957516017 0.488898697 0.42897375
5.44981349e-05 0.111092579 0.352019266
0.0522116208 0.114536179 0.356585176
0.369902872 0.126920388 0.355740805
0.776333779 0.1238197 0.342351268
0.962674674 0.509981726 0.432212516
0.0205548181 0.363250598 0.365804091
0.0850278854 0.370586667 0.367006615
0.388106612 0.38583731 0.372148644
0.795975098 0.394404297 0.363635968
0.978348405 0.58722003 0.447598329
0.356072716 0.764500543 0.448503011
0.399144328 0.76676894 0.449607746
0.53231813 0.775706863 0.445204738
0.824324516 0.78317305 0.43428918
0.999514893 0.801925303 0.521074215
0.904730725 0.95943018 0.776419089
0.906318453 0.959658323 0.776400201
0.912795914 0.960509068 0.775984476
0.941065779 0.963852261 0.773116751
0.998850692 0.973209431 0.781509256
0.00565653849 0.22911075 0.640813401
0.0457011869 0.233920303 0.654057744
0.360690992 0.242944694 0.703128448
0.764335079 0.217482615 0.708927345
0.965640584 0.534523453 0.714908518
0.00445011671 0.278540447 0.669357307
0.0461335709 0.285416335 0.679641909
0.354544603 0.29057975 0.710439644
0.767147125 0.283245717 0.71501748
0.96859099 0.551888312 0.716566893
0.0552836005 0.434614124 0.708766033
0.131457332 0.440016122 0.715073536
0.383777997 0.451145994 0.730877497
0.771134529 0.457297426 0.728690304
0.978140681 0.6141508 0.722795112
0.373864364 0.758484667 0.73100334
0.409757589 0.760351781 0.732316643
0.534885482 0.76741092 0.737645659
0.79573463 0.779356893 0.751416002
0.997433385 0.802547678 0.750300977
0.898946673 0.964339868 0.846611378
0.900496002 0.964580616 0.846663883
0.906644597 0.965446313 0.846671236
0.933806966 0.969137772 0.846679323
0.997417692 0.976777004 0.847334628
0.648214995 0.767623132 0.865626013
0.65822115 0.767988212 0.866320576
0.696541908 0.769540353 0.868986001
0.825313978 0.773542858 0.87735186
0.993085573 0.795611097 0.888486845
0.644324606 0.768037527 0.865442242
0.654201469 0.768397295 0.866127745
0.694980856 0.770976871 0.869141953
0.825483985 0.779415945 0.878313913
0.993214121 0.799520354 0.889069559
0.654552508 0.787756872 0.869286225
0.664496832 0.788435889 0.8700251
0.704482671 0.791018414 0.87299229
0.828214009 0.798756365 0.881390819
0.993755294 0.815443868 0.891443667
0.720596449 0.859073496 0.883858472
0.727175691 0.859665673 0.884326907
0.75409629 0.862077321 0.886247557
0.847201126 0.868923374 0.892335131
0.994336024 0.880045179 0.900513116
0.919169161 0.968891655 0.909204578
0.920008399 0.969008982 0.90927173
0.923548527 0.969504406 0.909555104
0.94196551 0.972095756 0.91103225
0.994012715 0.977170124 0.914461473
