Luts/Rec709-Input/Rec709_to_Leica_Natural.cube
TITLE "Rec.709 to Leica Natural"
LUT_3D_SIZE 9
0.00717174 0.00679026 0.00660716
0.0263016088 0.00746491398 0.00711470666
0.109982266 0.00918863215 0.00953770322
0.227693684 0.00902577141 0.0146803241
0.369758718 0.012505871 0.024113517
0.556284813 0.020085859 0.0454268066
0.781488262 0.0744584947 0.0910776498
0.984616203 0.249097752 0.171984225
1 0.508862805 0.335789054
0.0105900353 0.0274565254 0.00842097133
0.0285699142 0.0280936895 0.00886696982
0.113319137 0.0300372294 0.0111128585
0.23053889 0.0325753199 0.0158539445
0.372015895 0.0328573107 0.0249364237
0.556964575 0.0412346879 0.0464629859
0.781389006 0.0973257793 0.0918527796
0.9843182 0.261985413 0.172804221
1 0.512930622 0.336647003
0.0117768142 0.118373434 0.0107319702
0.0334820834 0.118778262 0.0109969882
0.120743059 0.120842962 0.012465223
0.242224881 0.123043396 0.0176611367
0.379606521 0.125805125 0.0283690876
0.55941388 0.133574444 0.0511259802
0.780629353 0.177680585 0.094658776
0.983166083 0.313668168 0.175758457
1 0.529937683 0.340293326
0.0219513404 0.247285129 0.0115535598
0.0369350588 0.247612226 0.0120755545
0.11765913 0.24907436 0.0151510309
0.253465165 0.252104624 0.0218683575
0.387242151 0.255845022 0.0321490682
0.561107066 0.265224669 0.0539653529
0.777029983 0.299528325 0.0960811007
0.980786372 0.39290183 0.182078031
1 0.562198966 0.347781655
0.0255382398 0.390547549 0.0190496319
0.0429763556 0.390766051 0.0196567356
0.113559038 0.391638629 0.0220075777
0.262451655 0.393363157 0.0276051419
0.394431068 0.3955986 0.036332862
0.559298837 0.401622322 0.0576712119
0.77143915 0.421781422 0.105901292
0.97577809 0.480910689 0.198411234
1 0.608081174 0.360105259
0.0828879036 0.565722828 0.0718355146
0.100066837 0.565711163 0.0726290352
0.17079246 0.5657825 0.0759013546
0.305107969 0.566540319 0.0819836975
0.412765514 0.567336331 0.0910573969
0.562899827 0.569926292 0.10937394
0.763235915 0.57802068 0.157170426
0.96628671 0.606220023 0.245805475
1 0.682337298 0.388449036
0.326162293 0.768607803 0.27628821
0.334433566 0.76861908 0.276569199
0.363458602 0.768602815 0.277759499
0.41321606 0.768557063 0.280149456
0.481765697 0.768601797 0.283872814
0.589888832 0.768919816 0.29219319
0.758278661 0.77108551 0.313783994
0.945141208 0.779220865 0.36318242
1 0.81193198 0.457349377
0.597761706 0.948955835 0.512275642
0.600183299 0.948940365 0.512366193
0.609615454 0.948879618 0.512749149
0.625003713 0.948713649 0.513509725
0.647171754 0.948421859 0.514724801
0.694983947 0.947879334 0.517547798
0.793347522 0.94692058 0.52524991
0.925434128 0.946673106 0.544759933
0.999885228 0.951997226 0.590452502
0.845270623 0.999918366 0.746725269
0.845704881 0.999918309 0.746752274
0.84755513 0.999918067 0.746867849
0.851275935 0.999917577 0.747102809
0.857038433 0.999915878 0.747478914
0.868574454 0.999898245 0.748346511
0.897164663 0.999866122 0.750757246
0.947009458 0.99978667 0.756934322
0.995112975 0.999754503 0.773368781
0.00807563596 0.0075129004 0.0266825242
0.0267738017 0.00832150699 0.0271806294
0.111213296 0.00912800972 0.029677854
0.22849027 0.00945435352 0.0353708414
0.370468906 0.0123033012 0.0452013801
0.556624978 0.0193568363 0.0663624969
0.781371592 0.0754401251 0.1084131
0.984527381 0.249435128 0.185546985
1 0.508656323 0.344450387
0.0104572134 0.028218743 0.0285808245
0.0286196749 0.0288976479 0.029124152
0.114294225 0.030508482 0.0315555176
0.231528939 0.0333514645 0.0370888347
0.372552555 0.0336895862 0.046613828
0.557224157 0.0413484112 0.0676643471
0.781252078 0.0982935295 0.109402682
0.984231641 0.262296403 0.186234632
1 0.512754791 0.345312327
0.0122556898 0.119184087 0.0339910352
0.0335795441 0.119767956 0.034480328
0.121353164 0.121811268 0.0368825555
0.242880191 0.123777762 0.0430094603
0.380202995 0.126863125 0.0530128886
0.559679715 0.134554004 0.0726514648
0.78042402 0.17838729 0.11203819
0.983088329 0.314066503 0.189250752
1 0.529826526 0.348900331
0.0221528021 0.248395912 0.0396998567
0.0366480917 0.248768749 0.0402540698
0.117188818 0.250450011 0.0424560519
0.253818362 0.253601512 0.0479882967
0.387409423 0.257100839 0.0578398488
0.561065749 0.266403637 0.0766738222
0.776843212 0.30045651 0.114719053
0.980648835 0.392975098 0.197481295
1 0.562053019 0.356119763
0.0263308479 0.391151677 0.0434130199
0.0435993461 0.391365333 0.0441773576
0.113902072 0.392463053 0.0473871743
0.262992883 0.393843575 0.0543530361
0.394572252 0.39607209 0.0645558979
0.559149882 0.402232435 0.0830911702
0.771328407 0.422160925 0.125570433
0.975686518 0.480703537 0.213512216
1 0.60782116 0.367953695
0.0821339747 0.565614255 0.0984264847
0.0995078264 0.565604796 0.0990738126
0.170576242 0.565701269 0.101906745
0.305303574 0.566487203 0.10713914
0.412995248 0.567242769 0.115213318
0.562804684 0.569743287 0.132868418
0.763073728 0.577884397 0.175940174
0.96611378 0.605853394 0.258870965
1 0.682004107 0.395486124
0.326434971 0.768264063 0.287295884
0.334692071 0.768276027 0.287564052
0.363509585 0.768260424 0.288699549
0.413138721 0.768219461 0.290979965
0.481791158 0.76827944 0.294590261
0.589714462 0.768614479 0.302525571
0.758168098 0.770820201 0.323392914
0.944981436 0.778905422 0.370581359
1 0.811675956 0.46211705
0.59784896 0.948710115 0.515818687
0.600269037 0.948694788 0.515907649
0.609635111 0.948634918 0.516283492
0.624987395 0.948469228 0.517030244
0.647143206 0.948179426 0.518223581
0.695003306 0.947627369 0.521024367
0.793300395 0.946680942 0.52858778
0.925349258 0.946433279 0.54772795
0.999865609 0.951785278 0.592920786
0.845265196 0.999914294 0.7478514
0.84569936 0.999914238 0.747878222
0.847549211 0.999913999 0.747993012
0.851269223 0.999913515 0.748226382
0.857025217 0.999911781 0.748599867
0.86855898 0.999894172 0.749461505
0.897134407 0.999866226 0.751790922
0.946965596 0.999786865 0.757925306
0.995092426 0.999754926 0.774288183
0.00695843748 0.00404452885 0.113436944
0.0247783891 0.00443269073 0.113853821
0.113914684 0.00467746486 0.115671294
0.232099538 0.00563033996 0.119534664
0.373268015 0.00714944349 0.126056694
0.557403032 0.0187586403 0.139697801
0.781067551 0.0778584063 0.172310436
0.984010684 0.249836358 0.243003759
1 0.507571365 0.378446464
0.00523983853 0.024066495 0.115242708
0.0267892361 0.0246093198 0.115601316
0.115682534 0.0265667512 0.117389628
0.235020754 0.0304091448 0.121175614
0.375034736 0.0320228164 0.127497433
0.558006251 0.0412157127 0.14125505
0.780891907 0.100508262 0.173114058
0.983714469 0.262942508 0.243908695
1 0.511659185 0.379189597
0.011978395 0.121181748 0.121410577
0.0322625901 0.121519419 0.121769062
0.12246271 0.1231329 0.123439204
0.245418589 0.124958121 0.126904434
0.381945745 0.129032155 0.132576528
0.56006469 0.137871087 0.146922444
0.779749785 0.182672995 0.177611276
0.982567787 0.315605065 0.247754004
1 0.528750757 0.382352206
0.0215856723 0.252415525 0.129360501
0.0340135309 0.252784908 0.129792151
0.114923677 0.254879898 0.131554537
0.255250826 0.257476571 0.135352627
0.388112071 0.260942118 0.141439717
0.56067781 0.270083265 0.154204932
0.776270299 0.303190881 0.185800541
0.979985193 0.392627276 0.255164506
1 0.560997282 0.388832265
0.0294975448 0.393255569 0.140369128
0.0449491715 0.393453691 0.140770874
0.11553716 0.394345771 0.142650274
0.263457277 0.395440571 0.146549496
0.394726625 0.397979168 0.152331683
0.558969526 0.403519355 0.16663571
0.770629057 0.422722244 0.198695987
0.975318783 0.480054434 0.269770241
1 0.606868054 0.39922719
0.0803876507 0.565009312 0.189471494
0.0974944683 0.565020231 0.189880426
0.17014278 0.565140149 0.191642869
0.30610659 0.565642321 0.195187902
0.413318436 0.566451657 0.200587897
0.562465271 0.568936804 0.212475189
0.762371466 0.576707246 0.242418553
0.965186704 0.604423301 0.306566032
1 0.681050336 0.42197088
0.327564947 0.766950163 0.329591628
0.335822856 0.766961138 0.329805812
0.36402791 0.766864739 0.330737973
0.413506216 0.766730624 0.332578508
0.481804635 0.766796106 0.335417319
0.589532412 0.767120226 0.341845389
0.75765598 0.769363037 0.358689649
0.94433668 0.777616884 0.399569913
1 0.810646055 0.481646851
0.598263111 0.947710105 0.53032906
0.600676689 0.947695346 0.530411793
0.609760443 0.947639032 0.530759634
0.62495892 0.947474158 0.531452129
0.647062073 0.947192242 0.53256019
0.694883945 0.946645297 0.535188674
0.793134379 0.945682665 0.54220663
0.925003485 0.945450104 0.559966989
0.999791136 0.950878588 0.603006369
0.845245681 0.999905224 0.752444342
0.845679434 0.999905277 0.752468464
0.847527542 0.999905504 0.752571712
0.85124409 0.999905965 0.75278167
0.856972165 0.999905554 0.75311734
0.868495987 0.999891525 0.753890882
0.897007284 0.999866674 0.756137134
0.946781676 0.999787699 0.762101052
0.995005855 0.999756735 0.778168455
0.00429743149 0 0.239748885
0.0192807006 0 0.240070241
0.112868 0.000605518495 0.241347279
0.237334953 0.00139069637 0.244175626
0.376870224 0.00726304819 0.248772048
0.558094074 0.0113958491 0.2589469
0.779973384 0.071705571 0.282621701
0.982940747 0.2478182 0.334859539
1 0.506481424 0.434877857
0.00339008257 0.0100489427 0.241332481
0.0210205759 0.0098113821 0.241535326
0.114096511 0.00825031624 0.242986555
0.23974063 0.0142194521 0.24567301
0.378621253 0.0169923001 0.250153596
0.558707492 0.0247629777 0.260307911
0.779794873 0.0914528564 0.283620667
0.982640569 0.261326806 0.335539141
1 0.510576575 0.435412489
0.00795798094 0.110972172 0.247222419
0.0266515613 0.111284564 0.247530456
0.117186939 0.114502223 0.248764847
0.246383743 0.118579277 0.25133781
0.383999242 0.119139788 0.255743145
0.560041881 0.13322774 0.265127076
0.778256868 0.181184245 0.287117802
0.981448721 0.316000214 0.338513848
1 0.527689243 0.437685371
0.0199995743 0.254630112 0.256507734
0.0312397453 0.255041753 0.256777306
0.116275254 0.256703392 0.257786733
0.257636918 0.259561271 0.26034009
0.389141478 0.262752573 0.264132616
0.559578281 0.272094786 0.272775991
0.7745907 0.304972387 0.294687318
0.978542913 0.392115224 0.344834068
1 0.559650248 0.442355464
0.0330995404 0.393893665 0.26859204
0.0461071992 0.394064916 0.268870417
0.118064531 0.394851139 0.27005091
0.263914474 0.396103606 0.272445948
0.394281167 0.398391578 0.276233707
0.55793269 0.403474807 0.284880061
0.768910799 0.422436318 0.306731029
0.974277945 0.478918788 0.355012922
1 0.605047683 0.449937996
0.0809821243 0.562828071 0.303061311
0.0972788664 0.562849293 0.303326807
0.1733211 0.562959952 0.304395767
0.306574586 0.563495809 0.306525096
0.413555457 0.564306938 0.309897403
0.561670609 0.566506425 0.317334511
0.760791513 0.5745086 0.336618523
0.96359433 0.601765539 0.380691568
1 0.67917363 0.468007441
0.329673014 0.76438176 0.394656557
0.33779722 0.764387195 0.394825448
0.364670216 0.764298108 0.395551017
0.413520132 0.76419041 0.396946745
0.482321269 0.764216054 0.399140542
0.589229427 0.76442125 0.403914954
0.756837409 0.766777203 0.416931936
0.94317644 0.775380611 0.448902995
1 0.808986451 0.516398821
0.5990558 0.945608485 0.55685565
0.601497554 0.945594423 0.556930698
0.610250639 0.945538621 0.557250022
0.625270981 0.945393687 0.557880281
0.647315166 0.945143303 0.55885785
0.69495887 0.944594292 0.561101895
0.792886635 0.943580175 0.56739674
0.92428709 0.943505247 0.583856299
0.999650764 0.949177285 0.622162868
0.845224905 0.999905821 0.761084471
0.845657836 0.999905874 0.761107262
0.847502455 0.999906101 0.761204819
0.851212067 0.999906562 0.76140324
0.856883699 0.999905762 0.761719793
0.868387692 0.999891763 0.762450098
0.896751662 0.999867583 0.764573383
0.946425771 0.999789391 0.770280209
0.994836403 0.999760407 0.785797102
0.00200301299 0 0.377897903
0.0121008224 0 0.378059604
0.101925244 0 0.378823812
0.241068748 0 0.380470889
0.380253628 0.00213447924 0.383125845
0.558239599 0.00613124798 0.389108823
0.777564488 0.0553285392 0.403618309
0.981203764 0.249036688 0.435711653
1 0.505900302 0.503088494
0.0024721304 0.00105943856 0.378693484
0.0139088276 0.000649201826 0.378929352
0.10448635 0.000112371281 0.379659407
0.24233356 0.00359587689 0.381270928
0.381462978 0.00737033378 0.384002661
0.558433922 0.0196325299 0.389896695
0.777184558 0.0786337601 0.404159859
0.980931138 0.263302633 0.436102758
1 0.509953864 0.503432735
0.00411352658 0.090676852 0.381922825
0.0122318355 0.0913775098 0.38203661
0.107516865 0.0933400123 0.382874324
0.249156745 0.0963057811 0.384447421
0.385247822 0.10460962 0.386835504
0.558837891 0.119763375 0.39248301
0.775413062 0.178854499 0.406214495
0.979873593 0.320953738 0.437834433
1 0.526911982 0.504910496
0.01348958 0.255432839 0.386894743
0.0268252545 0.255694118 0.38706102
0.111459373 0.257055238 0.387709924
0.257755743 0.259326692 0.389306541
0.390106889 0.262567332 0.391532696
0.557729598 0.272786452 0.39693264
0.771783821 0.304546681 0.410228601
0.976465547 0.392261694 0.441531985
1 0.558403514 0.508004761
0.0362892669 0.393522505 0.394004411
0.0518789163 0.393719911 0.394175985
0.124191054 0.394447901 0.39487941
0.265522462 0.395725081 0.396409087
0.394614341 0.397725935 0.398734341
0.555792242 0.402935719 0.403671273
0.766445346 0.421313561 0.416923695
0.972170952 0.476701117 0.447514043
1 0.602733698 0.51310672
0.0954670212 0.559967959 0.413208185
0.112469994 0.559970464 0.413380788
0.186343299 0.560184738 0.414062228
0.306442696 0.56073744 0.415427222
0.412991176 0.561378181 0.417474757
0.560620689 0.563753718 0.422250254
0.758800142 0.571609709 0.434384764
0.961147787 0.598950645 0.463405948
1 0.676506849 0.525861359
0.334813146 0.760993489 0.470547786
0.341247797 0.760982947 0.470671119
0.367997139 0.760953517 0.471197087
0.415629831 0.760901302 0.472180419
0.4837116 0.76097971 0.473732787
0.588810447 0.761190661 0.47717717
0.755821398 0.763066497 0.486595897
0.941526432 0.772346244 0.510261667
1 0.806480809 0.562298051
0.600942519 0.942362899 0.593985648
0.602993278 0.942350928 0.594047877
0.611669805 0.942301367 0.59431421
0.626134373 0.942161811 0.594834004
0.648029052 0.941956665 0.595668422
0.695457446 0.941575355 0.597649186
0.792532426 0.940709039 0.6030547
0.9232587 0.940657335 0.616780775
0.999447771 0.946770185 0.649823503
0.845255888 0.999906779 0.774063224
0.84568631 0.999906832 0.774086429
0.847520269 0.999907058 0.774185725
0.851211358 0.999907518 0.77438209
0.856792562 0.999906097 0.774671547
0.868264398 0.999892145 0.775340829
0.896391246 0.99986904 0.777290229
0.945895875 0.999725418 0.782748763
0.994438938 0.999318152 0.797977155
0.00224417361 0.00557352124 0.545726348
0.0116624715 0.00538325694 0.54584041
0.0967063073 0.00728719052 0.546205206
0.251137922 0.005669583 0.547050315
0.387960564 0.00586359157 0.548328421
0.557425785 0.0335796089 0.55105165
0.771967571 0.10396186 0.557743978
0.977376115 0.271970045 0.573344672
1 0.508890747 0.609332657
0.00601597054 0.0160662455 0.545929219
0.0180338611 0.0151209539 0.546040165
0.098111065 0.0143811296 0.546399142
0.251655203 0.0135231655 0.547246159
0.388063678 0.0322779702 0.548464623
0.557610168 0.0467705134 0.551216878
0.771556353 0.125746681 0.557861554
0.97699742 0.286930991 0.573462227
1 0.513000466 0.609498946
0.0069351156 0.116489238 0.546769417
0.0150282902 0.117487086 0.546864
0.110460185 0.120714564 0.547044157
0.255728617 0.124944049 0.547918973
0.390252035 0.131577139 0.54909063
0.55672833 0.149945586 0.551684931
0.769777177 0.206823524 0.558399521
0.975468428 0.332217731 0.573999789
1 0.529642572 0.610224122
0.0259666665 0.271278787 0.547741383
0.0373876771 0.271465696 0.547842288
0.113545126 0.272846109 0.548267868
0.261309235 0.274741131 0.549020419
0.392760227 0.279245494 0.550211708
0.555314726 0.289588642 0.552954432
0.76648076 0.321751397 0.559447708
0.972278685 0.398553937 0.575297301
1 0.559923806 0.611731588
0.0587755376 0.400341612 0.550121802
0.0684593117 0.400525905 0.550209775
0.142816691 0.400973828 0.550558002
0.279405281 0.402427562 0.551229718
0.399145339 0.404625919 0.552513372
0.554445676 0.409254236 0.555090027
0.761830026 0.426949027 0.561798795
0.967530692 0.478902708 0.577772044
1 0.601173084 0.614278847
0.142223115 0.558036668 0.557392645
0.156504764 0.558076158 0.557486545
0.214030611 0.558303833 0.557880528
0.307994986 0.558647489 0.558574805
0.417244637 0.559427919 0.559589391
0.559271225 0.561691655 0.562161817
0.754696144 0.569590946 0.56877682
0.956546749 0.596123188 0.584679561
1 0.673614444 0.62102161
0.35002945 0.755335895 0.584649014
0.35625325 0.755320576 0.584718214
0.379913399 0.75531563 0.585018954
0.424984996 0.755370368 0.585626275
0.490261751 0.755604507 0.586585876
0.589802736 0.756050481 0.588733087
0.754223674 0.758081515 0.594489629
0.937992864 0.767329182 0.608945828
1 0.802183593 0.642481348
0.603451306 0.936093876 0.661649822
0.605504653 0.936082286 0.661695364
0.613350936 0.936025947 0.661899128
0.627594945 0.935907085 0.662326303
0.649471057 0.93573894 0.663010443
0.696933402 0.935438047 0.66461932
0.792327538 0.934717753 0.66865368
0.921201225 0.93478838 0.678638087
0.998984161 0.941595833 0.703233734
0.845411402 0.999172581 0.802937434
0.84583865 0.999173061 0.802954691
0.84765914 0.999175115 0.803028552
0.851320641 0.999179285 0.803178726
0.85667513 0.999165373 0.803416045
0.868041897 0.999092353 0.80397048
0.895575793 0.998991902 0.805554166
0.94480352 0.998892063 0.809624239
0.993828996 0.999343628 0.821045725
0.078028135 0.189130191 0.742831269
0.0924402037 0.189598787 0.742851018
0.16653812 0.191576097 0.742985045
0.295732841 0.194781971 0.743290928
0.407905209 0.199294581 0.743964597
0.559190281 0.21637995 0.744969321
0.76139224 0.252118558 0.747556428
0.966841314 0.35509057 0.753300566
1 0.532263814 0.76637482
0.0770966122 0.206534374 0.742780943
0.0906103715 0.206790233 0.74279588
0.170232556 0.20886805 0.742946452
0.295826657 0.211757087 0.743250633
0.408080828 0.21686001 0.743871515
0.559040995 0.233651733 0.744957103
0.761111139 0.267563222 0.747551934
0.966465353 0.362568362 0.753284446
1 0.535727427 0.766393461
0.0682012762 0.270233685 0.742568835
0.0895732372 0.270733438 0.742616468
0.178076879 0.273076701 0.742848793
0.29789963 0.2768003 0.743172154
0.409897518 0.281990939 0.74358522
0.558586768 0.286077722 0.744675859
0.759858078 0.317786007 0.747408011
0.964947401 0.393234779 0.753245149
1 0.550255587 0.76648262
0.110430216 0.355791724 0.74225335
0.128198169 0.356043656 0.742290128
0.203146297 0.356624836 0.742473508
0.304932055 0.357844942 0.742763708
0.411776515 0.359822813 0.743287098
0.55846749 0.365292053 0.744325491
0.757299009 0.385109183 0.747169049
0.962183125 0.444966896 0.753123159
1 0.576745449 0.766724886
0.144743039 0.444070779 0.74206943
0.159797447 0.444163999 0.742118312
0.220340527 0.444657588 0.742320031
0.316517068 0.445417753 0.742658254
0.421161541 0.446969934 0.743059798
0.560272468 0.450416084 0.744179433
0.753899521 0.46348109 0.74701478
0.95651752 0.504983641 0.753096698
1 0.610544208 0.767245047
0.224797677 0.571851394 0.742722144
0.236975809 0.571914103 0.742751579
0.28272658 0.572087412 0.742918565
0.358678294 0.572397272 0.743302973
0.443718736 0.573141215 0.743821941
0.56609794 0.575421059 0.744907706
0.749695071 0.581907992 0.747718113
0.947047358 0.605786856 0.754157084
1 0.676993323 0.768874501
0.383891937 0.751376559 0.749545498
0.389177734 0.751368411 0.749582306
0.411263526 0.751345528 0.749738574
0.453688109 0.751354017 0.750050408
0.510354853 0.751519639 0.750528618
0.599068742 0.751705279 0.751571088
0.753807728 0.754476151 0.754339151
0.930881301 0.763524838 0.760839062
0.999940275 0.797120287 0.776256459
0.613350219 0.924401533 0.781549456
0.615023246 0.924380773 0.781576444
0.622108038 0.924293962 0.781691803
0.636147822 0.924127273 0.781925635
0.657762005 0.923884972 0.782299643
0.704668662 0.923449745 0.783167122
0.794640527 0.922836599 0.785562226
0.917311811 0.923590976 0.791036783
0.998119367 0.931289123 0.804161132
0.847048116 0.998062803 0.85852575
0.847463114 0.998063971 0.858536719
0.849231574 0.998068963 0.858583659
0.852677663 0.998071223 0.85867967
0.857578518 0.998036971 0.858836829
0.868778255 0.997960021 0.859208709
0.89481748 0.997846897 0.860266654
0.942727267 0.997783069 0.862962952
0.992462744 0.998232654 0.870165103
0.335898598 0.481490222 0.917479346
0.344312466 0.481444283 0.917486933
0.377235248 0.481366271 0.917536907
0.42662047 0.481114437 0.917698458
0.489884568 0.482244594 0.917893971
0.593234264 0.485803766 0.918253122
0.758879557 0.497120695 0.918972822
0.945655826 0.53149326 0.92016942
1 0.621492669 0.921357092
0.337899464 0.484181428 0.917417151
0.346250202 0.484133135 0.91742484
0.378328017 0.484085955 0.917481266
0.427562281 0.484963364 0.917614326
0.490387819 0.486279932 0.917804239
0.593433902 0.489739061 0.918157002
0.758731168 0.500663951 0.918895284
0.945442666 0.534429234 0.920087379
1 0.623572135 0.921309284
0.34472756 0.500284311 0.917042841
0.35251882 0.500360727 0.917050618
0.381164527 0.500873339 0.917120237
0.431398592 0.501740115 0.917249427
0.492220302 0.50282025 0.917447068
0.594395061 0.505878812 0.917769402
0.758218749 0.51427118 0.918512491
0.944575669 0.546646634 0.919750306
1 0.631814514 0.92108141
0.354589943 0.531076407 0.916409793
0.361126119 0.531157309 0.916426994
0.38685145 0.531400343 0.916497891
0.434581102 0.531994305 0.916629957
0.496497312 0.532899282 0.91681173
0.596290354 0.534444708 0.917058377
0.757537547 0.54214515 0.917805583
0.943090972 0.57094287 0.919107744
1 0.647394703 0.920616306
0.371957467 0.571271198 0.915375905
0.379250254 0.571348618 0.91538815
0.402811966 0.571431482 0.915449683
0.446980054 0.571732466 0.915565581
0.502608985 0.572613358 0.915738243
0.598480429 0.574383858 0.916063891
0.757138257 0.581041958 0.916856514
0.939626094 0.604326214 0.918265384
1 0.670886104 0.919944198
0.404952868 0.644784231 0.913485311
0.40998915 0.644816984 0.913499734
0.430926294 0.644969083 0.913559387
0.470069497 0.645296 0.913666455
0.520888202 0.645624602 0.913818856
0.607482775 0.647084544 0.914186676
0.756246313 0.65147864 0.915018952
0.933993784 0.667704902 0.916522775
0.999980503 0.719204169 0.918765973
0.490866139 0.774405259 0.910499963
0.494475664 0.774421503 0.910511335
0.509652023 0.774496519 0.910559335
0.534745437 0.774495439 0.910677371
0.568945925 0.774507279 0.910860903
0.636139749 0.775048705 0.911197259
0.763609891 0.777141275 0.912020976
0.922859121 0.783475114 0.913838832
0.999036778 0.811459379 0.917053813
0.656007584 0.916274699 0.912784332
0.65745414 0.916261802 0.912794283
0.66358858 0.916208006 0.912836684
0.675786143 0.916105399 0.912921992
0.693410484 0.915976674 0.913064602
0.730357353 0.915773262 0.913402314
0.808138998 0.915230999 0.914196866
0.915225102 0.916223588 0.916084128
0.995349565 0.922507018 0.920284364
0.856360051 0.993818985 0.933569897
0.856699355 0.993811849 0.933574874
0.858145614 0.993781472 0.933596153
0.861056839 0.993720529 0.933639306
0.865657372 0.993624787 0.933708381
0.876190471 0.993408237 0.933870691
0.89765696 0.993332372 0.934326788
0.941447721 0.993134166 0.935452629
0.990663061 0.99396663 0.938124118
0.609910908 0.743406108 0.996352974
0.611855097 0.743418296 0.996357377
0.620055811 0.743475182 0.996375861
0.636156476 0.743613152 0.996411725
0.659903638 0.743939989 0.996439642
0.706493119 0.744203996 0.996660611
0.802621486 0.747356683 0.996679524
0.931187001 0.756300969 0.99669042
0.99985782 0.787549354 0.99626606
0.610264969 0.744455453 0.996331625
0.612203841 0.744467219 0.996336028
0.620382467 0.74452228 0.996354512
0.63644134 0.744656446 0.996390385
0.660258372 0.744967535 0.996423248
0.706686305 0.745211744 0.996645435
0.802635184 0.748504315 0.99662304
0.931065511 0.757230791 0.99666641
0.999859405 0.788317537 0.996242478
0.611799142 0.748866202 0.996242265
0.613715569 0.748876248 0.996246664
0.621800936 0.748923856 0.996265143
0.637683234 0.749042477 0.99630104
0.661703576 0.749435871 0.99631233
0.707316818 0.750129859 0.996386245
0.802714326 0.753335731 0.996385546
0.930560244 0.76115387 0.996565374
0.999866182 0.791570957 0.996142794
0.61470664 0.758339196 0.995782594
0.616575237 0.758357252 0.995783358
0.624461323 0.758438873 0.995786325
0.639963748 0.75862538 0.995790911
0.66339605 0.758964493 0.995820428
0.708702554 0.759721975 0.995882405
0.80324892 0.761861155 0.996073712
0.929602631 0.768861091 0.996368163
0.999879909 0.798020003 0.995946139
0.619983668 0.772088505 0.995151514
0.621792803 0.772091086 0.995154604
0.629432241 0.772106307 0.995167525
0.644469792 0.772157078 0.995192351
0.667104843 0.772261786 0.99528378
0.71184247 0.772742944 0.995395582
0.80428827 0.774391993 0.995652327
0.928150383 0.7812883 0.995905853
0.99990184 0.807954008 0.995645513
0.634206254 0.798789512 0.994238589
0.635854122 0.798783291 0.994245861
0.642819988 0.798760383 0.99427651
0.656566116 0.798731566 0.994336566
0.676361837 0.798910187 0.994368986
0.718361129 0.799622163 0.99439502
0.805638337 0.801675569 0.99448377
0.925691793 0.807424453 0.994764839
0.999434632 0.829495399 0.994585721
0.668564884 0.856575192 0.991797247
0.669942007 0.856583255 0.991798561
0.675776358 0.856619387 0.991804038
0.687350493 0.856700676 0.99181447
0.705209421 0.856832231 0.991839767
0.741149298 0.857032241 0.99193904
0.816911737 0.857059918 0.992239309
0.922101753 0.859384835 0.992685245
0.999049216 0.873690074 0.992789823
0.759008254 0.932867034 0.989396961
0.759910708 0.93285872 0.989401144
0.763747303 0.932823764 0.98941893
0.770906238 0.932773355 0.989453369
0.780216624 0.932713165 0.989498368
0.799873485 0.932529335 0.989586267
0.849965238 0.932208439 0.989822737
0.925450786 0.932534044 0.99030644
0.991694886 0.936536908 0.990996012
0.88316359 0.991343303 0.989561151
0.883384347 0.991342242 0.989562737
0.884325782 0.991337761 0.989569505
0.886223155 0.991328959 0.989583172
0.889227804 0.991315651 0.989604891
0.896135513 0.991288052 0.989655182
0.914718549 0.991235523 0.989793092
0.947716373 0.991115179 0.990089667
0.989701697 0.990701806 0.990673761
