Luts/Rec709-Input/Rec709_to_Leica_Natural.cube
TITLE "Rec.709 to Leica Natural"
LUT_3D_SIZE 5
0.00717174 0.00679026 0.00660716
0.109982266 0.00918863215 0.00953770322
0.369758718 0.012505871 0.024113517
0.781488262 0.0744584947 0.0910776498
1 0.508862805 0.335789054
0.0117768142 0.118373434 0.0107319702
0.120743059 0.120842962 0.012465223
0.379606521 0.125805125 0.0283690876
0.780629353 0.177680585 0.094658776
1 0.529937683 0.340293326
0.0255382398 0.390547549 0.0190496319
0.113559038 0.391638629 0.0220075777
0.394431068 0.3955986 0.036332862
0.77143915 0.421781422 0.105901292
1 0.608081174 0.360105259
0.326162293 0.768607803 0.27628821
0.363458602 0.768602815 0.277759499
0.481765697 0.768601797 0.283872814
0.758278661 0.77108551 0.313783994
1 0.81193198 0.457349377
0.845270623 0.999918366 0.746725269
0.84755513 0.999918067 0.746867849
0.857038433 0.999915878 0.747478914
0.897164663 0.999866122 0.750757246
0.995112975 0.999754503 0.773368781
0.00695843748 0.00404452885 0.113436944
0.113914684 0.00467746486 0.115671294
0.373268015 0.00714944349 0.126056694
0.781067551 0.0778584063 0.172310436
1 0.507571365 0.378446464
0.011978395 0.121181748 0.121410577
0.12246271 0.1231329 0.123439204
0.381945745 0.129032155 0.132576528
0.779749785 0.182672995 0.177611276
1 0.528750757 0.382352206
0.0294975448 0.393255569 0.140369128
0.11553716 0.394345771 0.142650274
0.394726625 0.397979168 0.152331683
0.770629057 0.422722244 0.198695987
1 0.606868054 0.39922719
0.327564947 0.766950163 0.329591628
0.36402791 0.766864739 0.330737973
0.481804635 0.766796106 0.335417319
0.75765598 0.769363037 0.358689649
1 0.810646055 0.481646851
0.845245681 0.999905224 0.752444342
0.847527542 0.999905504 0.752571712
0.856972165 0.999905554 0.75311734
0.897007284 0.999866674 0.756137134
0.995005855 0.999756735 0.778168455
0.00200301299 0 0.377897903
0.101925244 0 0.378823812
0.380253628 0.00213447924 0.383125845
0.777564488 0.0553285392 0.403618309
1 0.505900302 0.503088494
0.00411352658 0.090676852 0.381922825
0.107516865 0.0933400123 0.382874324
0.385247822 0.10460962 0.386835504
0.775413062 0.178854499 0.406214495
1 0.526911982 0.504910496
0.0362892669 0.393522505 0.394004411
0.124191054 0.394447901 0.39487941
0.394614341 0.397725935 0.398734341
0.766445346 0.421313561 0.416923695
1 0.602733698 0.51310672
0.334813146 0.760993489 0.470547786
0.367997139 0.760953517 0.471197087
0.4837116 0.76097971 0.473732787
0.755821398 0.763066497 0.486595897
1 0.806480809 0.562298051
0.845255888 0.999906779 0.774063224
0.847520269 0.999907058 0.774185725
0.856792562 0.999906097 0.774671547
0.896391246 0.99986904 0.777290229
0.994438938 0.999318152 0.797977155
0.078028135 0.189130191 0.742831269
0.16653812 0.191576097 0.742985045
0.407905209 0.199294581 0.743964597
0.76139224 0.252118558 0.747556428
1 0.532263814 0.76637482
0.0682012762 0.270233685 0.742568835
0.178076879 0.273076701 0.742848793
0.409897518 0.281990939 0.74358522
0.759858078 0.317786007 0.747408011
1 0.550255587 0.76648262
0.144743039 0.444070779 0.74206943
0.220340527 0.444657588 0.742320031
0.421161541 0.446969934 0.743059798
0.753899521 0.46348109 0.74701478
1 0.610544208 0.767245047
0.383891937 0.751376559 0.749545498
0.411263526 0.751345528 0.749738574
0.510354853 0.751519639 0.750528618
0.753807728 0.754476151 0.754339151
0.999940275 0.797120287 0.776256459
0.847048116 0.998062803 0.85852575
0.849231574 0.998068963 0.858583659
0.857578518 0.998036971 0.858836829
0.89481748 0.997846897 0.860266654
0.992462744 0.998232654 0.870165103
0.609910908 0.743406108 0.996352974
0.620055811 0.743475182 0.996375861
0.659903638 0.743939989 0.996439642
0.802621486 0.747356683 0.996679524
0.99985782 0.787549354 0.99626606
0.611799142 0.748866202 0.996242265
0.621800936 0.748923856 0.996265143
0.661703576 0.749435871 0.99631233
0.802714326 0.753335731 0.996385546
0.999866182 0.791570957 0.996142794
0.619983668 0.772088505 0.995151514
0.629432241 0.772106307 0.995167525
0.667104843 0.772261786 0.99528378
0.80428827 0.774391993 0.995652327
0.99990184 0.807954008 0.995645513
0.668564884 0.856575192 0.991797247
0.675776358 0.856619387 0.991804038
0.705209421 0.856832231 0.991839767
0.816911737 0.857059918 0.992239309
0.999049216 0.873690074 0.992789823
0.88316359 0.991343303 0.989561151
0.884325782 0.991337761 0.989569505
0.889227804 0.991315651 0.989604891
0.914718549 0.991235523 0.989793092
0.989701697 0.990701806 0.990673761
