Luts/Insta360/Insta360_ILog_to_Leica_Classic_65.cube
TITLE "Insta360 I-Log to Leica Classic (via V-Log)"
LUT_3D_SIZE 65
0.00350536648 0.00163792017 0.00304467333
0.00374667153 0.00183807278 0.00326561068
0.00446612196 0.0024244194 0.00390669354
0.00699148603 0.00445777943 0.00611463806
0.00951287146 0.0064847093 0.00831344912
0.0138338359 0.00939379038 0.011014621
0.0184574291 0.0124611951 0.0138287589
0.029743098 0.0180878998 0.0179588196
0.0433805393 0.0245575625 0.0224853133
0.0591009558 0.0305738688 0.0257427542
0.0764557399 0.0360511245 0.027739837
0.0947307993 0.0412670189 0.028858565
0.113345499 0.0455467881 0.0281548659
0.132567789 0.0497057977 0.0273173286
0.15514533 0.0534929969 0.0259299028
0.177624474 0.0571996079 0.0245108637
0.206166725 0.0582647399 0.0199551697
0.234514321 0.0591892541 0.0153450211
0.266608072 0.0550007484 0.00949152414
0.299645276 0.049072439 0.00343185679
0.333545539 0.0394854986 0.000349088859
0.368111018 0.026423556 0.000148498291
0.40251761 0.0147587913 0
0.436712135 0.00748750273 0
0.470755019 0.000321624474 0
0.502025539 0 0
0.533035226 0 0
0.562704057 0 0
0.591497407 0 0
0.62085806 0 0
0.651308757 0 0
0.681333606 0 0
0.70513131 0 0
0.728753209 0 0
0.744896453 0 0
0.758575855 0 0
0.768935404 0 0.000770157963
0.77524616 0 0.00251081719
0.781154675 0 0.00602142206
0.784380258 0 0.0213093947
0.787476374 0 0.036418267
0.78968404 0 0.0513679472
0.791664878 0 0.0676322888
0.7933178 0 0.0799867907
0.794596119 0 0.0874447349
0.795828775 0 0.0946782073
0.796593599 0 0.0976019595
0.797425104 0 0.101063858
0.79783383 0 0.102080299
0.798227572 0 0.102963823
0.798478104 0 0.103495898
0.798644279 0 0.103786758
0.798784364 0 0.104031375
0.798854602 0 0.104152795
0.798926764 0 0.104276032
0.798950091 0 0.104330702
0.798969931 0 0.104382613
0.798981838 0 0.104422611
0.798988307 0 0.104448895
0.798993123 0 0.104470632
0.798992987 0 0.104488284
0.798992868 0 0.104508121
0.799026846 0 0.104691145
0.799081767 0 0.105001472
0.799482564 0 0.10817515
0.0036884293 0.00179561894 0.00322764462
0.00384398215 0.00192946133 0.00336930775
0.00459433672 0.00254076897 0.00403754601
0.00702272856 0.00449124202 0.00615354854
0.00951094744 0.00648974371 0.00832077354
0.0137679641 0.00936214858 0.0109904501
0.0182975798 0.0123773377 0.0137628169
0.029673195 0.0180452103 0.0179181927
0.0432191492 0.0245094769 0.0224608041
0.0589897553 0.0305170178 0.0256907282
0.0764654695 0.0360576448 0.0277454453
0.0947396631 0.0412580415 0.0288367822
0.113325508 0.0455417838 0.0281488631
0.132559041 0.0496966647 0.027313223
0.155109347 0.0534934836 0.0259362748
0.177570447 0.0572166571 0.0245307641
0.206134383 0.0582670947 0.0199591809
0.234529953 0.059209891 0.0153525297
0.266634361 0.0549932449 0.00948879554
0.299648759 0.0490866346 0.00342169593
0.333392375 0.0395354321 0.000354671505
0.367119008 0.0267362993 0.000152976699
0.401103695 0.0149018602 0
0.434610059 0.00761651879 0
0.467808437 0.00048342916 0
0.500552295 0 0
0.531210611 0 0
0.561476643 0 0
0.591437317 0 0
0.620732234 0 0
0.651106826 0 0
0.680057386 0 0
0.704828963 0 0
0.728392826 0 0
0.744528246 0 0
0.757868794 0 0
0.768052673 0 0.000769245192
0.774470216 0 0.00250980596
0.780802144 0 0.00570958347
0.783839745 0 0.0208351943
0.787168847 0 0.0335763593
0.789413178 0 0.0488709303
0.791479248 0 0.0663612614
0.793158296 0 0.0788937233
0.794488428 0 0.0869157101
0.795735597 0 0.0942200999
0.796542637 0 0.0974473487
0.797379993 0 0.100927477
0.797811071 0 0.102045472
0.798207801 0 0.102933544
0.798468652 0 0.10348134
0.798636032 0 0.10377405
0.798781493 0 0.104023737
0.798853738 0 0.104147476
0.798926007 0 0.104271377
0.798950092 0 0.104328664
0.798969932 0 0.104380827
0.798981778 0 0.104421647
0.798988126 0 0.104448113
0.79899273 0 0.104470329
0.798992642 0 0.104488285
0.798992714 0 0.104507973
0.799027067 0 0.104692231
0.799081959 0 0.105002419
0.79949257 0 0.108244513
0.00395565512 0.00202850346 0.00349590117
0.00413337353 0.00218270769 0.00366056889
0.00470919659 0.00265616519 0.00416935245
0.00713820003 0.0046095543 0.00628916176
0.00952308675 0.00651767278 0.00835290093
0.0135236139 0.00923169594 0.0108819834
0.017934266 0.012180832 0.0136008413
0.0286557735 0.0176434103 0.0176771804
0.042081863 0.024069844 0.0222036438
0.0574673206 0.030136485 0.0256503621
0.0748239036 0.0356497879 0.0277060635
0.0927801822 0.0408248926 0.0289509667
0.111160974 0.0450663269 0.0282821384
0.129913577 0.0492489025 0.0274523218
0.151781141 0.05310042 0.0260747586
0.173907704 0.0567900341 0.0246874665
0.201244364 0.0584206529 0.0210453039
0.229086254 0.0593806633 0.016559467
0.260142147 0.056773823 0.0101665256
0.292353383 0.0511178918 0.00416836209
0.325825333 0.0417571835 0.000767948422
0.359866373 0.0289986063 0.000152334757
0.393757283 0.0172027421 0
0.428942458 0.00822145838 0
0.462272594 0.000802735264 0
0.495415313 0.000290572404 0
0.528479829 2.97271764e-06 0
0.558729167 0 0
0.588232466 0 0
0.617928963 0 0
0.647127376 0 0
0.675770856 0 0
0.701434053 0 0
0.726641598 0 0
0.74348314 0 0
0.756725343 0 0
0.766888493 0 0.000768332372
0.773796345 0 0.00214631831
0.780194383 0 0.00518194708
0.78343359 0 0.0187498424
0.786882094 0 0.0309282462
0.789182934 0 0.0470542442
0.791307703 0 0.0651867344
0.793025176 0 0.0780893812
0.794386872 0 0.0864168387
0.795646778 0 0.0937900861
0.79649026 0 0.097290278
0.797334017 0 0.100789756
0.797787672 0 0.102010311
0.7981886 0 0.102904141
0.798459434 0 0.10346715
0.798627624 0 0.10376105
0.798780001 0 0.104017432
0.798852059 0 0.104141706
0.798924164 0 0.104266075
0.798949194 0 0.104327116
0.798968894 0 0.104379598
0.798981239 0 0.104421142
0.798987652 0 0.104447613
0.79899234 0 0.10447028
0.798992299 0 0.104488285
0.798992714 0 0.104507673
0.799027287 0 0.104693317
0.799082152 0 0.105003368
0.799502549 0 0.108313702
0.0051098148 0.00305449956 0.00465942841
0.00522696251 0.00315528421 0.0047670889
0.00570271606 0.00354625079 0.00518225289
0.00718334639 0.00473027507 0.0064377772
0.00957504555 0.00664031426 0.00850005411
0.0125671624 0.00873466064 0.0104798
0.0167945984 0.0115734838 0.0131018611
0.0263133685 0.0166897752 0.0170770372
0.0386945879 0.022815094 0.0215159745
0.0539144438 0.028950302 0.0251219409
0.0705785946 0.0346629318 0.0277200224
0.0885041787 0.0398133422 0.028936266
0.106269705 0.0440121454 0.0286230933
0.12501487 0.0481877646 0.0277891397
0.145724748 0.0522878366 0.0263928879
0.167466098 0.0560449454 0.0249916822
0.194210201 0.0580830253 0.0219078471
0.221172314 0.0596700494 0.018266418
0.252239695 0.0570401409 0.011860377
0.283794463 0.0534029795 0.0050705343
0.317223651 0.0441340774 0.00164579876
0.351590553 0.0313980432 0.000644491769
0.385894835 0.019642656 0
0.421051249 0.0105549021 0
0.45571706 0.00131624658 0
0.488643822 0.000490543913 0
0.52125344 0.000123414173 0
0.552313119 0 0
0.581881952 0 0
0.611552156 0 0
0.641701591 0 0
0.671069305 0 0
0.696937936 0 0
0.722524023 0 0
0.73965656 0 0
0.753873466 0 0
0.765839651 0 0.000550635198
0.772896778 0 0.00177405423
0.779617054 0 0.00430075262
0.783058126 0 0.016795932
0.78652181 0 0.0286873575
0.788942693 0 0.0451436876
0.79109137 0 0.0634466189
0.79287498 0 0.0771591947
0.794254701 0 0.0855886652
0.795560137 0 0.0933959794
0.796411131 0 0.0969218662
0.797268811 0 0.100500198
0.79774779 0 0.101881272
0.798151324 0 0.102779545
0.798443378 0 0.103441436
0.798613132 0 0.103737801
0.798776121 0 0.104009669
0.79884865 0 0.104134886
0.79892222 0 0.104263309
0.798947855 0 0.104325822
0.798967717 0 0.10437846
0.798980705 0 0.104420642
0.798987183 0 0.104447117
0.798991953 0 0.104470231
0.798991959 0 0.104488285
0.798992714 0 0.104507374
0.799027508 0 0.104694404
0.799082345 0 0.105004316
0.799512502 0 0.108382719
0.00626651938 0.00408279339 0.00582270649
0.00633655822 0.00414220082 0.00588612483
0.00677237244 0.00449691588 0.00626228021
0.00809894492 0.00555668486 0.00737835165
0.00962924802 0.00676744308 0.00865169463
0.0126170077 0.00885929963 0.0106296972
0.0157360162 0.0110261552 0.0126602116
0.0252134591 0.0161037871 0.0165915093
0.0361846487 0.0218218663 0.0209113516
0.050522136 0.0276838979 0.0244185084
0.0669360252 0.0335006929 0.0272592914
0.0842920067 0.0388278221 0.028942492
0.102080436 0.043042714 0.0286596426
0.12034314 0.0472283187 0.0280974663
0.141124596 0.0513635949 0.0266920256
0.161809891 0.0554117418 0.0252568892
0.188438208 0.057580941 0.0223153703
0.215006826 0.0596269339 0.0192382222
0.245295661 0.0578815955 0.0128994921
0.277024965 0.0543625243 0.00598165837
0.309776612 0.0464276888 0.00197815299
0.344190782 0.033797634 0.000840854803
0.378450911 0.0216194101 0
0.412816219 0.011252146 0
0.447542443 0.00201710295 0
0.480778213 0.000809743149 0
0.513477485 0.000122790051 0
0.544565794 0 0
0.57479911 0 0
0.605473622 0 0
0.636500729 0 0
0.666885893 0 0
0.692794987 0 0
0.718421088 0 0
0.736371251 0 0
0.752282349 0 0
0.764254474 0 0.000553138868
0.771694009 0 0.00155168249
0.77901505 0 0.00379161059
0.782548961 0 0.016352038
0.786170079 0 0.0255371731
0.788631376 0 0.0423611681
0.790844543 0 0.0614279814
0.792693112 0 0.0758801554
0.794096031 0 0.0844725103
0.795454849 0 0.0928485153
0.796317864 0 0.0964369886
0.797218921 0 0.100325764
0.797703769 0 0.101726581
0.798111271 0 0.102639573
0.798427268 0 0.103415606
0.798598944 0 0.103715044
0.798772313 0 0.104002052
0.798845296 0 0.104128177
0.798920722 0 0.104261863
0.798946533 0 0.104324544
0.798966553 0 0.104377335
0.798980176 0 0.104420147
0.798986717 0 0.104446624
0.798991569 0 0.104470182
0.798991621 0 0.104488286
0.798992714 0 0.104507077
0.799027728 0 0.104695492
0.799082537 0 0.105005266
0.799522427 0 0.108451564
0.0077198873 0.00553246164 0.0073264169
0.00778800118 0.0055950922 0.00739008688
0.00797934904 0.00573106108 0.00753393568
0.00887480482 0.00639988272 0.00824011807
0.0102057763 0.00745674222 0.00933822969
0.0125029758 0.00907711515 0.0108615351
0.0156169957 0.0112485872 0.0128962734
0.0235457294 0.0156201119 0.0163622844
0.0344107926 0.0213015732 0.0206646634
0.0484545368 0.0271865549 0.0243422782
0.0647643146 0.0330333325 0.0272863744
0.0821146783 0.0383695784 0.0290192628
0.0998656426 0.0426223051 0.0288674896
0.118047985 0.0468203977 0.0282853886
0.13815487 0.0510899047 0.0268139933
0.158862569 0.0551240542 0.0253746033
0.184649177 0.0575708348 0.0228199038
0.210979047 0.0596943702 0.0198380474
0.240676414 0.0584700039 0.0133531394
0.271431986 0.0558621098 0.00617339837
0.304200721 0.0478954168 0.00218541155
0.337743112 0.0359520589 0.000871866243
0.37183603 0.0239267565 0
0.405954863 0.0131862326 0
0.439814835 0.00272292694 0
0.473187284 0.00148151045 0
0.506378619 0.000368679156 0
0.538060458 0 0
0.568903074 0 0
0.60017151 0 0
0.632104817 0 0
0.662748286 0 0
0.688942996 0 0
0.715754613 0 0
0.734551662 0 0
0.750588491 0 0
0.763123075 0 0.000295032579
0.771105278 0 0.00103959626
0.778496003 0 0.0033394538
0.782156563 0 0.0138925746
0.78584575 0 0.0226318614
0.788345551 0 0.0398076432
0.790653174 0 0.0600831854
0.79252324 0 0.0746853289
0.793961709 0 0.0836212779
0.795353995 0 0.0923241255
0.796228176 0 0.0959707019
0.797170732 0 0.100157285
0.797661076 0 0.101576539
0.798088081 0 0.102580346
0.798412521 0 0.103391372
0.798585048 0 0.10369276
0.798768574 0 0.103994574
0.798841996 0 0.104121578
0.798919245 0 0.104260437
0.798945228 0 0.104323282
0.798965402 0 0.104376223
0.798979653 0 0.104419657
0.798986256 0 0.104446135
0.798991188 0 0.104470133
0.798991286 0 0.104488286
0.798992714 0 0.104506781
0.799027948 0 0.10469658
0.799082729 0 0.105006215
0.799532326 0 0.108520239
0.00943854924 0.00732776817 0.00912840483
0.00942007748 0.00729853256 0.00910547491
0.00960131971 0.00742098231 0.00923711228
0.0100412172 0.00766594967 0.00950552108
0.0110114137 0.00838344177 0.0102512296
0.0130770203 0.00984439212 0.0116221725
0.0155167865 0.011550546 0.0132105896
0.023518413 0.015956591 0.0166995821
0.0325589939 0.0207925737 0.0204489046
0.0466697581 0.0266811212 0.0241124394
0.0627621748 0.0325791599 0.0272566587
0.0800116455 0.037909327 0.0290343542
0.0977174575 0.042181523 0.0289742801
0.115871817 0.0464041834 0.0284909285
0.135859193 0.0506925838 0.0270133307
0.155989437 0.0548492941 0.0255181988
0.181757279 0.057295333 0.0229696906
0.20728297 0.0596903535 0.0203264729
0.236862572 0.0585914801 0.0139344196
0.267238393 0.0565153763 0.00664450521
0.299284716 0.0497266306 0.0023322025
0.3330614 0.0379416912 0.00100214085
0.366598876 0.0261863573 1.62140389e-05
0.400650268 0.0150367682 0
0.434723673 0.00431469777 0
0.467583841 0.00159951728 0
0.500723173 0.000366796467 0
0.532453996 0 0
0.563330131 0 0
0.594565613 0 0
0.626490193 0 0
0.657980597 0 0
0.68684373 0 0
0.713729491 0 0
0.732540336 0 0
0.749304992 0 0
0.762289349 0 0.000277978523
0.77042298 0 0.000882392493
0.778085399 0 0.0024101449
0.781821925 0 0.0108823958
0.785556461 0 0.0200432379
0.788132272 0 0.0381695837
0.790473546 0 0.0588208914
0.792362205 0 0.073552636
0.79385336 0 0.0830593337
0.795257036 0 0.091820053
0.796141802 0 0.0955216371
0.797124133 0 0.0999943728
0.797619633 0 0.101430876
0.79807121 0 0.102550559
0.79839812 0 0.103367704
0.798571431 0 0.103670928
0.798764903 0 0.103987231
0.798838749 0 0.104115083
0.798917788 0 0.104259032
0.798943939 0 0.104322036
0.798964378 0 0.104375237
0.798979134 0 0.104419172
0.798985799 0 0.104445651
0.798990809 0 0.104470084
0.798990952 0 0.104488287
0.798992714 0 0.104506488
0.799028168 0 0.104697669
0.799082922 0 0.105007165
0.799542199 0 0.108588746
0.0118658444 0.0105403276 0.0119841811
0.01190826 0.0106329892 0.0120517949
0.0118232781 0.0103405647 0.0118461431
0.0122188255 0.0105211698 0.0120607314
0.0127211824 0.0108465532 0.0123808618
0.014408953 0.0120144402 0.0134523396
0.016606361 0.0136062104 0.0149144565
0.0228065444 0.0169263781 0.0175091139
0.0318018957 0.0217923994 0.0212811958
0.0442404576 0.0265121342 0.0242271497
0.0602998742 0.0324283571 0.0273905686
0.0776406286 0.037690287 0.0292939944
0.0954177342 0.0419341652 0.0292792139
0.113624738 0.0462000188 0.0289039437
0.133728525 0.0505428235 0.0275541998
0.153801365 0.0547266302 0.026078207
0.179610172 0.0572689682 0.0237664842
0.205172358 0.0596790257 0.0211707353
0.234462255 0.0591710492 0.0147236196
0.264758543 0.0572976544 0.00745558548
0.296578996 0.0510037555 0.00298572026
0.329730522 0.0407738029 0.00107423976
0.363288179 0.0290409566 9.66158389e-05
0.396625354 0.0172542082 4.07883107e-05
0.430250839 0.00614078062 0
0.463152895 0.00347656436 0
0.49556428 0.00087640204 0
0.527078059 0 0
0.558064214 0 0
0.5891981 0 0
0.620900295 0 0
0.652382736 0 0
0.681237586 0 0
0.710094214 0 0
0.731392346 0 0
0.748473145 0 0
0.7615273 0 0.000279549699
0.769886646 0 0.000763566059
0.777774943 0 0.00217139698
0.781546428 0 0.0105138328
0.785320615 0 0.0186524266
0.787944351 0 0.0368490737
0.790303789 0 0.0576280141
0.792215169 0 0.0725523249
0.793749837 0 0.0825224613
0.795163939 0 0.0913360445
0.796086128 0 0.0953046996
0.797079023 0 0.0998366727
0.797579371 0 0.101289343
0.798054743 0 0.102521454
0.798384035 0 0.103344563
0.798561166 0 0.103654124
0.798761297 0 0.103980017
0.798835553 0 0.104108689
0.798916352 0 0.104257646
0.798942666 0 0.104320805
0.798963798 0 0.104374694
0.79897862 0 0.104418691
0.798985345 0 0.104445169
0.798990434 0 0.104470035
0.798990621 0 0.104488287
0.798992714 0 0.104506196
0.799028387 0 0.104698758
0.799083114 0 0.105008116
0.799552046 0 0.108657084
0.0155792751 0.0170203555 0.017124097
0.0156555301 0.0168360207 0.0170545277
0.0155658415 0.0165398412 0.016844144
0.0152500535 0.0151747484 0.015925096
0.0157293392 0.0154300032 0.0161952115
0.0166953171 0.0159661565 0.0166616917
0.0184928098 0.0172139134 0.0177954823
0.0236026768 0.0198487138 0.0198344202
0.0304650157 0.0233844602 0.0225333242
0.0428793885 0.028024881 0.0254173412
0.0573406087 0.0324818488 0.0277276929
0.0746757125 0.0377145121 0.0295918824
0.0929420235 0.0418353723 0.0296924662
0.111251771 0.0460773177 0.0293289267
0.131507737 0.0504589151 0.0280957561
0.151763996 0.0546638165 0.0267188784
0.177567761 0.057216445 0.0244530413
0.203196999 0.0596785239 0.0220746186
0.232492636 0.0591518423 0.0156064705
0.262566923 0.057820225 0.00838184839
0.294293691 0.0517305821 0.00395382279
0.327314994 0.04203523 0.00185814201
0.360436098 0.0321694664 0.000179876508
0.394023161 0.0205431971 0.000109559133
0.427362221 0.0091199608 2.95961771e-06
0.459654873 0.0042113657 0
0.49235837 0.00124749648 0
0.522971654 0.000130622122 0
0.552998811 0 0
0.584131759 0 0
0.615754126 0 0
0.646871294 0 0
0.676573081 0 0
0.705913491 0 0
0.727472016 0 0
0.746310034 0 0
0.761019381 0 0.000143286174
0.769583203 0 0.00052719492
0.777501746 0 0.00196466808
0.781295766 0 0.0103240759
0.785174674 0 0.0174168798
0.787811004 0 0.0357269375
0.79015985 0 0.0565448364
0.792105381 0 0.0719829514
0.793650731 0 0.0820085357
0.795074409 0 0.0908705684
0.79603735 0 0.0951341714
0.79703531 0 0.0996838646
0.797540223 0 0.101151713
0.79803866 0 0.102492999
0.798370252 0 0.103321927
0.798556893 0 0.103647002
0.798757753 0 0.103972929
0.798832407 0 0.104102395
0.798914936 0 0.104256279
0.798941408 0 0.104319589
0.798963224 0 0.104374157
0.798978112 0 0.104418215
0.798984895 0 0.104444692
0.798990061 0 0.104469986
0.798990292 0 0.104488288
0.798992714 0 0.104505905
0.799028607 0 0.104699848
0.799083306 0 0.105009066
0.799561866 0 0.108725257
0.0192792803 0.0238322969 0.0224365826
0.0192835423 0.0236676246 0.0223485665
0.019184325 0.0231676562 0.0220180904
0.0187815005 0.0219610434 0.0211477596
0.0185596002 0.0206919746 0.0202982887
0.0194630161 0.0213893786 0.0208259051
0.0203839119 0.0220867827 0.0213447529
0.0248674647 0.0243209706 0.0230156599
0.030291384 0.0271388713 0.0250774088
0.0406116434 0.0301396267 0.0268457574
0.0547774909 0.0344922247 0.0290830431
0.0713259736 0.0384555219 0.0302257213
0.0895235538 0.0426549299 0.0303672743
0.108554027 0.0466541302 0.0301124954
0.128918529 0.0510061102 0.0289218028
0.149373946 0.0552758693 0.0276951566
0.175446132 0.0575486294 0.0254788638
0.201063277 0.0600674946 0.0231873612
0.230779934 0.0598618095 0.0173353941
0.260871427 0.0586261351 0.0102169143
0.292761273 0.05417852 0.00500524209
0.3259412 0.0456670619 0.00227515424
0.359037516 0.035837489 0.00056226293
0.392563683 0.0245223064 0.000119184956
0.425923817 0.0131110995 2.72869856e-06
0.457755927 0.00709992826 0
0.489534884 0.00156417276 0
0.520242906 0.000467411664 0
0.549934885 0.00023271863 0
0.578981235 1.59088782e-07 0
0.610408259 0 0
0.641601797 0 0
0.672111248 0 0
0.702151238 0 0
0.723911858 0 0
0.743965555 0 0
0.759383382 0 0.00010898257
0.769125486 0 0.000343393882
0.777247679 0 0.00177254717
0.781127005 0 0.00930823677
0.785037428 0 0.0162544685
0.787684912 0 0.0346658357
0.790048468 0 0.0556135078
0.792018554 0 0.0713549166
0.793556747 0 0.0815107022
0.794988185 0 0.0904222622
0.7959902 0 0.0949693468
0.79699291 0 0.0995356566
0.797510391 0 0.101058035
0.798022943 0 0.102465162
0.798356759 0 0.103299773
0.798552698 0 0.103640014
0.79875427 0 0.103966206
0.798829307 0 0.104096195
0.798913539 0 0.10425493
0.798940165 0 0.104318388
0.798962656 0 0.104373626
0.798977608 0 0.104417744
0.798984449 0 0.104444218
0.798989691 0 0.104469937
0.798989965 0 0.104488288
0.798992715 0 0.104505617
0.799028827 0 0.104700938
0.799084797 0 0.105018245
0.799571661 0 0.108793264
0.0181339237 0.0370686459 0.0292838038
0.0181640713 0.0369802453 0.0292509053
0.018618202 0.0359160484 0.0288077723
0.0194465361 0.0335452991 0.027760043
0.0192180234 0.0322917728 0.0269157687
0.0201291031 0.0315842701 0.0267136103
0.0210256526 0.032296393 0.0272324581
0.0236665346 0.0327430425 0.0276110186
0.0284908885 0.0349851644 0.0292672285
0.0371825359 0.0361282579 0.0300061988
0.0495176863 0.0383013402 0.0310862465
0.0662435899 0.0420277418 0.0320964876
0.0853348011 0.0451294578 0.0317738285
0.104371432 0.0491353465 0.0315122473
0.12595604 0.0525637197 0.0302716419
0.146559596 0.0567106056 0.0290313348
0.17294771 0.0585946808 0.026825297
0.198805273 0.0607444756 0.0245385125
0.228591393 0.0605711461 0.0187614063
0.259224064 0.0596975857 0.0122472317
0.291110322 0.0552364808 0.00704928115
0.324410223 0.0482185788 0.00339495877
0.357598021 0.0395301836 0.000970513353
0.391120637 0.0281910334 0.00052569706
0.424789381 0.0173160536 1.24881801e-05
0.4570029 0.0103285488 0
0.489008557 0.00390505405 0
0.518636016 0.000591842575 0
0.548522895 0.000243575283 0
0.577615459 1.10788035e-05 0
0.606036933 1.70019275e-06 0
0.636850341 0 0
0.667607752 0 0
0.698121231 0 0
0.721959951 0 0
0.742130242 0 0
0.757654333 0 0.000109278971
0.767507732 0 0.000343920399
0.776869032 0 0.00132824645
0.780986914 0 0.00811656345
0.784907793 0 0.0151560862
0.787565227 0 0.0336586295
0.789962861 0 0.054932918
0.791940872 0 0.0707355514
0.793486643 0 0.0809508915
0.794936637 0 0.090203399
0.795944534 0 0.094809718
0.796951712 0 0.0993916544
0.797494634 0 0.101031615
0.798007562 0 0.102437891
0.798343531 0 0.103278063
0.798548675 0 0.103633149
0.798750842 0 0.103960067
0.798826252 0 0.104090083
0.798912159 0 0.104253599
0.798938936 0 0.104317199
0.798962093 0 0.104373099
0.798977108 0 0.104417276
0.798984007 0 0.104443747
0.798989324 0 0.104469888
0.79898964 0 0.104488288
0.798992715 0 0.10450533
0.799029046 0 0.10470203
0.799091838 0 0.10506255
0.799581439 0 0.108861168
0.0158772394 0.0516732452 0.0364048199
0.0160492222 0.0516251599 0.0364581998
0.0166193377 0.0505416926 0.0360540904
0.0180581232 0.0476146041 0.0349450069
0.0191042599 0.0452328079 0.0339921096
0.0200163868 0.0444364328 0.0337444951
0.0209326198 0.043729571 0.0335531278
0.0235991226 0.0441589902 0.0339217838
0.0265368253 0.0444567649 0.0342393424
0.0346759329 0.0449105117 0.0345019658
0.0453796266 0.0450336491 0.0345085623
0.0603434982 0.0465944592 0.0343193473
0.0797106605 0.0495332097 0.0338965985
0.099960454 0.05243844 0.0332086726
0.121561115 0.056039767 0.0320243217
0.143519285 0.0591646129 0.0306584573
0.170054167 0.0609591276 0.0283191184
0.196233993 0.0628720554 0.0260413682
0.226449355 0.06254414 0.0200387773
0.257177975 0.0619618479 0.0135376027
0.289621913 0.0589644715 0.00800499643
0.322967759 0.0524123773 0.00412422834
0.356588386 0.0449981112 0.00110367186
0.390908767 0.0344169855 0.000543741226
0.424632058 0.0235589659 1.12379964e-05
0.45722208 0.0131194592 0
0.489333149 0.00565275755 0
0.518952546 0.00231440226 0
0.54746891 0.000457360555 0
0.576563349 2.42952104e-05 0
0.605135568 1.5551592e-05 0
0.633551173 0 0
0.663120626 0 0
0.693807979 0 0
0.718216896 0 0
0.740296566 0 0
0.755918888 0 0.000109401661
0.766299637 0 0.000291741201
0.776072034 0 0.00124000696
0.780599338 0 0.00736488459
0.784775616 0 0.0140346858
0.787456059 0 0.0327544194
0.789878422 0 0.0542564608
0.791863736 0 0.0701159726
0.793416121 0 0.0803844635
0.794895945 0 0.0899485716
0.795900585 0 0.0946264474
0.796908435 0 0.0992403918
0.797477857 0 0.10100327
0.797991289 0 0.102409008
0.798329513 0 0.103255063
0.798544611 0 0.103625858
0.798747196 0 0.103953534
0.798823774 0 0.104085956
0.798910686 0 0.104252177
0.798937622 0 0.104315929
0.79896149 0 0.104372536
0.798976573 0 0.104416775
0.798983532 0 0.104443241
0.798988929 0 0.104469835
0.79898929 0 0.104488289
0.798992715 0 0.104505021
0.799029284 0 0.104703212
0.799099426 0 0.105110291
0.799591995 0 0.108934487
0.0100164975 0.0673282053 0.0416525188
0.0100506299 0.0672536903 0.0416259991
0.0103794746 0.0659873769 0.0413504872
0.0114426841 0.0628683182 0.0404077863
0.0126360714 0.0600953566 0.0393613962
0.0131680721 0.0588152624 0.0390615118
0.0139140981 0.0580497081 0.0387704212
0.015242179 0.0575038569 0.0386637503
0.017965157 0.0577938533 0.0389103186
0.0262132737 0.0572249816 0.0386119442
0.0368367783 0.0570646766 0.0384348401
0.052992393 0.0575900661 0.0379255467
0.0735126631 0.0594070521 0.0371886049
0.0942884842 0.0617246667 0.0364097793
0.117761378 0.0632462926 0.03496339
0.139763971 0.0663161368 0.0335650672
0.167229282 0.0663200528 0.0302247058
0.193629595 0.0678920355 0.0277458228
0.224246231 0.0672318692 0.0214549836
0.255394197 0.0660981362 0.0145721274
0.287857694 0.063063574 0.00902875848
