Luts/Insta360/Insta360_ILog_to_VLog.cube
TITLE "Insta360 I-Log / Rec.2020 to Panasonic V-Log / V-Gamut"
LUT_3D_SIZE 33
0.0372361468 0.0372361468 0.0372361468
0.0653971204 0.0380406224 0.0374772163
0.0935580939 0.0388450979 0.0377182857
0.121719067 0.0396495735 0.0379593551
0.149880041 0.040454049 0.0382004246
0.178053729 0.0412588878 0.0384416028
0.207115794 0.0421902064 0.0387206821
0.23570218 0.0433943644 0.0390815205
0.263900362 0.0449512931 0.0395480704
0.291805498 0.0469643402 0.0401513008
0.319488154 0.0495671304 0.0409312538
0.347001172 0.0529324351 0.0419397023
0.374384416 0.0572836408 0.0432435861
0.401668131 0.0629095775 0.0449294563
0.428875367 0.0701836909 0.0471092198
0.456023746 0.0795888314 0.0499275676
0.483126781 0.0917493056 0.0535715797
0.51019485 0.107472317 0.058283143
0.537235937 0.127801549 0.0643750078
0.564256193 0.15408644 0.0722515479
0.59126036 0.18784327 0.0824356022
0.618252097 0.222570123 0.0956031812
0.645234229 0.255162587 0.112628339
0.672208935 0.286277298 0.134641195
0.699177902 0.316338479 0.163102945
0.726142432 0.345632828 0.198379708
0.75310353 0.37436057 0.232493683
0.780061976 0.402664987 0.264667009
0.80701837 0.430650507 0.295485482
0.833973178 0.458394299 0.325332383
0.860926759 0.485953996 0.354469126
0.887879391 0.513372986 0.383079518
0.914831289 0.540684138 0.411295759
0.037610648 0.0636490896 0.0381205747
0.0657716215 0.0644535652 0.0383616441
0.093932595 0.0652580407 0.0386027135
0.122093569 0.0660625163 0.038843783
0.150254542 0.0668669918 0.0390848524
0.17842823 0.0676718306 0.0393260307
0.207407345 0.0686031491 0.0396051099
0.235924253 0.0698073072 0.0399659484
0.264070127 0.0713642359 0.0404324982
0.291935631 0.073377283 0.0410357286
0.319588115 0.0759800732 0.0418156817
0.347078078 0.0793453779 0.0428241301
0.374443656 0.0836965836 0.0441280139
0.401713805 0.0893225203 0.0458138842
0.428910607 0.0965966336 0.0479936476
0.456050951 0.106001774 0.0508119954
0.483147792 0.118162248 0.0544560075
0.510211082 0.13388526 0.0591675708
0.53724848 0.154214492 0.0652594357
0.564265888 0.180499383 0.0731359757
0.591267855 0.210059772 0.08332003
0.618257891 0.238986024 0.096487609
0.645238708 0.267439208 0.113512767
0.672212399 0.295537053 0.135525623
0.699180581 0.323366137 0.163987373
0.726144503 0.350990875 0.19912642
0.753105132 0.378459628 0.233033606
0.780063215 0.405808947 0.265064577
0.807019328 0.433066608 0.295781976
0.833973919 0.460253802 0.325555527
0.860927332 0.487386746 0.354638191
0.887879834 0.514477881 0.383208247
0.914831632 0.541536769 0.411394139
0.0379851491 0.0900620324 0.0390050025
0.0661461226 0.0908665079 0.0392460719
0.0943070961 0.0916709835 0.0394871414
0.12246807 0.092475459 0.0397282108
0.150629043 0.0932799346 0.0399692802
0.178802731 0.0940847733 0.0402104585
0.207698088 0.0950160919 0.0404895377
0.236145856 0.09622025 0.0408503762
0.264239618 0.0977771786 0.041316926
0.292065603 0.0997902258 0.0419201564
0.31968798 0.102393016 0.0427001095
0.347154927 0.105758321 0.0437085579
0.374502862 0.110109526 0.0450124418
0.40175946 0.115735463 0.046698312
0.428945836 0.123009576 0.0488780754
0.456078149 0.132414717 0.0516964232
0.483168798 0.144575191 0.0553404353
0.510227311 0.160298203 0.0600519986
0.537261022 0.180627434 0.0661438635
0.564275582 0.204156781 0.0740204035
0.591275348 0.228383186 0.0842044578
0.618263685 0.253176995 0.0973720368
0.645243188 0.278428297 0.114397195
0.672215863 0.304045239 0.13641005
0.699183259 0.329952354 0.164871801
0.726146574 0.356088467 0.199867855
0.753106734 0.3824045 0.233570764
0.780064453 0.408861404 0.265460644
0.807020286 0.435428305 0.296077634
0.83397466 0.462080913 0.325778197
0.860927905 0.488800189 0.354806985
0.887880277 0.515571258 0.383336818
0.914831974 0.542382524 0.411492427
0.0383596502 0.116474975 0.0398894303
0.0665206237 0.117279451 0.0401304997
0.0946815972 0.118083926 0.0403715692
0.122842571 0.118888402 0.0406126386
0.151003544 0.119692877 0.040853708
0.179177232 0.120497716 0.0410948863
0.207988028 0.121429035 0.0413739656
0.236366993 0.122633193 0.041734804
0.264408835 0.124190121 0.0422013538
0.292195414 0.126203169 0.0428045842
0.319787751 0.128805959 0.0435845373
0.34723172 0.132171263 0.0445929857
0.374562035 0.136522469 0.0458968696
0.401805094 0.142148406 0.0475827398
0.428981052 0.149422519 0.0497625032
0.45610534 0.15882766 0.052580851
0.4831898 0.170988134 0.0562248631
0.510243538 0.186560782 0.0609364265
0.537273562 0.204259414 0.0670282913
0.564285275 0.223449009 0.0749048313
0.591282842 0.24397661 0.0850888856
0.618269478 0.265674789 0.0982564646
0.645247667 0.288374468 0.115281623
0.672219327 0.311914752 0.137294478
0.699185938 0.336149326 0.165756229
0.726148646 0.360949754 0.200604085
0.753108336 0.386206367 0.234105184
0.780065692 0.411827535 0.265855221
0.807021244 0.437737995 0.29637246
0.8339754 0.46387674 0.326000395
0.860928478 0.490194837 0.354975507
0.88788072 0.516653355 0.383465231
0.914832317 0.543221515 0.411590624
0.0387341513 0.142887918 0.0407738581
0.0668951248 0.143692393 0.0410149276
0.0950560983 0.144496869 0.041255997
0.123217072 0.145301345 0.0414970664
0.151378045 0.14610582 0.0417381359
0.179551733 0.146910659 0.0419793141
0.208277168 0.147841977 0.0422583934
0.236587665 0.149046135 0.0426192318
0.26457778 0.150603064 0.0430857816
0.292325064 0.152616111 0.0436890121
0.319887426 0.155218902 0.0444689651
0.347308457 0.158584206 0.0454774135
0.374621174 0.162935412 0.0467812974
0.401850709 0.168561349 0.0484671676
0.429016257 0.175835462 0.050646931
0.456132524 0.185156818 0.0534652788
0.483210798 0.196238228 0.0571092909
0.510259763 0.209023302 0.0618208543
0.537286101 0.223534406 0.0679127191
0.564294967 0.239738036 0.0757892591
0.591290334 0.257549026 0.0859733135
0.618275271 0.276840717 0.0991408924
0.645252147 0.297458631 0.116166051
0.67222279 0.319234818 0.138178906
0.699188616 0.342000506 0.166640656
0.726150717 0.365595678 0.201335183
0.753109938 0.389875235 0.234636896
0.780066931 0.414712089 0.266248319
0.807022202 0.439997917 0.296666461
0.833976141 0.465642337 0.326222124
0.860929051 0.491571185 0.355143759
0.887881163 0.517724403 0.383593488
0.91483266 0.544053848 0.411688728
0.0391088215 0.169312786 0.0416586853
0.067269795 0.170117261 0.0418997547
0.0954307685 0.170921737 0.0421408241
0.123591742 0.171726212 0.0423818935
0.151752716 0.172530688 0.042622963
0.179926403 0.173335527 0.0428641413
0.208565644 0.174266845 0.0431432205
0.236807972 0.175471003 0.043504059
0.264746529 0.177027932 0.0439706088
0.292454613 0.179040979 0.0445738392
0.319987052 0.181641492 0.0453537922
0.347385172 0.18493405 0.0463622407
0.374680307 0.189043508 0.0476661245
0.401896324 0.19412884 0.0493519947
0.429051466 0.200358413 0.0515317582
0.456159713 0.207900686 0.054350106
0.483231802 0.21691178 0.0579941181
0.510275992 0.227521193 0.0627056814
0.537298644 0.23981796 0.0687975463
0.564304663 0.253840097 0.0766740863
0.59129783 0.269569831 0.0868581406
0.618281067 0.286935851 0.10002572
0.645256628 0.305821985 0.117050878
0.672226255 0.326080171 0.139063733
0.699191296 0.34754489 0.167525484
0.726152789 0.370046481 0.202061548
0.75311154 0.393421669 0.235166164
0.78006817 0.417520683 0.266640126
0.807023161 0.442211161 0.296959772
0.833976883 0.467379482 0.326443484
0.860929624 0.492930315 0.355311817
0.887881607 0.5187851 0.383721645
0.914833003 0.544879999 0.411786784
0.0395423708 0.198369066 0.0426825623
0.0677033443 0.199048563 0.0429236318
0.0958643178 0.199723686 0.0431647012
0.124025291 0.200394492 0.0434057706
0.152186265 0.201061034 0.0436468401
0.180359953 0.201723666 0.0438880183
0.208898466 0.202485241 0.0441670976
0.237062324 0.203461802 0.044527936
0.264941458 0.204711126 0.0449944858
0.292604321 0.206304703 0.0455977163
0.320102216 0.208329884 0.0463776693
0.347473873 0.210891705 0.0473861177
0.374748691 0.214113911 0.0486900016
0.401949083 0.218138541 0.0503758718
0.429092193 0.22312331 0.0525556352
0.456191166 0.229236034 0.055373983
0.4832561 0.236645659 0.0590179951
0.510294769 0.245510089 0.0637295585
0.537313157 0.255961994 0.0698214233
0.564315881 0.268094813 0.0776979633
0.591306503 0.281951754 0.0878820177
0.618287772 0.297520397 0.101049597
0.645261813 0.314734268 0.118074755
0.672230265 0.333480972 0.14008761
0.699194396 0.353614876 0.168549361
0.726155187 0.374971522 0.20289583
0.753113394 0.397381138 0.235775292
0.780069604 0.420679474 0.267091685
0.80702427 0.444715253 0.297298156
0.83397774 0.469354355 0.32669905
0.860930287 0.494481361 0.35550595
0.88788212 0.519999245 0.383869748
0.9148334 0.545827927 0.411900136
0.0401029329 0.227442139 0.0440063948
0.0682639064 0.227957545 0.0442474643
0.09642488 0.22847043 0.0444885337
0.124585853 0.228980819 0.0447296031
0.152746827 0.229488737 0.0449706726
0.180920515 0.229994435 0.0452118508
0.209327232 0.230576576 0.0454909301
0.23739028 0.231324504 0.0458517685
0.265192959 0.232283706 0.0463183183
0.292797572 0.233511053 0.0469215488
0.320250932 0.235076969 0.0477015018
0.347588449 0.237067587 0.0487099502
0.374837043 0.239586616 0.0500138341
0.402017259 0.242756438 0.0516997043
0.429144829 0.246717824 0.0538794677
0.456231819 0.251627503 0.0566978155
0.483287509 0.257652819 0.0603418276
0.510319041 0.264963009 0.065053391
0.537331918 0.273717241 0.0711452558
0.564330384 0.284050501 0.0790217958
0.591317716 0.29605949 0.0892058502
0.618296442 0.309791314 0.102373429
0.645268516 0.325237615 0.119398587
0.672235449 0.342335631 0.141411443
0.699198405 0.360975905 0.169873193
0.726158287 0.381014732 0.203964778
0.753115792 0.402288538 0.236557662
0.780071459 0.424627534 0.267672667
0.807025704 0.447866779 0.297734061
0.833978849 0.471853879 0.327028566
0.860931145 0.496453392 0.355756424
0.887882783 0.521548538 0.384060929
0.914833913 0.547040998 0.412046515
0.0408277175 0.256005036 0.0457180578
0.0689886911 0.256397805 0.0459591273
0.0971496646 0.256789109 0.0462001967
0.125310638 0.257178958 0.0464412661
0.153471612 0.257567364 0.0466823356
0.181643013 0.257954511 0.0469235138
0.209879024 0.258400721 0.0472025931
0.2378128 0.258974854 0.0475634315
0.265517248 0.259712557 0.0480299813
0.29304691 0.260658751 0.0486332118
0.320442903 0.261869624 0.0494131648
0.347736406 0.263414796 0.0504216132
0.374951168 0.265379481 0.0517254971
0.402105343 0.267866382 0.0534113673
0.429212845 0.270996842 0.0555911308
0.456284359 0.274910662 0.0584094786
0.483328106 0.279763799 0.0620534907
0.510350416 0.285723207 0.066765054
0.53735617 0.292958305 0.0728569188
0.564349133 0.30162917 0.0807334588
0.591332211 0.3118725 0.0909175132
0.61830765 0.323787438 0.104085092
0.645277183 0.337424035 0.12111025
0.672242151 0.352777028 0.143123106
0.699203588 0.369786506 0.171584856
0.726162295 0.388345293 0.205330933
0.753118892 0.408311199 0.237560661
0.780073856 0.429521376 0.268419115
0.807027558 0.451806059 0.298294997
0.833980283 0.474999808 0.327453088
0.860932254 0.498949394 0.356079394
0.887883641 0.523518376 0.384307603
0.914834576 0.548588936 0.412235474
0.0417648354 0.284185541 0.0479311703
0.0699258089 0.284485904 0.0481722398
0.0980867824 0.284785409 0.0484133092
0.126247756 0.285084061 0.0486543786
0.154408729 0.285381865 0.0488954481
0.182570291 0.28567896 0.0491366263
0.210588193 0.286021696 0.0494157056
0.23835659 0.286463187 0.049776544
0.26593506 0.287031276 0.0502430938
0.293368418 0.28776126 0.0508463243
0.320690594 0.288697633 0.0516262773
0.347927399 0.289896065 0.0526347257
0.375098543 0.291425565 0.0539386096
0.402219122 0.293370653 0.0556244798
0.429300722 0.295833261 0.0578042433
0.456352252 0.298933944 0.0606225911
0.483380572 0.30281175 0.0642666031
0.510390968 0.307622041 0.0689781665
0.537387518 0.313531456 0.0750700313
0.564373369 0.320709527 0.0829465713
0.591350951 0.329316995 0.0931306257
0.61832214 0.339491839 0.106298205
0.645288388 0.351335042 0.123323363
0.672250816 0.364898891 0.145336218
0.699210289 0.380180489 0.173797969
0.726167477 0.397122117 0.207071342
0.753122899 0.415618368 0.238843442
0.780076955 0.435528241 0.269376434
0.807029955 0.456689468 0.299015846
0.833982137 0.478932325 0.327999444
0.860933688 0.502091008 0.356495513
0.88788475 0.526011662 0.384625686
0.914835434 0.550557082 0.412479287
0.0429764916 0.312077288 0.0507926372
0.0711374651 0.312307593 0.0510337066
0.0992984386 0.312537393 0.051274776
0.127459412 0.312766692 0.0515158455
0.155620386 0.31299549 0.0517569149
0.1837572 0.313223893 0.0519980932
0.21149807 0.31348757 0.0522771724
0.239055536 0.313827515 0.0526380109
0.266472819 0.314265423 0.0531045607
0.293782661 0.314828924 0.0537077911
0.321009985 0.315553049 0.0544877441
0.348173832 0.316481965 0.0554961926
0.375288787 0.317670948 0.0568000764
0.40236605 0.319188545 0.0584859466
0.429414234 0.32111874 0.0606657101
0.45643997 0.323562884 0.0634840579
0.48344837 0.326640921 0.06712807
0.510443378 0.330491326 0.0718396333
0.537428037 0.335268995 0.0779314982
0.564404698 0.341140316 0.0858080382
0.591375175 0.348274893 0.0959920925
0.618340872 0.356833962 0.109159671
0.645302874 0.366956462 0.12618483
0.672262018 0.378744774 0.148197685
0.699218952 0.39225289 0.176659435
0.726174177 0.407479723 0.209279646
0.753128081 0.424369246 0.240479106
0.780080963 0.44281742 0.270601397
0.807033054 0.462684172 0.299940591
0.833984534 0.483807694 0.328701668
0.860935542 0.506018311 0.357031101
0.887886183 0.529149947 0.385035529
0.914836542 0.553048271 0.41279369
0.0445431152 0.339749752 0.0544924004
0.0727040887 0.339926696 0.0547334699
0.100865062 0.340103342 0.0549745393
0.129026036 0.340279691 0.0552156087
0.157187009 0.340455743 0.0554566782
0.185272183 0.34063158 0.0556978564
0.212662924 0.340834683 0.0559769357
0.239952396 0.341096705 0.0563377741
0.267164058 0.341434521 0.0568043239
0.294315846 0.341869698 0.0574075544
0.321421508 0.342429701 0.0581875074
0.348491603 0.343149358 0.0591959559
0.375534255 0.344072587 0.0604998397
0.402555719 0.345254365 0.0621857099
0.429560819 0.346762881 0.0643654734
0.456553277 0.348681715 0.0671838212
0.483535966 0.351111766 0.0708278333
0.510511103 0.354172514 0.0755393966
0.537480403 0.358001991 0.0816312614
0.56444519 0.362754731 0.0895078014
0.591406488 0.368596924 0.0996918558
0.618365087 0.375698223 0.112859435
0.645321601 0.384220231 0.129884593
0.6722765 0.394302616 0.151897448
0.699230152 0.406048822 0.180359199
0.726182839 0.419514146 0.212067664
0.75313478 0.434698893 0.242556835
0.780086144 0.451548336 0.272164311
0.807037061 0.469959497 0.301124291
0.833987633 0.489793026 0.329602702
0.860937939 0.51088748 0.357719567
0.887888037 0.533073226 0.385563077
0.914837976 0.556183987 0.413198808
0.0465686974 0.367254984 0.0592760479
0.0747296709 0.367391139 0.0595171173
0.102890644 0.367527117 0.0597581867
0.131051618 0.36766292 0.0599992562
0.159212591 0.367798546 0.0602403256
0.187199108 0.367934059 0.0604815039
0.21415011 0.368090649 0.0607605831
0.241100747 0.368292768 0.0611214216
0.268051102 0.368553524 0.0615879714
0.29500124 0.368889712 0.0621912018
0.321951209 0.3693228 0.0629711549
0.348901047 0.369880127 0.0639796033
0.375850785 0.370596367 0.0652834871
0.402800445 0.371515245 0.0669693574
0.429750045 0.37269151 0.0691491208
0.456699598 0.374193077 0.0719674686
0.483649115 0.376103214 0.0756114807
0.510598604 0.378522477 0.080323044
0.537548071 0.381569986 0.0864149089
0.564497522 0.385383432 0.0942914489
0.59144696 0.390117069 0.104475503
0.618396388 0.395936932 0.117643082
0.645345808 0.403012704 0.13466824
0.672295223 0.411506269 0.156681096
0.699244632 0.421557845 0.185062818
0.726194038 0.433271692 0.215565979
0.753143441 0.446704105 0.245183654
0.780092843 0.461856461 0.274151178
0.807042242 0.478675037 0.302635229
0.83399164 0.497057674 0.330756346
0.860941038 0.516865584 0.35860308
0.887890434 0.537937611 0.386241267
0.91483983 0.560104159 0.413720301
0.0491876949 0.394632263 0.0654611146
0.0773486684 0.394737155 0.065702184
0.105509642 0.394841941 0.0659432534
0.133670615 0.394946624 0.0661843229
0.161831589 0.395051201 0.0664253923
0.189639196 0.395155722 0.0666665706
0.216042244 0.395276539 0.0669456498
0.242567123 0.395432544 0.0673064883
0.269187006 0.395633908 0.0677730381
0.295880839 0.395893693 0.0683762685
0.322632149 0.396228634 0.0691562216
0.349428084 0.396660119 0.07016467
0.376258636 0.397215394 0.0714685538
0.403116023 0.397929013 0.0731544241
0.429994201 0.398844555 0.0753341875
0.456888482 0.400016589 0.0781525353
0.483795231 0.401512826 0.0817965474
0.510711631 0.403416291 0.0865081107
0.537635499 0.405827276 0.0925999756
0.564565147 0.408864624 0.100476516
0.591499266 0.412665763 0.11066057
0.618436845 0.417384731 0.123828149
0.6453771 0.42318744 0.140853307
0.672319425 0.430243595 0.162866162
0.699263351 0.438715291 0.190850238
0.726208516 0.448743168 0.219922811
0.753154639 0.460432109 0.248485335
0.780101503 0.47383918 0.27666556
0.80704894 0.488966578 0.304557093
0.833996821 0.505761358 0.332229396
0.860945044 0.524121994 0.359734504
0.887893533 0.543910136 0.387111688
0.914842227 0.56496485 0.41439075
0.0525739551 0.421911398 0.0734581609
0.0807349286 0.421992278 0.0736992303
0.108895902 0.422073095 0.0739402998
0.137056876 0.42215385 0.0741813692
0.165217849 0.422234544 0.0744224386
0.192712258 0.422315211 0.0746636169
0.218439167 0.422408478 0.0749426962
0.244433198 0.422528946 0.0753035346
0.270637683 0.422684501 0.0757700844
0.2970073 0.422885286 0.0763733148
0.323506075 0.423144325 0.0771532679
0.35010562 0.423478306 0.0781617163
0.376783631 0.423908561 0.0794656002
0.403522649 0.424462259 0.0811514704
0.430309045 0.425173864 0.0833312338
0.457132199 0.426086841 0.0861495816
0.483983853 0.427255626 0.0897935937
0.51085759 0.428747766 0.094505157
0.537748432 0.430646103 0.100597022
0.564652518 0.433050724 0.108473562
0.591566857 0.43608026 0.118657616
0.618489131 0.439871933 0.131825195
0.645417544 0.444579619 0.148850353
0.672350709 0.45036913 0.170863209
0.699287549 0.457410187 0.197888904
0.726227232 0.465865046 0.22530039
0.753169115 0.475874671 0.252605785
0.7801127 0.487544422 0.27982969
0.8070576 0.500931957 0.306990904
0.834003519 0.51604011 0.334103831
0.860950225 0.532816532 0.36117953
0.88789754 0.551160188 0.388226506
0.914845326 0.570933068 0.41525131
0.0569522554 0.449115111 0.0837980251
0.0851132289 0.449177519 0.0840390945
0.113274202 0.44923989 0.084280164
0.141435176 0.449302223 0.0845212334
0.169596149 0.44936452 0.0847623028
0.196556641 0.449426808 0.0850034811
0.221459251 0.449498838 0.0852825604
0.24679777 0.449591897 0.0856433988
0.272484092 0.449712097 0.0861099486
0.298446063 0.449867306 0.086713179
0.32462534 0.450067645 0.0874931321
0.350975208 0.45032611 0.0885015805
0.377458556 0.450659353 0.0898054644
0.404046076 0.451088661 0.0914913346
0.43071473 0.451641146 0.093671098
0.457446479 0.4523512 0.0964894458
0.484227231 0.453262204 0.100133458
0.511046009 0.454428488 0.104845021
0.53789427 0.455917474 0.110936886
0.564765378 0.457811864 0.118813426
0.591654185 0.460211586 0.12899748
0.618556695 0.463235107 0.142165059
0.645469814 0.467019493 0.159190218
0.672391144 0.471718489 0.181202566
0.699318827 0.477497833 0.206341093
0.726251427 0.484527259 0.231868169
0.75318783 0.492969141 0.257704133
0.780127175 0.502964694 0.283784201
0.807068796 0.514619647 0.310056265
0.834012179 0.527992112 0.336478782
0.860956923 0.543085413 0.363018858
0.88790272 0.559847664 0.389650578
0.914849332 0.57817821 0.416353615
0.0626132243 0.476260778 0.0971670601
0.0907741978 0.476308958 0.0974081295
0.118935171 0.476357117 0.097649199
0.147096145 0.476405253 0.0978902684
0.175257118 0.476453367 0.0981313378
0.201327138 0.476501481 0.0983725161
0.225239473 0.476557129 0.0986515954
0.249778117 0.476629035 0.0990124338
0.274824235 0.476721933 0.0994789836
0.300277543 0.476841926 0.100082214
0.326055023 0.476996869 0.100862167
0.35208897 0.477196864 0.101870616
0.378324819 0.477454887 0.103174499
0.404718996 0.477787562 0.10486037
0.43123695 0.478216139 0.107040133
0.457851439 0.47876769 0.109858481
0.484541076 0.47947655 0.113502493
0.511289126 0.480386034 0.118214056
0.538082532 0.48155039 0.124305921
0.564911122 0.483036947 0.132182461
0.591766989 0.484928295 0.142366515
0.61864399 0.487324241 0.155534094
0.645537359 0.490343127 0.172559253
0.672443402 0.494121896 0.193762815
0.699359255 0.498814193 0.216347825
0.726282701 0.504585699 0.239792608
0.753212022 0.511606154 0.263948814
0.780145888 0.520038027 0.28868571
0.807083271 0.530022725 0.313891326
0.834023374 0.541666258 0.339471882
0.860965582 0.555027091 0.365350203
0.887909418 0.570108926 0.391463642
0.914854512 0.586860233 0.417761892
0.0699326329 0.503361721 0.114452693
0.0980936064 0.503398933 0.114693762
0.12625458 0.503436132 0.114934832
0.154415553 0.503473318 0.115175901
0.182564488 0.50351049 0.115416971
0.20719008 0.503547666 0.115658149
0.229933501 0.503590667 0.115937228
0.253510165 0.503646241 0.116298067
0.277774558 0.503718051 0.116764616
0.302599136 0.503810826 0.117367847
0.327875121 0.50393066 0.1181478
0.353511707 0.504085397 0.119156248
0.379434361 0.504285128 0.120460132
0.405582705 0.504542809 0.122146002
0.431908328 0.504875046 0.124325766
0.458372729 0.505303061 0.127144114
0.484945476 0.50585389 0.130788126
0.511602634 0.50656183 0.135499689
0.538325448 0.507470141 0.141591554
0.565099263 0.508633011 0.149468094
0.59191266 0.510117694 0.159652148
0.61875675 0.512006696 0.172819727
0.645624627 0.514399731 0.189491382
0.672510931 0.517415041 0.208049355
0.699411504 0.521189477 0.228014534
0.726323124 0.525876606 0.249224075
0.753243292 0.531642064 0.271508214
0.780170078 0.538655597 0.294701508
0.807101982 0.547079745 0.318650719
0.834037847 0.557056063 0.343219395
0.860976777 0.56869078 0.368289709
0.887918076 0.58204263 0.393762344
0.91486121 0.597115608 0.419555153
0.0793963384 0.530428177 0.136802332
0.107557312 0.530456926 0.137043401
0.135718285 0.530485668 0.137284471
0.163879259 0.530514402 0.13752554
0.191496711 0.530543127 0.13776661
0.214315087 0.530571858 0.138007788
0.235707035 0.530605094 0.138286867
0.258146713 0.530648052 0.138647705
0.281470182 0.530703568 0.139114255
0.305526651 0.530775305 0.139717486
0.330182567 0.530867984 0.140497439
0.3553231 0.530987695 0.141505887
0.380851774 0.531142273 0.142809771
0.406689005 0.5313418 0.144495641
0.432770071 0.531599218 0.146675405
0.459042919 0.531931117 0.149493753
0.48546605 0.532358697 0.153137765
0.512006604 0.53290897 0.157849328
0.538638696 0.533616199 0.163941193
0.565342023 0.534523606 0.171817733
0.592100708 0.535685329 0.181996724
0.618902365 0.537168566 0.194290317
0.645737354 0.539055758 0.208309259
0.67259818 0.541446546 0.224035883
0.699479021 0.544459096 0.24139897
0.726375365 0.548230188 0.26028242
0.753283711 0.552913327 0.280538217
0.780201346 0.558674117 0.30200086
0.80712617 0.565682305 0.324500687
0.834056558 0.574100489 0.347874401
0.86099125 0.584070335 0.371972204
0.887929271 0.595698242 0.396661698
0.914869869 0.609043153 0.421829228
0.0916325349 0.557468019 0.16569953
0.119793508 0.557490236 0.165940599
0.147954482 0.557512448 0.166181669
0.176115455 0.557534655 0.166422738
0.202021479 0.557556858 0.166663807
0.222863501 0.557579066 0.166904986
0.24272981 0.557604758 0.167184065
0.263852944 0.557637968 0.167544903
0.286063229 0.557680891 0.168011453
0.309194587 0.557736363 0.168614684
0.333092681 0.557808043 0.169394637
0.357619723 0.557900649 0.170403085
0.382656489 0.558020265 0.171706969
0.408102327 0.558174721 0.173392839
0.433873878 0.558374089 0.175572603
0.459903148 0.558631305 0.17839095
0.486135324 0.558962942 0.18202958
0.512526624 0.559390187 0.18659433
0.539042333 0.559940031 0.192216385
0.565655072 0.560646711 0.199065528
0.592343348 0.56155342 0.207305914
0.619090341 0.562714257 0.217082499
0.645882926 0.564196378 0.228506643
0.67271088 0.566082172 0.241643507
0.699566254 0.568471225 0.25650407
0.726442873 0.571481644 0.273043736
0.753335947 0.575250154 0.291167903
0.780241761 0.579930212 0.310743067
0.807157437 0.585687396 0.33161087
0.834080745 0.592691456 0.353602253
0.86100996 0.601105033 0.376549564
0.887943744 0.611069879 0.400295434
