Luts/Insta360/Insta360_ILog_to_VLog.cube
TITLE "Insta360 I-Log / Rec.2020 to Panasonic V-Log / V-Gamut"
LUT_3D_SIZE 5
0.0372361468 0.0372361468 0.0372361468
0.263900362 0.0449512931 0.0395480704
0.483126781 0.0917493056 0.0535715797
0.699177902 0.316338479 0.163102945
0.914831289 0.540684138 0.411295759
0.0408277175 0.256005036 0.0457180578
0.265517248 0.259712557 0.0480299813
0.483328106 0.279763799 0.0620534907
0.699203588 0.369786506 0.171584856
0.914834576 0.548588936 0.412235474
0.0626132243 0.476260778 0.0971670601
0.274824235 0.476721933 0.0994789836
0.484541076 0.47947655 0.113502493
0.699359255 0.498814193 0.216347825
0.914854512 0.586860233 0.417761892
0.22307795 0.692437952 0.327239342
0.328184863 0.692496781 0.327811186
0.49356125 0.692852915 0.331214584
0.700567222 0.695593677 0.354566672
0.915010098 0.714843618 0.453119325
0.459030287 0.908107388 0.550736178
0.476549212 0.908114917 0.550804242
0.54568033 0.908160571 0.551216161
0.709551948 0.908516472 0.554378994
0.916217427 0.91125547 0.576263297
0.0540178479 0.0666583778 0.268158708
0.271250198 0.074373524 0.26916104
0.484064178 0.121171537 0.275043857
0.699297865 0.324137735 0.312266517
0.914846647 0.541633473 0.438549269
0.0576094186 0.269491366 0.271790065
0.272758445 0.272758445 0.272758445
0.484263713 0.290653103 0.2784482
0.699323521 0.37454112 0.314665363
0.914849934 0.549469643 0.4392747
0.0793949253 0.478008653 0.291472174
0.28146964 0.478462204 0.292275503
0.485465972 0.481172075 0.297020697
0.699479011 0.500226158 0.328146318
0.914869867 0.587472476 0.443570598
0.233751882 0.692662123 0.380478718
0.332230685 0.692720826 0.380823313
0.494410239 0.693076201 0.382889614
0.700685608 0.69581121 0.397764246
0.91502543 0.715024708 0.472167833
0.460208426 0.908136096 0.558664634
0.477546987 0.908143622 0.558727745
0.546197684 0.908189264 0.559109747
0.70966062 0.908545068 0.56204647
0.916232584 0.911283329 0.582529053
0.155811155 0.231040484 0.486857396
0.307325456 0.23572236 0.486982507
0.489577375 0.26036216 0.487738218
0.700022603 0.361995806 0.493460556
0.914939758 0.547214738 0.529848222
0.159402726 0.327095655 0.487315672
0.308396993 0.328994505 0.487440238
0.489766702 0.339829395 0.48819267
0.700048083 0.399513882 0.493890928
0.914943041 0.5546589 0.530152619
0.181187753 0.488028723 0.490053348
0.314672056 0.488441032 0.490174707
0.490907844 0.490907844 0.490907844
0.700202503 0.508405966 0.496464276
0.914962957 0.591111497 0.531980317
0.282187979 0.694011708 0.509283742
0.353902812 0.694069661 0.509384781
0.499417738 0.694420503 0.509995581
0.701400852 0.697121127 0.514647688
0.915118382 0.716116505 0.545255336
0.46708434 0.908310059 0.597028279
0.48340392 0.908317573 0.597072061
0.549282286 0.908363139 0.597337242
0.710317391 0.908718354 0.599385697
0.916324473 0.911452154 0.614141653
0.40347362 0.464348081 0.702843348
0.431695151 0.464864567 0.702859315
0.524864849 0.467944075 0.702956115
0.705517229 0.489314352 0.703709114
0.915664174 0.582861796 0.709411535
0.403903386 0.480102674 0.702901916
0.432023691 0.480547279 0.702917874
0.525000124 0.483204481 0.703014619
0.705541409 0.501923666 0.7037672
0.915667435 0.588214718 0.709466548
0.406473156 0.544399729 0.70325647
0.433994774 0.544640814 0.703272374
0.525816944 0.546091417 0.703368794
0.705687955 0.556779868 0.704118846
0.915687214 0.615878396 0.709799626
0.424633638 0.70399468 0.705985256
0.44823441 0.704047373 0.706000751
0.531986902 0.704366427 0.706094696
0.706825574 0.706825574 0.706825574
0.915841569 0.724274195 0.712365386
0.509304485 0.90965897 0.725159313
0.520492434 0.909666388 0.72517222
0.570684065 0.909711372 0.725250477
0.715310366 0.910062058 0.725859707
0.91703942 0.912761503 0.73050016
0.622871701 0.682009367 0.918488429
0.62679579 0.682074343 0.918490473
0.647888142 0.682467613 0.918502867
0.740706343 0.685489564 0.918599622
0.921156432 0.706503054 0.919352275
0.622924861 0.684121951 0.918495926
0.626846998 0.684185632 0.918497969
0.647930024 0.684571079 0.918510363
0.740723632 0.68753387 0.918607111
0.921159526 0.708179166 0.91935971
0.623246738 0.696097682 0.918541388
0.627157079 0.696154494 0.91854343
0.64818371 0.696498442 0.918555818
0.740828438 0.699146754 0.918652524
0.921178296 0.71780928 0.919404799
0.625727357 0.76021168 0.918895793
0.629547947 0.760242513 0.918897828
0.650144304 0.760429349 0.918910174
0.741643452 0.761877298 0.919006554
0.921324785 0.772547286 0.919756304
0.643314584 0.919637211 0.921623444
0.646554389 0.919643956 0.921625427
0.664313725 0.919684859 0.921637457
0.747800207 0.920003784 0.921731364
0.922461954 0.922461954 0.922461954
