Luts/Insta360/Insta360_ILog_to_Leica_Classic.cube
TITLE "Insta360 I-Log to Leica Classic (via V-Log)"
LUT_3D_SIZE 33
0.00350536648 0.00163792017 0.00304467333
0.00446612196 0.0024244194 0.00390669354
0.00951287146 0.0064847093 0.00831344912
0.0184574291 0.0124611951 0.0138287589
0.0433805393 0.0245575625 0.0224853133
0.0764557399 0.0360511245 0.027739837
0.113345499 0.0455467881 0.0281548659
0.15514533 0.0534929969 0.0259299028
0.206166725 0.0582647399 0.0199551697
0.266608072 0.0550007484 0.00949152414
0.333545539 0.0394854986 0.000349088859
0.40251761 0.0147587913 0
0.470755019 0.000321624474 0
0.533035226 0 0
0.591497407 0 0
0.651308757 0 0
0.70513131 0 0
0.744896453 0 0
0.768935404 0 0.000770157963
0.781154675 0 0.00602142206
0.787476374 0 0.036418267
0.791664878 0 0.0676322888
0.794596119 0 0.0874447349
0.796593599 0 0.0976019595
0.79783383 0 0.102080299
0.798478104 0 0.103495898
0.798784364 0 0.104031375
0.798926764 0 0.104276032
0.798969931 0 0.104382613
0.798988307 0 0.104448895
0.798992987 0 0.104488284
0.799026846 0 0.104691145
0.799482564 0 0.10817515
0.00395565512 0.00202850346 0.00349590117
0.00470919659 0.00265616519 0.00416935245
0.00952308675 0.00651767278 0.00835290093
0.017934266 0.012180832 0.0136008413
0.042081863 0.024069844 0.0222036438
0.0748239036 0.0356497879 0.0277060635
0.111160974 0.0450663269 0.0282821384
0.151781141 0.05310042 0.0260747586
0.201244364 0.0584206529 0.0210453039
0.260142147 0.056773823 0.0101665256
0.325825333 0.0417571835 0.000767948422
0.393757283 0.0172027421 0
0.462272594 0.000802735264 0
0.528479829 2.97271764e-06 0
0.588232466 0 0
0.647127376 0 0
0.701434053 0 0
0.74348314 0 0
0.766888493 0 0.000768332372
0.780194383 0 0.00518194708
0.786882094 0 0.0309282462
0.791307703 0 0.0651867344
0.794386872 0 0.0864168387
0.79649026 0 0.097290278
0.797787672 0 0.102010311
0.798459434 0 0.10346715
0.798780001 0 0.104017432
0.798924164 0 0.104266075
0.798968894 0 0.104379598
0.798987652 0 0.104447613
0.798992299 0 0.104488285
0.799027287 0 0.104693317
0.799502549 0 0.108313702
0.00626651938 0.00408279339 0.00582270649
0.00677237244 0.00449691588 0.00626228021
0.00962924802 0.00676744308 0.00865169463
0.0157360162 0.0110261552 0.0126602116
0.0361846487 0.0218218663 0.0209113516
0.0669360252 0.0335006929 0.0272592914
0.102080436 0.043042714 0.0286596426
0.141124596 0.0513635949 0.0266920256
0.188438208 0.057580941 0.0223153703
0.245295661 0.0578815955 0.0128994921
0.309776612 0.0464276888 0.00197815299
0.378450911 0.0216194101 0
0.447542443 0.00201710295 0
0.513477485 0.000122790051 0
0.57479911 0 0
0.636500729 0 0
0.692794987 0 0
0.736371251 0 0
0.764254474 0 0.000553138868
0.77901505 0 0.00379161059
0.786170079 0 0.0255371731
0.790844543 0 0.0614279814
0.794096031 0 0.0844725103
0.796317864 0 0.0964369886
0.797703769 0 0.101726581
0.798427268 0 0.103415606
0.798772313 0 0.104002052
0.798920722 0 0.104261863
0.798966553 0 0.104377335
0.798986717 0 0.104446624
0.798991621 0 0.104488286
0.799027728 0 0.104695492
0.799522427 0 0.108451564
0.00943854924 0.00732776817 0.00912840483
0.00960131971 0.00742098231 0.00923711228
0.0110114137 0.00838344177 0.0102512296
0.0155167865 0.011550546 0.0132105896
0.0325589939 0.0207925737 0.0204489046
0.0627621748 0.0325791599 0.0272566587
0.0977174575 0.042181523 0.0289742801
0.135859193 0.0506925838 0.0270133307
0.181757279 0.057295333 0.0229696906
0.236862572 0.0585914801 0.0139344196
0.299284716 0.0497266306 0.0023322025
0.366598876 0.0261863573 1.62140389e-05
0.434723673 0.00431469777 0
0.500723173 0.000366796467 0
0.563330131 0 0
0.626490193 0 0
0.68684373 0 0
0.732540336 0 0
0.762289349 0 0.000277978523
0.778085399 0 0.0024101449
0.785556461 0 0.0200432379
0.790473546 0 0.0588208914
0.79385336 0 0.0830593337
0.796141802 0 0.0955216371
0.797619633 0 0.101430876
0.79839812 0 0.103367704
0.798764903 0 0.103987231
0.798917788 0 0.104259032
0.798964378 0 0.104375237
0.798985799 0 0.104445651
0.798990952 0 0.104488287
0.799028168 0 0.104697669
0.799542199 0 0.108588746
0.0155792751 0.0170203555 0.017124097
0.0155658415 0.0165398412 0.016844144
0.0157293392 0.0154300032 0.0161952115
0.0184928098 0.0172139134 0.0177954823
0.0304650157 0.0233844602 0.0225333242
0.0573406087 0.0324818488 0.0277276929
0.0929420235 0.0418353723 0.0296924662
0.131507737 0.0504589151 0.0280957561
0.177567761 0.057216445 0.0244530413
0.232492636 0.0591518423 0.0156064705
0.294293691 0.0517305821 0.00395382279
0.360436098 0.0321694664 0.000179876508
0.427362221 0.0091199608 2.95961771e-06
0.49235837 0.00124749648 0
0.552998811 0 0
0.615754126 0 0
0.676573081 0 0
0.727472016 0 0
0.761019381 0 0.000143286174
0.777501746 0 0.00196466808
0.785174674 0 0.0174168798
0.79015985 0 0.0565448364
0.793650731 0 0.0820085357
0.79603735 0 0.0951341714
0.797540223 0 0.101151713
0.798370252 0 0.103321927
0.798757753 0 0.103972929
0.798914936 0 0.104256279
0.798963224 0 0.104374157
0.798984895 0 0.104444692
0.798990292 0 0.104488288
0.799028607 0 0.104699848
0.799561866 0 0.108725257
0.0181339237 0.0370686459 0.0292838038
0.018618202 0.0359160484 0.0288077723
0.0192180234 0.0322917728 0.0269157687
0.0210256526 0.032296393 0.0272324581
0.0284908885 0.0349851644 0.0292672285
0.0495176863 0.0383013402 0.0310862465
0.0853348011 0.0451294578 0.0317738285
0.12595604 0.0525637197 0.0302716419
0.17294771 0.0585946808 0.026825297
0.228591393 0.0605711461 0.0187614063
0.291110322 0.0552364808 0.00704928115
0.357598021 0.0395301836 0.000970513353
0.424789381 0.0173160536 1.24881801e-05
0.489008557 0.00390505405 0
0.548522895 0.000243575283 0
0.606036933 1.70019275e-06 0
0.667607752 0 0
0.721959951 0 0
0.757654333 0 0.000109278971
0.776869032 0 0.00132824645
0.784907793 0 0.0151560862
0.789962861 0 0.054932918
0.793486643 0 0.0809508915
0.795944534 0 0.094809718
0.797494634 0 0.101031615
0.798343531 0 0.103278063
0.798750842 0 0.103960067
0.798912159 0 0.104253599
0.798962093 0 0.104373099
0.798984007 0 0.104443747
0.79898964 0 0.104488288
0.799029046 0 0.10470203
0.799581439 0 0.108861168
0.0100164975 0.0673282053 0.0416525188
0.0103794746 0.0659873769 0.0413504872
0.0126360714 0.0600953566 0.0393613962
0.0139140981 0.0580497081 0.0387704212
0.017965157 0.0577938533 0.0389103186
0.0368367783 0.0570646766 0.0384348401
0.0735126631 0.0594070521 0.0371886049
0.117761378 0.0632462926 0.03496339
0.167229282 0.0663200528 0.0302247058
0.224246231 0.0672318692 0.0214549836
0.287857694 0.063063574 0.00902875848
0.355293219 0.0507151169 0.00118341216
0.424423916 0.0299649072 9.81689559e-06
0.489550764 0.00884079556 0
0.548555701 0.00194910953 0
0.605440641 1.57442275e-05 0
0.66014124 0 0
0.713922806 0 0
0.754724307 0 3.09393725e-05
0.775202926 0 0.00114789487
0.784362429 0 0.0133329014
0.78978778 0 0.0535294748
0.793353511 0 0.079922202
0.795861364 0 0.0943798378
0.797457952 0 0.100968018
0.798313936 0 0.103229514
0.798743127 0 0.103946242
0.798909036 0 0.104250585
0.798960814 0 0.104371903
0.798983016 0 0.104442961
0.798988895 0 0.104488289
0.799029553 0 0.104704557
0.799603961 0 0.109017626
0.000954352069 0.0991998614 0.048687134
0.00096380468 0.0974254915 0.0485284841
0.00227890881 0.0906147264 0.04729663
0.00306105125 0.0874623804 0.0467015658
0.00484755409 0.0859540541 0.046409037
0.0189248896 0.0847234465 0.0457231922
0.0569072484 0.0856463573 0.044086919
0.105842649 0.087172237 0.0412746324
0.159196561 0.0878741044 0.036282557
0.218507991 0.0865626934 0.0272631508
0.283628289 0.0826514103 0.0132332793
0.352417493 0.0739892504 0.00277416444
0.423238685 0.0578907394 7.16131135e-06
0.491439684 0.0271937086 0
0.552518236 0.0075563684 0
0.608758726 0.00133214678 0
0.662761276 0 0
0.71074546 0 0
0.750737481 0 2.96972736e-05
0.773506845 0 0.000845091935
0.783534236 0 0.0119516975
0.789415993 0 0.0520467707
0.793246804 0 0.0792560727
0.795770087 0 0.0938067761
0.797417232 0 0.100843858
0.798301063 0 0.103208227
0.798733565 0 0.103929095
0.798905133 0 0.104247158
0.798959204 0 0.104370397
0.798981817 0 0.104442795
0.798987949 0 0.104488291
0.799030208 0 0.104707827
0.799632884 0 0.109218649
0 0.135851286 0.0513955007
0 0.133459071 0.0515924772
0 0.125013501 0.0510918847
0 0.120728819 0.0507918446
0 0.118478817 0.0506126264
0.0055856028 0.117651436 0.05039382
0.0357876399 0.118871465 0.0491501452
0.0871360869 0.120177647 0.0462113705
0.145799895 0.120338578 0.0407011123
0.208998031 0.119229939 0.0318925273
0.276480454 0.11590556 0.0183088506
0.347298457 0.109763149 0.004392894
0.419769492 0.097592212 7.43940801e-06
0.490973755 0.0706941374 0
0.557698666 0.0317142334 0
0.617050082 0.00933124082 0
0.670668444 0.00149041379 0
0.71688986 0 6.65429221e-06
0.751417898 0 0.000274225728
0.773925245 0 0.00156465546
0.782791078 0 0.010680206
0.788960507 0 0.0485622074
0.793048167 0 0.0774515556
0.795706408 0 0.0935280305
0.797370392 0 0.100678904
0.79828552 0 0.103182601
0.798723811 0 0.103914101
0.798900296 0 0.104244482
0.798957191 0 0.104368515
0.798980309 0 0.104442582
0.798986752 0 0.104488292
0.799031053 0 0.104712061
0.799669956 0 0.109476487
0 0.181064637 0.04777431
0 0.178279551 0.0484189677
0 0.1676242 0.0498322815
0 0.160989055 0.0503288202
0 0.157583382 0.0505369729
0.000171028389 0.156236651 0.0506164851
0.0163605489 0.157483799 0.049758585
0.0600569179 0.159398983 0.0468238512
0.123483182 0.160394668 0.040368604
0.192712438 0.16007225 0.0302728129
0.264987984 0.158388389 0.0189103781
0.339020749 0.154155077 0.00424596186
0.413775245 0.145137787 0
0.487835526 0.125169427 0
0.558529912 0.0927036243 0
0.625339277 0.0471495863 0
0.681853323 0.0176367265 0
0.728022044 0.00410457879 1.71319631e-05
0.760072421 0.000181313491 0.00100816925
0.779596607 0.001185145 0.0091648522
0.788455549 0.000640498807 0.035467953
0.789422294 9.21576033e-05 0.048279087
0.793082159 0 0.0756687795
0.795807777 0 0.0934481029
0.797329769 0 0.100561106
0.798266818 0 0.103155635
0.798728782 0 0.103913028
0.79889436 0 0.10424118
0.798954697 0 0.104366866
0.798978423 0 0.104442308
0.798986248 0 0.104487291
0.799032143 0 0.104717543
0.799717362 0 0.109806484
0 0.233065068 0.0292595515
0 0.229721122 0.0309676827
0 0.218860404 0.0362697172
0 0.209317162 0.0403380332
0 0.203990949 0.0419660583
0 0.201663969 0.0426052747
0.0033214344 0.201964124 0.0422719887
0.0312656147 0.203996884 0.0394831268
0.0899601386 0.206101695 0.0320462725
0.167153594 0.207188719 0.0205133287
0.246650565 0.206866297 0.00895323058
0.326664954 0.204528589 0.00179964671
0.404952432 0.197954307 0
0.481922464 0.184708519 0
0.556341121 0.161424906 0
0.627082549 0.126833664 0
0.692924553 0.0797622699 0
0.744379172 0.0379733865 0.00035509051
0.779451113 0.0144853291 0.00503154896
0.794368405 0.00481649912 0.0229557768
0.798739717 0.0113748147 0.0596256998
0.798117946 0.00524323826 0.073887526
0.795030133 0.0011072938 0.080018331
0.796412808 0 0.0938362468
0.797818405 0 0.101097157
0.798248822 0 0.103134352
0.798737211 0 0.103912309
0.798951888 0 0.10429471
0.798951635 0 0.104366437
0.798976085 0 0.104441955
0.798986249 0 0.104485408
0.799033547 0 0.104724642
0.799777808 0 0.110227705
0 0.289144019 0.00813921367
0 0.286256216 0.00917419186
0 0.276619436 0.0127876646
0 0.265330357 0.0167089815
0 0.257406926 0.0191007008
0 0.253420395 0.0203193825
0 0.252171263 0.0207101611
0.00716074642 0.253920035 0.0186032674
0.0496078398 0.257286323 0.0132503574
0.126469034 0.260162306 0.00625583108
0.218314996 0.261296825 0.00108735109
0.30696511 0.260266196 3.81271864e-05
0.392034527 0.256483443 4.72547729e-07
0.473006953 0.246905098 2.20369517e-06
0.551199026 0.231617984 5.35218965e-05
0.625605177 0.208690434 2.88971655e-05
0.695040924 0.175615148 0
0.757728604 0.133041949 0.000328693126
0.800607205 0.086081094 0.00689467462
0.820447024 0.0754800173 0.0310382343
0.819124747 0.0560283214 0.0811748606
0.812202045 0.0274940917 0.0979120424
0.807230093 0.0174614289 0.0983691691
0.800264173 0.00464230294 0.0973432012
0.799075096 0 0.102455739
0.799656265 0.000916851189 0.104205886
0.79874954 0 0.103913774
0.799045791 0 0.10438343
0.79905439 0 0.104463745
0.798975106 0 0.104439486
0.79898625 0 0.104483075
0.799062075 0 0.104902973
0.799854605 0 0.110763608
0 0.345737714 0.00125402202
0 0.343641543 0.00126540049
0 0.336212958 0.00224793208
0 0.325426088 0.00374697787
0 0.315143913 0.00485998093
0 0.308665792 0.00541119976
0 0.306244514 0.00553816371
0 0.30679518 0.0050567398
0.0142080263 0.311082207 0.00351094699
0.07699441 0.316360943 0.0016103175
0.172925983 0.32000711 0.000166326702
0.274977639 0.320912852 0
0.370099049 0.319167251 8.30856361e-07
0.458847572 0.313311226 3.84900494e-05
0.542242876 0.302697469 0.000429292314
0.620531162 0.286968846 0.000315631626
0.693416625 0.265173808 9.58072925e-05
0.75941623 0.236684676 0.000221132237
0.816111478 0.20172292 0.00186602344
0.845832886 0.170296296 0.0250345486
0.847176206 0.148568796 0.0680578245
0.838857612 0.116526756 0.0939692198
0.826707682 0.0673419556 0.10469349
0.816938617 0.0395774391 0.106921022
0.806597335 0.0143183054 0.105468056
0.802955344 0.00307817725 0.106730071
0.802192671 0.00656384452 0.105476621
0.799157061 0 0.104488419
0.799373682 0 0.104765038
0.799224296 0 0.104675484
0.798986252 0 0.104481176
0.799135691 0 0.105366138
0.79995176 0 0.111442719
0 0.401019988 0
0 0.399133915 0
0 0.394478477 1.11408363e-05
0 0.386023815 0.00023181109
0 0.375035326 0.000503078698
0 0.36590148 0.000644646759
0 0.361542198 0.000686059636
0 0.361324465 0.000620882576
0.00076402205 0.365060459 0.000456165818
0.0273464545 0.372231722 0
0.111666594 0.378941458 0
0.224420339 0.382705136 0
0.337553804 0.383233272 6.14576783e-07
0.436474919 0.380427995 1.87942422e-05
0.527895091 0.374147603 0.000249043944
0.611192483 0.362954471 0.000252784296
0.687870472 0.347515479 7.81526622e-05
0.757137023 0.327137972 0
0.817148902 0.302382217 0.00110297469
0.86470285 0.274023949 0.00575487338
0.874924127 0.252279334 0.0414884357
0.870396444 0.219194878 0.0674821097
0.859972703 0.183527784 0.0898820714
0.84434681 0.124298514 0.102664001
0.829101462 0.0754410654 0.108617681
0.815343918 0.0347796374 0.10812946
0.80988708 0.0214194749 0.108929816
0.805577579 0.0162084482 0.105531117
0.799750705 0 0.105120743
0.79990495 0.000281320206 0.105261241
0.799676067 0.000338234642 0.105062502
0.799218168 0 0.105884991
0.800171448 4.81423431e-05 0.113600314
0 0.454200439 0
0 0.45236092 0
0 0.448718748 0
0 0.444542335 0
0 0.435204348 0
0 0.424277163 0
0 0.416911226 0
0 0.414933025 0
0.000166241576 0.418467183 0
0.00278214159 0.426040167 0
0.0477582786 0.435984237 0
0.155994637 0.443522367 0
0.288118982 0.447098303 0
0.403573948 0.447016823 5.03443978e-06
0.504873805 0.443258631 5.45915532e-05
0.595975701 0.436511382 0.000113319885
0.67751198 0.425317087 4.50198439e-05
0.750372868 0.410372354 0
0.814531757 0.390958657 0.000187213483
0.868542873 0.367408919 0.00237851309
0.898946743 0.344187429 0.0125286701
0.901284059 0.319754681 0.0343448167
0.894301089 0.288918354 0.0556511035
0.882989187 0.251694591 0.0755226385
0.865305537 0.191175237 0.0917207332
0.847153673 0.136318252 0.102450332
0.827969252 0.0711083242 0.106961397
0.820937123 0.0564962256 0.107382797
0.807904897 0.0214216762 0.105768963
0.800928291 0.000783219309 0.106138843
0.801270826 0.00274571946 0.105907536
0.803142163 0.0091181269 0.106995225
0.800601321 0.000164710911 0.118646703
0 0.504672964 0
0 0.50300272 0
0 0.499463973 0
0 0.49666626 0
0 0.493418338 0
0 0.482775237 0
0 0.472607257 0
0 0.466984624 0
0 0.469196412 0
0.000709536424 0.476874041 0
0.0097883673 0.488098386 0
0.0811201989 0.500458354 0
0.21815467 0.508506396 0
0.356634381 0.511812408 0
0.472923499 0.510989293 0
0.573900419 0.507029098 0
0.663054201 0.499991704 0
0.740369591 0.488970783 0
0.80770885 0.474222173 0
0.86615695 0.454777353 0.000327284754
0.907697687 0.432312382 0.00290666811
0.926088894 0.410025102 0.00532697742
0.925605953 0.384780898 0.0177554791
0.918191425 0.354785958 0.0357171999
0.906555118 0.317856118 0.0556979402
0.888421988 0.262830516 0.0763244577
0.869547863 0.203570551 0.0884112035
0.844352355 0.122902012 0.102850817
0.834422806 0.0989667864 0.101901254
0.813617506 0.0366522451 0.105444922
0.807093669 0.0162455351 0.107719638
0.808002188 0.020079211 0.109831952
0.812857036 0.0348243199 0.121321908
0 0.552094353 0.000455642066
0 0.550881218 0.000439222644
0 0.547196986 0.000291444933
0 0.544752606 0.000220235049
0 0.54284565 0.000174649595
0 0.538832102 0.000141571427
0 0.528728985 0.000107611644
0 0.518728319 0.000101306097
0 0.517190466 2.22604167e-05
3.73781152e-05 0.523338796 0
0.00353127368 0.53404295 0
0.0266049684 0.549499072 0
0.134226629 0.563985206 0
0.290293994 0.572464422 0
0.428737982 0.575647034 0
0.543852359 0.5747928 0
0.642588631 0.570759999 0
0.72746013 0.564053909 0
0.798833708 0.552913629 0
0.860518753 0.537732231 0
0.90887263 0.518309399 7.03015751e-05
0.936449999 0.497300189 0.000802519481
0.947693112 0.475087651 0.00165340839
0.946405143 0.449447864 0.00860623763
0.940592804 0.42014966 0.0198495285
0.930006566 0.383964794 0.0367872901
0.912887583 0.335756306 0.059770879
0.893596816 0.272365804 0.0719549945
0.867936686 0.198909894 0.0918683843
0.851619687 0.150138258 0.0937759943
0.829204657 0.0809680728 0.103449365
0.822788105 0.0608369783 0.111527705
0.827967115 0.0774708008 0.124366427
0 0.59479849 0.00535158476
0 0.594063653 0.00477885878
0 0.590107189 0.00412327966
0 0.587914284 0.00364305685
0 0.586321052 0.00325598227
0 0.584827311 0.00298970971
0 0.580552523 0.00273210565
0 0.570727693 0.00214264717
0 0.562711429 0.00191674739
0 0.565018857 0.00052769222
0.000486171701 0.573692032 3.8385879e-05
0.0118349456 0.587655649 0
0.062959426 0.60807356 0
0.209705154 0.624493985 0
0.370608284 0.633276239 0
0.503205977 0.63716213 0
0.614435118 0.636803268 0
0.708212872 0.633267693 0
0.787235516 0.626860752 0
0.852888006 0.615184521 0
0.90556976 0.599701681 0
0.940932944 0.581706242 0
0.959782639 0.561924756 0.000145898231
0.966456222 0.539618591 0.000420784662
0.965293459 0.514853698 0.00421852914
0.959827849 0.485217474 0.0133966429
0.952146462 0.451172473 0.0245788785
0.93781987 0.409164129 0.0416886121
0.917941654 0.347492644 0.0569636394
0.898266118 0.289490184 0.0731431062
0.876481759 0.222507911 0.085206336
0.857505518 0.164486641 0.106305745
0.8524031 0.148436508 0.127731054
0 0.627151367 0.0332088662
0 0.625897515 0.0311509149
0 0.623421384 0.0272123059
0 0.621593709 0.0242497649
0 0.62035592 0.0223275054
0 0.619596287 0.0211081378
0 0.618260995 0.0200112226
0 0.613847465 0.0180792649
0 0.604983855 0.0147043116
0 0.601655843 0.00646796274
0 0.606942057 0.00191102377
0.00520440937 0.618952336 0.000189598277
0.0377843568 0.63646636 0
0.14230314 0.659259745 0
0.313562271 0.676266738 0
0.456420901 0.6882302 0
0.578179519 0.694526465 0
0.681693757 0.695812351 0
0.768626266 0.692874226 0
0.841786972 0.685699134 0
0.899056384 0.674362293 0
0.941010161 0.660226545 0
0.966550081 0.64368149 0
0.979250197 0.625233171 3.30414597e-05
0.982799422 0.603012978 0.000127386661
0.981676456 0.579485849 0.00238086946
0.976866779 0.550422317 0.00938362602
0.971361396 0.519462049 0.0156339828
0.960997074 0.482517092 0.0257564646
0.944097775 0.431412636 0.0421594697
0.931503593 0.388718852 0.0572905564
0.911495025 0.32690241 0.0848327147
0.897124081 0.287146255 0.131229394
0 0.655050548 0.104427177
0 0.654184979 0.101916717
0 0.651615725 0.095001157
0 0.649794397 0.0901048665
0 0.648570196 0.0868276782
0 0.647824761 0.0848503898
0 0.647198776 0.0829437688
0 0.645941788 0.0800642972
0 0.641903093 0.0730489921
0 0.635399628 0.0537875452
0 0.633960494 0.0306115786
0.00236357826 0.64111845 0.0120895659
0.0293812225 0.655322989 0.000974446391
0.116066438 0.67581802 0
0.283345071 0.699281951 0
0.425632464 0.718592439 0
0.548165286 0.734551221 0
0.65451113 0.744570029 0
0.746761068 0.748525731 0
0.825856893 0.746958352 0
0.889273694 0.74090044 0
0.936516975 0.730850174 0
0.967868063 0.717252861 0
0.985871096 0.702394835 0
0.993632985 0.68595922 1.88975247e-05
0.994701951 0.665178497 9.27056541e-05
0.99320461 0.643204921 0.00131885849
0.989104566 0.616896301 0.00511698223
0.986903926 0.590548299 0.00638873874
0.980953519 0.558897554 0.0176380934
0.969101459 0.520208955 0.0349248372
0.961290188 0.490015026 0.0617588809
0.949739959 0.451855903 0.11210432
0 0.675866699 0.163243952
0 0.674980787 0.160674078
0 0.673036953 0.15500969
0 0.671630783 0.150875604
0 0.670656266 0.148032161
0 0.670019872 0.146167932
0 0.669501439 0.144618682
0 0.669121464 0.143483685
0 0.667964015 0.140345745
0 0.66435065 0.129443199
0 0.65920357 0.104713273
0.000401158155 0.659946925 0.0613162231
0.0212138447 0.669427488 0.0337143407
0.0943249293 0.686161226 0.0199799334
0.255436457 0.708673734 0.0053841198
0.404724201 0.731797171 0.000134126772
0.527115689 0.752898411 2.87126509e-05
0.635680712 0.770608738 0
0.731080765 0.78287116 0
0.813067261 0.789562865 0
0.879006867 0.791125872 0
0.930154708 0.789203001 0
0.965432013 0.781185066 0
0.986953562 0.770516355 0
0.997108798 0.758037109 0
0.999982669 0.743152259 2.53247455e-06
0.999976041 0.724733655 3.85153047e-05
0.999024457 0.704960732 0.00146055107
0.996808663 0.681749638 0.00107802892
0.995451806 0.659723838 0.00899657453
0.99189679 0.634025597 0.032818907
0.987600817 0.60751791 0.0614359355
0.983326352 0.589575755 0.122726969
0 0.693987575 0.219008286
0 0.693211559 0.216746211
0 0.691617091 0.211140031
0 0.690453057 0.206938897
0 0.689648232 0.204288957
0 0.689062836 0.20231278
0 0.688612501 0.200887393
0 0.688219467 0.199662498
0 0.687946714 0.198777672
0 0.686791152 0.195616152
0 0.683503256 0.182072908
4.41247951e-05 0.679309134 0.153545265
0.00914474472 0.681924848 0.107467067
0.0679926807 0.693563325 0.0757705942
0.210242162 0.712550718 0.0429335845
0.372828175 0.736172738 0.0151707925
0.506857969 0.757926256 0.00248670033
0.621068377 0.77842378 0.000576655789
0.721144818 0.796081517 0
0.806106621 0.809728365 0
0.873272073 0.819387379 0
0.92421225 0.827482422 0
0.963451293 0.830051443 0
0.986972742 0.824737316 0
0.997885317 0.817056559 0
0.999985 0.80676536 1.15618436e-05
0.999983706 0.793893112 0.00101382104
0.999985 0.777973311 0.00361279908
0.99997948 0.762070204 0.00997667663
0.99954117 0.74304422 0.0182745242
0.999027231 0.725144824 0.0501971494
0.997239109 0.705479506 0.0900767005
0.997191843 0.692010988 0.152662898
0 0.710257175 0.278687457
0 0.709532307 0.27592848
0 0.70830842 0.270240671
0 0.707432951 0.266414171
0 0.706783267 0.263728968
0 0.706291916 0.261710332
0 0.70589877 0.260224769
0 0.705537121 0.258912503
0 0.705255925 0.257903747
0 0.705003238 0.256957438
0 0.703709842 0.253025144
0 0.700540149 0.237333753
0.00132461849 0.696534732 0.205822319
0.0325430129 0.701101394 0.161621034
0.144789476 0.715238063 0.116159617
0.311662754 0.736969213 0.0727731577
0.465020338 0.75963227 0.0392875566
0.595219518 0.779749588 0.0141610399
0.70700773 0.79875043 0.00392292897
0.798854538 0.815874383 0
0.869346809 0.830455409 0
0.921938058 0.844009074 0
0.96221202 0.854377776 0
0.98665345 0.859746829 0
0.997800131 0.857809418 0.000158850039
0.999985 0.853348707 0.00100530761
0.999985 0.84600351 0.00234660165
0.999985 0.835901255 0.0077287022
0.999985 0.82497783 0.0239496855
0.999984945 0.814775275 0.0402588361
0.9999663 0.798383025 0.0787953833
0.999907894 0.786012775 0.128159629
0.99951866 0.772739895 0.185488356
0 0.72261831 0.338052802
0 0.722061141 0.334708126
0 0.721335803 0.329982281
0 0.720716772 0.326692293
0 0.720330677 0.324077624
0 0.719941512 0.322348634
0 0.719645127 0.320816441
0 0.719398882 0.319565056
0 0.71913735 0.318358085
0 0.718932818 0.317346402
0 0.718724716 0.316364996
0 0.717309505 0.311169985
4.02005929e-06 0.714150847 0.292107616
0.00852305655 0.71207753 0.257322431
0.0684945162 0.719720477 0.213359307
0.213754415 0.737713686 0.169647652
0.384262168 0.761020696 0.132105729
0.53798149 0.782864751 0.0898116497
0.670710467 0.802359989 0.0483645045
0.778806758 0.819685983 0.023194259
0.856913033 0.834944053 0.0184844459
0.916402836 0.849659641 0.0122838342
0.959845531 0.862897897 0.0107874239
0.986712666 0.873284943 0.00977554916
