Luts/Insta360/Insta360_ILog_to_Leica_Classic.cube
TITLE "Insta360 I-Log to Leica Classic (via V-Log)"
LUT_3D_SIZE 9
0.00350536648 0.00163792017 0.00304467333
0.0433805393 0.0245575625 0.0224853133
0.206166725 0.0582647399 0.0199551697
0.470755019 0.000321624474 0
0.70513131 0 0
0.787476374 0 0.036418267
0.79783383 0 0.102080299
0.798969931 0 0.104382613
0.799482564 0 0.10817515
0.0155792751 0.0170203555 0.017124097
0.0304650157 0.0233844602 0.0225333242
0.177567761 0.057216445 0.0244530413
0.427362221 0.0091199608 2.95961771e-06
0.676573081 0 0
0.785174674 0 0.0174168798
0.797540223 0 0.101151713
0.798963224 0 0.104374157
0.799561866 0 0.108725257
0 0.135851286 0.0513955007
0 0.118478817 0.0506126264
0.145799895 0.120338578 0.0407011123
0.419769492 0.097592212 7.43940801e-06
0.670668444 0.00149041379 0
0.782791078 0 0.010680206
0.797370392 0 0.100678904
0.798957191 0 0.104368515
0.799669956 0 0.109476487
0 0.345737714 0.00125402202
0 0.315143913 0.00485998093
0.0142080263 0.311082207 0.00351094699
0.370099049 0.319167251 8.30856361e-07
0.693416625 0.265173808 9.58072925e-05
0.847176206 0.148568796 0.0680578245
0.806597335 0.0143183054 0.105468056
0.799373682 0 0.104765038
0.79995176 0 0.111442719
0 0.552094353 0.000455642066
0 0.54284565 0.000174649595
0 0.517190466 2.22604167e-05
0.134226629 0.563985206 0
0.642588631 0.570759999 0
0.90887263 0.518309399 7.03015751e-05
0.940592804 0.42014966 0.0198495285
0.867936686 0.198909894 0.0918683843
0.827967115 0.0774708008 0.124366427
0 0.675866699 0.163243952
0 0.670656266 0.148032161
0 0.667964015 0.140345745
0.0212138447 0.669427488 0.0337143407
0.527115689 0.752898411 2.87126509e-05
0.879006867 0.791125872 0
0.997108798 0.758037109 0
0.996808663 0.681749638 0.00107802892
0.983326352 0.589575755 0.122726969
0 0.730244532 0.391102539
0 0.728576314 0.37808507
0 0.727892149 0.373042528
0 0.726409445 0.364777051
0.262991045 0.763296748 0.255656336
0.825624543 0.843528572 0.0957204023
0.996989718 0.887433877 0.0549351771
0.999985 0.89087079 0.10783309
0.999992497 0.881057975 0.257622534
0 0.752233886 0.589453435
0 0.751938558 0.58168729
0 0.75182052 0.578767963
0 0.751726616 0.576335717
0.000723664761 0.75712093 0.563667643
0.574790138 0.875253301 0.569029781
0.947885467 0.931254253 0.510477599
1 0.939520227 0.479640574
1 0.947901978 0.534146334
0 0.75933773 0.703996895
0 0.759260367 0.703134126
0 0.759220991 0.70259101
0 0.759158134 0.701696715
0 0.759109977 0.700865734
0.12256476 0.820089208 0.71967812
0.857881976 0.954710025 0.785752128
0.994789844 0.974223212 0.771465883
1 0.977294062 0.769379609
0.00960965484 0.00680071651 0.015219596
0.0393001544 0.0232344593 0.0253112566
0.190325822 0.0571829582 0.0272923818
0.446435183 0.00454446464 0.00160733343
0.687713477 0 0.000211140501
0.785304018 0 0.033063957
0.797387877 0 0.101064974
0.798980083 0 0.104770217
0.801248465 0 0.130632158
0.0186816583 0.0218638222 0.025138702
0.0279211743 0.0232888053 0.0251354691
0.161325948 0.0550040417 0.0299345667
0.399940616 0.0217665866 0.000464788081
0.650599262 0 5.64347614e-05
0.782564959 0 0.0174215375
0.796835798 0 0.0990778523
0.798973302 0 0.104810409
0.801380094 0 0.132921617
0 0.134036985 0.0534657692
0 0.114037235 0.0514785373
0.128836606 0.113439366 0.0444985849
0.388090447 0.094831153 0.00216618782
0.640810274 0.00226343117 0
0.778877948 0 0.0121180825
0.796648318 0 0.0991216267
0.798975047 0 0.104920481
0.801560003 0 0.1360398
0 0.337335413 0.0108083423
0 0.304419016 0.0096474441
0.010272442 0.294165418 0.00628547963
0.341600662 0.298946663 0.000235166839
0.659611672 0.245077623 0.00130334716
0.834908655 0.115797539 0.0569739883
0.804982301 0.0122344685 0.104819743
0.799477316 0 0.106668468
0.801965023 0 0.140718543
0 0.548456285 0.0184458069
0 0.538104187 0.0124620928
0 0.507309353 0.00163567201
0.109046089 0.548572838 0
0.623519981 0.55532299 0.000220501951
0.896630832 0.501063204 0.000290011662
0.932307859 0.396555496 0.0294747393
0.861681959 0.180157301 0.102953019
0.828132404 0.0743452926 0.161550631
0 0.680011973 0.196277497
0 0.674347849 0.182173757
0 0.671372856 0.1745121
0.0112858712 0.668418511 0.0668694082
0.503744272 0.75109024 0.00220234982
0.86947779 0.784445388 5.84079972e-06
0.995282087 0.749780842 0.00178008458
0.996196083 0.67365352 0.0397217979
0.982400152 0.58707612 0.181219187
0 0.731534281 0.403417116
0 0.729856049 0.391018501
0 0.72918169 0.386256609
0 0.727743483 0.377886584
0.244118586 0.76573995 0.28237498
0.814619975 0.848133845 0.131421121
0.993899425 0.889672055 0.0830417313
0.999985 0.89020722 0.151506891
0.999996514 0.882066257 0.293114929
0 0.752391218 0.595527524
0 0.752114629 0.588534254
0 0.75198705 0.58548659
0 0.751890908 0.583090522
0.000330292293 0.757424534 0.569507373
0.56738883 0.875333632 0.574331382
0.94561531 0.932107983 0.518748755
1 0.941272566 0.494082605
1 0.949408805 0.546980455
0 0.759461942 0.706362619
0 0.759386113 0.705469034
0 0.75935036 0.704960816
0 0.759290586 0.704077924
0 0.759249441 0.70328361
0.12233886 0.820455599 0.722327112
0.857389702 0.954957996 0.78848902
0.99449355 0.974520344 0.774619011
1 0.97760246 0.772707353
0.0277411415 0.0148534388 0.130950906
0.0391189074 0.016046523 0.120651015
0.172514003 0.0478248431 0.118954087
0.42272 0.00746218061 0.115865022
0.681491798 0 0.120649119
0.788238425 0 0.144987697
0.800481947 0 0.143255481
0.801410364 0 0.131730199
0.803859412 0 0.166675557
0.0184746801 0.0303853539 0.130043897
0.0283835944 0.0258984155 0.112007087
0.146099302 0.0480238651 0.106553059
0.379530689 0.0268237194 0.0948746174
0.632912377 0 0.095933629
0.785149275 0 0.13356786
0.799546519 0 0.1379342
0.801523987 0 0.133547245
0.803994722 0 0.169308821
0 0.134155475 0.133688633
0.000107411928 0.112116274 0.11089996
0.110573552 0.108714642 0.105640177
0.365860392 0.09467346 0.096729493
0.62670929 0.00475100468 0.0890197431
0.779495397 0 0.113748489
0.799324572 0 0.139440472
0.8016916 0 0.136376466
0.804179835 0 0.172907168
0 0.335806164 0.137765745
0 0.298342562 0.110799084
0.00566426913 0.284804805 0.0866352248
0.316883255 0.288605286 0.0771334973
0.6373134 0.240689197 0.0871199458
0.82881028 0.0991333762 0.112999516
0.80706637 0.0109476275 0.140961403
0.802462516 1.13609602e-05 0.143536805
0.804666159 0 0.18233839
0 0.548929259 0.148652512
0 0.537515466 0.139434765
0 0.501543369 0.0869263635
0.0781866607 0.536094492 0.024882932
0.603486378 0.542237456 0.0235585326
0.884804246 0.48669713 0.0664962542
0.927487559 0.383283287 0.0877280927
0.861044938 0.173344351 0.146585284
0.830984629 0.0753976693 0.206451273
0 0.688236308 0.262731703
0 0.682097819 0.24769894
0 0.678918187 0.239908319
0.00311013219 0.671108588 0.144637834
0.472008958 0.753996871 0.02603661
0.859421222 0.77959641 0.00469052511
0.992968448 0.741373907 0.0671705941
0.995427834 0.667106131 0.127473411
0.982145963 0.586297496 0.245319391
0 0.735424339 0.434532281
0 0.733421078 0.421734901
0 0.7325563 0.416230843
0 0.731127975 0.407485876
0.214256085 0.772011608 0.333648897
0.798935358 0.857037692 0.20311843
0.992048158 0.893572239 0.152592906
0.999991588 0.89278362 0.213380655
1 0.882235972 0.337596494
0 0.752632985 0.606060577
0 0.752371305 0.599750812
0 0.752242221 0.596763877
0 0.752152531 0.594626045
0.000298781086 0.757845549 0.580900595
0.560804309 0.876870176 0.587910568
0.942458473 0.934766755 0.540111829
1 0.943544387 0.512587072
1 0.951304235 0.563126513
0 0.759624947 0.709654385
0 0.759555127 0.708608866
0 0.759524417 0.708149237
0 0.759469588 0.707288692
0 0.759437139 0.706537753
0.122895031 0.820797541 0.725793576
0.85673292 0.955293165 0.792177166
0.994203979 0.974889056 0.778931179
1 0.978020805 0.777221414
0 0.0457793049 0.302076015
0.0100087417 0.0300345689 0.296350888
0.147479015 0.0199716816 0.300370461
0.38891355 1.30342963e-06 0.290857842
0.643125148 0 0.288143872
0.792894504 0 0.314379037
0.8058358 0 0.2951495
0.807736987 0 0.263333658
0.809720267 0 0.280814711
0 0.0558159767 0.305746802
0.000319208453 0.0469713688 0.285287157
0.115697356 0.04060338 0.286160883
0.364022287 0.0211698336 0.275041593
0.609590629 0 0.258083157
0.785547483 0 0.281175518
0.80452278 0 0.280927847
0.80764339 0 0.262490035
0.809807592 0 0.282572798
0 0.131651557 0.321615143
0 0.109742788 0.290297035
0.052341747 0.104670166 0.283806729
0.346076105 0.0952922025 0.275522055
0.615834587 0.0119127526 0.256878058
0.781001449 0 0.250952334
0.804068098 0 0.278806557
0.807587835 0 0.26240746
0.809926906 0 0.284976168
0 0.334681306 0.344923725
0 0.294368278 0.301471463
0.00039232368 0.281670267 0.278376534
0.286231817 0.28605025 0.276594139
0.615665595 0.242328917 0.261856529
0.827657609 0.0960928473 0.24985585
0.813189854 0.0110324161 0.255239988
0.808243858 2.79453649e-05 0.266317332
0.810239549 0 0.291280678
0 0.549943642 0.361852901
0 0.533215155 0.341975581
0 0.497187484 0.285517494
0.0399370107 0.523690684 0.263901239
0.576215408 0.532410791 0.253251468
0.868514095 0.476102569 0.252598433
0.92389019 0.371766765 0.244328779
0.865396229 0.171436901 0.266210283
0.836796478 0.0770579432 0.308963211
0 0.699549935 0.401918246
0 0.693293442 0.387790562
0 0.68967076 0.379934057
0.000187564175 0.684037449 0.299636977
0.403227965 0.762813419 0.252836689
0.842117782 0.775618872 0.195547506
0.987894057 0.731234001 0.256082207
0.992723563 0.658896036 0.287719446
0.981417 0.587251626 0.353417571
0 0.744956977 0.51717242
0 0.743055339 0.501484617
0 0.742229952 0.495096233
0 0.740640213 0.483610233
0.153273385 0.786088622 0.427129852
0.773378664 0.874430534 0.363385927
0.98603382 0.903589571 0.302787781
0.999998185 0.896307669 0.341330376
1 0.884711223 0.424518383
0 0.753644663 0.633376623
0 0.753360929 0.628840019
0 0.753162833 0.62600098
0 0.753056451 0.623969724
0.000101824647 0.759465485 0.61042759
0.54976086 0.881363101 0.621637278
0.935725323 0.940374665 0.585584701
1 0.949317421 0.55990136
1 0.955886465 0.602941683
0 0.759972793 0.717333049
0 0.759912418 0.716265467
0 0.75988947 0.715907561
0 0.759839837 0.715094734
0 0.759814872 0.714387592
0.124176172 0.821711865 0.73449128
0.855736562 0.956142963 0.802051512
0.993486665 0.975938253 0.790634777
1 0.979099412 0.788859604
0 0.0904272458 0.483066423
1.50255674e-05 0.087393014 0.481699007
0.0665536837 0.0678381432 0.512043025
0.368629765 0.0585421155 0.524352285
0.628244822 0 0.498800408
0.794080256 0 0.479078536
0.816810558 0 0.504110126
0.818975955 0 0.469702979
0.818436736 0 0.446768266
0 0.103127105 0.484814049
0 0.0992945961 0.475742393
0.029379516 0.0884838856 0.493019332
0.339694723 0.0839091559 0.509286755
0.604810777 0.000959639596 0.481306828
0.790932738 0 0.459384287
0.814262298 0 0.483747905
0.818393149 0 0.46244869
0.818471244 0 0.447329575
0 0.160784107 0.505976179
0 0.14747902 0.490961016
0.00565486299 0.142429985 0.492768647
0.311127985 0.13670296 0.509571073
0.605147181 0.0389405977 0.48877553
0.796582858 0 0.456403377
0.813884002 0 0.460848911
0.817814634 0 0.455022283
0.818518675 0 0.448101835
0 0.327823733 0.534438927
0 0.303800802 0.509017197
1.28196319e-05 0.296761758 0.501241493
0.220124831 0.302080591 0.513948929
0.594548539 0.257275956 0.500886129
0.834945635 0.104497747 0.471624396
0.831479217 0.0123791537 0.448235427
0.81797156 0 0.449154153
0.818717927 0.000140411143 0.450421643
0 0.548999791 0.576870193
0 0.51377955 0.538136999
0 0.496173351 0.506739496
0.0246529659 0.516420444 0.501191275
0.540220938 0.531196145 0.511945
0.849527557 0.479735246 0.48587191
0.926427273 0.378981777 0.457270518
0.880265805 0.191756459 0.455710376
0.848213607 0.0833757958 0.467875406
0 0.700004277 0.596300722
0 0.694551555 0.585061866
0 0.681487146 0.561037229
0 0.692904494 0.500369432
0.316703171 0.765190269 0.51115682
0.814271061 0.771524958 0.49493504
0.977434932 0.724116123 0.481207404
0.991069096 0.657930929 0.483773218
0.981749248 0.598087711 0.519424663
0 0.748698528 0.640223248
0 0.747847922 0.629550413
0 0.747497512 0.625209015
0 0.74745357 0.611466932
0.0728717408 0.807978339 0.558001412
0.731312996 0.897120256 0.56069442
0.971703605 0.918019399 0.509065694
1 0.902189783 0.523787861
1 0.886673215 0.576875818
0 0.756717558 0.687652603
0 0.75623776 0.682630763
0 0.755968341 0.680098223
0 0.755810396 0.678563332
4.04123464e-05 0.762747937 0.66570653
0.534192681 0.890148967 0.688070376
0.923690613 0.950690737 0.674939902
0.999998178 0.959789802 0.650105207
1 0.964044056 0.679933701
0 0.7606891 0.734613708
0 0.760655245 0.733918376
0 0.760633403 0.733601237
0 0.760589451 0.732945351
0 0.760558963 0.732227402
0.127638048 0.824109779 0.75460907
0.853804861 0.958070697 0.82417819
0.991768597 0.978083811 0.816996106
1 0.981082886 0.813938592
0 0.228671205 0.638924635
0 0.224126875 0.635407208
0.00649226025 0.231257465 0.64396844
0.281256461 0.236319736 0.70098957
0.616578713 0.15100488 0.720191488
0.825782071 0.0102928652 0.695759474
0.825862776 0.000210773217 0.658720596
0.822952521 0 0.63221075
0.82622437 0 0.608201855
0 0.24330859 0.647856547
0 0.234799699 0.641378975
0.00333891312 0.235617002 0.644759636
0.235523885 0.234735902 0.69198317
0.600032023 0.159213681 0.714776299
0.82316296 0.0213944315 0.691013253
0.829339808 0.000445961825 0.656107872
0.824892803 0 0.629311776
0.826238237 0 0.608133633
0 0.283050753 0.668220927
0 0.274385687 0.662574109
0.000260190553 0.273573774 0.66486309
0.19040424 0.278064785 0.698341438
0.587229556 0.220611671 0.718255674
0.823226296 0.0452971286 0.688662544
0.835058844 0.00133721168 0.65591754
0.82660505 0 0.625081423
0.826440894 6.44182955e-05 0.608442802
0 0.377602445 0.694604492
0 0.369722314 0.690893597
6.29007831e-06 0.369103984 0.693158877
0.12814033 0.379655202 0.71381657
0.563460597 0.353488488 0.731226709
0.837350244 0.239123152 0.712058504
0.870543605 0.0887923044 0.678618755
0.843312833 0.024395831 0.638984325
0.833039077 0.0163496347 0.616109942
0 0.524773556 0.703767925
0 0.518936973 0.69841977
0 0.520166164 0.698317937
0.0262121807 0.538919113 0.71337278
0.501487003 0.556808629 0.740730125
0.827101418 0.515155563 0.730195525
0.937614664 0.425698858 0.701992281
0.916258076 0.294463624 0.680751556
0.882371722 0.164862127 0.663043428
0 0.696442982 0.740255601
0 0.679367789 0.721435008
0 0.670826859 0.701627178
0 0.699554549 0.699653544
0.293939896 0.757202576 0.720692397
0.784568931 0.768409467 0.740926591
0.964674854 0.724741302 0.720000467
0.990856302 0.673034177 0.707611202
0.986495092 0.628156607 0.71608545
0 0.749286456 0.7442707
0 0.748552405 0.74143672
0 0.747724545 0.738321799
0 0.749422252 0.715934459
0.0247949303 0.824801704 0.707960657
0.689818307 0.907895579 0.744396693
0.949741067 0.919357633 0.732561812
0.999998008 0.898887432 0.733174587
1 0.885442968 0.752724601
0 0.759602472 0.751003737
0 0.759439652 0.749009685
0 0.759318472 0.747228529
0 0.759250949 0.746290512
1.01976111e-05 0.774494984 0.737635515
0.519294464 0.901108943 0.777065523
0.908291836 0.96178204 0.793745661
0.99921327 0.972380035 0.776728352
1 0.974138189 0.789892153
0 0.761438214 0.7631321
0 0.761423 0.762817433
0 0.761405518 0.762441124
0 0.761391159 0.762018476
0 0.761368578 0.761499291
0.133559337 0.83291352 0.790151191
0.853125626 0.961059048 0.86175495
0.989022197 0.981040801 0.864463329
1 0.984408143 0.860419925
0.00130405839 0.510003654 0.765827715
0.0231625254 0.514331731 0.770131221
0.0625503344 0.519790612 0.776901411
0.317572721 0.532441287 0.797064196
0.605970859 0.528566913 0.817737673
0.842279232 0.469534803 0.822752643
0.936801814 0.38517688 0.81204268
0.906305723 0.218408663 0.777069065
0.869903777 0.130480612 0.739659541
0.000794392531 0.513844378 0.766475384
0.0173384905 0.515342298 0.769442664
0.0562609267 0.520746808 0.776162774
0.292003813 0.532094094 0.795416607
0.59216649 0.527594832 0.81647206
0.836208387 0.465843036 0.821662315
0.936991779 0.392535243 0.813194978
0.910332405 0.232838422 0.780809253
0.876355227 0.150511767 0.745933884
0.000253742781 0.519726502 0.767477175
0.00269048668 0.516668466 0.767991601
0.0393459298 0.521300443 0.774307251
0.255573189 0.531515303 0.793282047
0.574209402 0.526262836 0.814837355
0.82978315 0.475242123 0.823079282
0.937496556 0.403153366 0.814969017
0.91734955 0.265970764 0.787379822
0.885485838 0.174116036 0.754994441
0 0.552284723 0.775003301
0.00235662305 0.549334245 0.775459606
0.00819283606 0.552291624 0.779027698
0.200190506 0.565385879 0.798255454
0.552101088 0.570349866 0.822417344
0.821382729 0.530224778 0.833066432
0.941469583 0.441666947 0.821995325
0.933242593 0.344037537 0.803101014
0.910019404 0.249747702 0.779112885
3.26893874e-07 0.620369621 0.790300991
1.84431459e-05 0.618349348 0.790056261
0.000726129466 0.622451061 0.792634957
0.0876529767 0.640496383 0.807704468
0.503618774 0.657768738 0.835288847
0.804001189 0.640002837 0.851074754
0.952437198 0.571731677 0.843811321
0.964440943 0.51067557 0.832156095
0.953695725 0.446217255 0.820340654
0 0.702594496 0.796931458
0 0.703384371 0.797321113
0 0.711828023 0.800526972
0.00732897412 0.737232052 0.811671812
0.358923853 0.778542691 0.841291871
0.764447318 0.790746001 0.867452667
0.951881026 0.758292191 0.868074657
0.995040985 0.72072032 0.85821959
0.998162013 0.704604568 0.855344333
0 0.745645147 0.800801414
0 0.745139836 0.796525198
0 0.74878087 0.793998748
0 0.778768023 0.799592546
0.0455428465 0.839315631 0.822350921
0.687329138 0.90401405 0.862010395
0.933133892 0.91386555 0.879642797
0.99970336 0.90108889 0.874464455
1 0.890632365 0.874995093
0 0.759246347 0.799205193
0 0.759211809 0.798577957
0 0.759180155 0.798242831
0 0.759831775 0.797229092
0.00428788224 0.804700102 0.804864215
0.554042386 0.913389941 0.858561458
0.900131277 0.966681808 0.887905138
0.996093134 0.976676277 0.887707858
1 0.97584194 0.89073416
0 0.761285305 0.796254153
0 0.761285268 0.796150159
0 0.761285216 0.796012497
0 0.761283427 0.795733904
0 0.762592172 0.795875963
0.173081628 0.855307348 0.839004098
0.860754899 0.9643055 0.897539775
0.986590073 0.982997798 0.907393
1 0.987684637 0.907438101
0.372944246 0.75774604 0.84801407
0.404845933 0.760368336 0.850156575
0.447191548 0.763852769 0.853001052
0.538795514 0.769165548 0.859025638
0.69045973 0.782324589 0.870782585
0.848360427 0.781305956 0.879821454
0.96221621 0.747680903 0.879984554
0.992760085 0.68461595 0.870862751
0.994536834 0.673513855 0.869048908
0.365345537 0.758787345 0.84775743
0.397234246 0.761407416 0.849898888
0.439564253 0.764888947 0.852742069
0.531057924 0.770181446 0.858758963
0.683812844 0.78242467 0.870373631
0.844761661 0.78136191 0.879642105
0.960952962 0.74701168 0.879827689
0.993208107 0.689320166 0.871656831
0.995177321 0.679444314 0.870105148
0.355341854 0.761993909 0.847890636
0.386904113 0.762821423 0.849549763
0.429211744 0.766298975 0.852391116
0.52054976 0.771563357 0.858397207
0.674780822 0.782561508 0.869818068
0.839867563 0.78143859 0.879398297
0.959232291 0.746100693 0.879614118
0.993820594 0.69575101 0.872742373
0.996058077 0.687599621 0.87155764
0.329686289 0.771141555 0.848467306
0.361000431 0.770826357 0.849817428
0.402576051 0.770412668 0.851610886
0.493401219 0.775146244 0.857464877
0.651418316 0.782920194 0.868381806
0.827187421 0.781640567 0.878767153
0.956024978 0.753599947 0.880664063
0.995424325 0.712588067 0.875584533
0.997188641 0.704971022 0.874521293
0.276483674 0.793534857 0.849971902
0.307766568 0.793286799 0.851338002
0.349195891 0.792857481 0.853120242
0.454513586 0.796699549 0.858947821
0.629416374 0.805505105 0.870527174
0.817782006 0.810670589 0.882669702
0.953024199 0.790263163 0.886179629
0.999022379 0.754321135 0.882559423
0.999521534 0.747430944 0.881690006
0.144968959 0.824519641 0.848624217
0.166933858 0.826453911 0.850478163
0.196134501 0.829027053 0.852943079
0.330236032 0.836412295 0.860188011
0.57822106 0.85076768 0.874433394
0.798208953 0.863394589 0.88905935
0.945416099 0.857289895 0.895534145
0.999874555 0.831295537 0.89415713
1 0.826007574 0.893741007
0.0133790565 0.827371179 0.838110853
0.0159900353 0.829851035 0.839043046
0.0214267731 0.834053482 0.840761626
0.122250272 0.852369558 0.851968269
0.411376938 0.887443808 0.873246463
0.754521193 0.920254113 0.893460807
0.931233637 0.929992902 0.904429814
0.998703886 0.923059509 0.906373151
1 0.918742402 0.906307966
0.00034383407 0.773645211 0.821531341
0.000609031365 0.780607177 0.823323387
0.000964296876 0.789932871 0.825723878
0.00185849755 0.813401525 0.8317649
0.184951594 0.864064761 0.857715927
0.660353526 0.930170164 0.890454922
0.909244438 0.968161508 0.90849922
0.993256727 0.976498317 0.914228653
1 0.976608489 0.914929522
0 0.760562558 0.81624569
0 0.760533057 0.816188081
0 0.760763447 0.81619825
0 0.762005146 0.816452941
0.0122366887 0.778868253 0.82223889
0.439354757 0.899379835 0.875786331
0.880102452 0.967522506 0.907698254
0.986329177 0.983132238 0.916393181
1 0.988462316 0.918514343
0.757907712 0.90587466 0.892987905
0.763472385 0.906363137 0.893370728
0.769667645 0.90682928 0.893765249
0.7849973 0.907918643 0.89471464
0.823468345 0.910704005 0.897124111
0.888123761 0.914119056 0.900729491
0.959446089 0.914906792 0.903874343
0.999762377 0.905802079 0.904365348
1 0.895868007 0.903534165
0.757446824 0.906474337 0.89304156
0.763010465 0.906962564 0.89342429
0.769187246 0.90742593 0.893817132
0.784514382 0.908514508 0.894766289
0.822979623 0.911297805 0.897175214
0.887835023 0.914728318 0.900795723
0.959292649 0.915613302 0.903960881
0.999762415 0.906550369 0.904461116
1 0.896785057 0.903653895
0.75681018 0.907304122 0.893115865
0.762372374 0.907792001 0.893498466
0.768523332 0.908251493 0.893888964
0.783846934 0.909338991 0.894837794
0.822304027 0.912119447 0.89724596
0.887435801 0.915571388 0.900887387
0.959081468 0.9165876 0.904080356
0.999762468 0.907586566 0.904593731
1 0.898056501 0.903819894
0.754187648 0.909396835 0.893263622
0.760532179 0.90999893 0.893690378
0.766745957 0.910467406 0.894082014
0.782073625 0.911538241 0.895029351
0.820560142 0.914259336 0.897433178
0.886496925 0.91766507 0.901122149
0.958614555 0.91888211 0.904374086
0.999762615 0.910372436 0.904950274
1 0.901483705 0.904267348
0.748341186 0.912921838 0.893437105
0.754681081 0.913516548 0.893862505
0.761384623 0.914121911 0.894302825
0.778801006 0.915692388 0.895445458
0.817444082 0.918452676 0.897864942
0.884695922 0.922333782 0.901684942
0.957384184 0.924948006 0.905150766
0.999454932 0.917656858 0.905867871
1 0.910630787 0.905461589
0.73486236 0.922737341 0.894002953
0.740663243 0.923274911 0.894389628
0.747234813 0.923866079 0.894820476
0.764562476 0.925426366 0.895956718
0.807801339 0.929313787 0.898823491
0.879380205 0.934349365 0.903055297
0.954075372 0.939937772 0.907032067
0.998669588 0.934844411 0.908056937
1 0.928061432 0.907771812
0.695316534 0.92973687 0.893205675
0.701868852 0.930638021 0.893668824
0.710860402 0.931874683 0.8943044
0.734525469 0.935122726 0.895976644
0.784304739 0.940839694 0.899458877
0.866586229 0.950307307 0.904907711
0.948181498 0.962237374 0.910233025
0.997152031 0.961948422 0.911909589
1 0.958204349 0.911984437
0.586349357 0.919116776 0.887370922
0.597627859 0.920816818 0.888138117
0.613117956 0.923151694 0.889191798
0.653299058 0.929263245 0.891932527
0.727887873 0.940894042 0.897118832
0.836404742 0.957450804 0.905082695
0.937062494 0.973633809 0.912426437
0.994030795 0.980005876 0.91543269
1 0.981688186 0.91634494
0.22545077 0.868871718 0.861286606
0.248405611 0.872188289 0.863051406
0.279994284 0.876752303 0.865479992
0.363822117 0.888864 0.871924834
0.548721964 0.915387188 0.885212103
0.768161692 0.949295358 0.900722224
0.919296645 0.973820106 0.9123236
0.989860485 0.98371282 0.916690254
1 0.988701818 0.918666622
