Luts/Insta360/Insta360_ILog_to_Leica_Classic.cube
TITLE "Insta360 I-Log to Leica Classic (via V-Log)"
LUT_3D_SIZE 5
0.00350536648 0.00163792017 0.00304467333
0.206166725 0.0582647399 0.0199551697
0.70513131 0 0
0.79783383 0 0.102080299
0.799482564 0 0.10817515
0 0.135851286 0.0513955007
0.145799895 0.120338578 0.0407011123
0.670668444 0.00149041379 0
0.797370392 0 0.100678904
0.799669956 0 0.109476487
0 0.552094353 0.000455642066
0 0.517190466 2.22604167e-05
0.642588631 0.570759999 0
0.940592804 0.42014966 0.0198495285
0.827967115 0.0774708008 0.124366427
0 0.730244532 0.391102539
0 0.727892149 0.373042528
0.262991045 0.763296748 0.255656336
0.996989718 0.887433877 0.0549351771
0.999992497 0.881057975 0.257622534
0 0.75933773 0.703996895
0 0.759220991 0.70259101
0 0.759109977 0.700865734
0.857881976 0.954710025 0.785752128
1 0.977294062 0.769379609
0.0277411415 0.0148534388 0.130950906
0.172514003 0.0478248431 0.118954087
0.681491798 0 0.120649119
0.800481947 0 0.143255481
0.803859412 0 0.166675557
0 0.134155475 0.133688633
0.110573552 0.108714642 0.105640177
0.62670929 0.00475100468 0.0890197431
0.799324572 0 0.139440472
0.804179835 0 0.172907168
0 0.548929259 0.148652512
0 0.501543369 0.0869263635
0.603486378 0.542237456 0.0235585326
0.927487559 0.383283287 0.0877280927
0.830984629 0.0753976693 0.206451273
0 0.735424339 0.434532281
0 0.7325563 0.416230843
0.214256085 0.772011608 0.333648897
0.992048158 0.893572239 0.152592906
1 0.882235972 0.337596494
0 0.759624947 0.709654385
0 0.759524417 0.708149237
0 0.759437139 0.706537753
0.85673292 0.955293165 0.792177166
1 0.978020805 0.777221414
0 0.0904272458 0.483066423
0.0665536837 0.0678381432 0.512043025
0.628244822 0 0.498800408
0.816810558 0 0.504110126
0.818436736 0 0.446768266
0 0.160784107 0.505976179
0.00565486299 0.142429985 0.492768647
0.605147181 0.0389405977 0.48877553
0.813884002 0 0.460848911
0.818518675 0 0.448101835
0 0.548999791 0.576870193
0 0.496173351 0.506739496
0.540220938 0.531196145 0.511945
0.926427273 0.378981777 0.457270518
0.848213607 0.0833757958 0.467875406
0 0.748698528 0.640223248
0 0.747497512 0.625209015
0.0728717408 0.807978339 0.558001412
0.971703605 0.918019399 0.509065694
1 0.886673215 0.576875818
0 0.7606891 0.734613708
0 0.760633403 0.733601237
0 0.760558963 0.732227402
0.853804861 0.958070697 0.82417819
1 0.981082886 0.813938592
0.00130405839 0.510003654 0.765827715
0.0625503344 0.519790612 0.776901411
0.605970859 0.528566913 0.817737673
0.936801814 0.38517688 0.81204268
0.869903777 0.130480612 0.739659541
0.000253742781 0.519726502 0.767477175
0.0393459298 0.521300443 0.774307251
0.574209402 0.526262836 0.814837355
0.937496556 0.403153366 0.814969017
0.885485838 0.174116036 0.754994441
3.26893874e-07 0.620369621 0.790300991
0.000726129466 0.622451061 0.792634957
0.503618774 0.657768738 0.835288847
0.952437198 0.571731677 0.843811321
0.953695725 0.446217255 0.820340654
0 0.745645147 0.800801414
0 0.74878087 0.793998748
0.0455428465 0.839315631 0.822350921
0.933133892 0.91386555 0.879642797
1 0.890632365 0.874995093
0 0.761285305 0.796254153
0 0.761285216 0.796012497
0 0.762592172 0.795875963
0.860754899 0.9643055 0.897539775
1 0.987684637 0.907438101
0.757907712 0.90587466 0.892987905
0.769667645 0.90682928 0.893765249
0.823468345 0.910704005 0.897124111
0.959446089 0.914906792 0.903874343
1 0.895868007 0.903534165
0.75681018 0.907304122 0.893115865
0.768523332 0.908251493 0.893888964
0.822304027 0.912119447 0.89724596
0.959081468 0.9165876 0.904080356
1 0.898056501 0.903819894
0.748341186 0.912921838 0.893437105
0.761384623 0.914121911 0.894302825
0.817444082 0.918452676 0.897864942
0.957384184 0.924948006 0.905150766
1 0.910630787 0.905461589
0.695316534 0.92973687 0.893205675
0.710860402 0.931874683 0.8943044
0.784304739 0.940839694 0.899458877
0.948181498 0.962237374 0.910233025
1 0.958204349 0.911984437
0.22545077 0.868871718 0.861286606
0.279994284 0.876752303 0.865479992
0.548721964 0.915387188 0.885212103
0.919296645 0.973820106 0.9123236
1 0.988701818 0.918666622
