Luts/Insta360/Insta360_ILog_to_VLog_65.cube
TITLE "Insta360 I-Log / Rec.2020 to Panasonic V-Log / V-Gamut"
LUT_3D_SIZE 65
0.0372361468 0.0372361468 0.0372361468
0.0513166336 0.0376383846 0.0373566816
0.0653971204 0.0380406224 0.0374772163
0.0794776071 0.0384428602 0.037597751
0.0935580939 0.0388450979 0.0377182857
0.107638581 0.0392473357 0.0378388204
0.121719067 0.0396495735 0.0379593551
0.135799554 0.0400518113 0.0380798899
0.149880041 0.040454049 0.0382004246
0.163960528 0.0408562868 0.0383209593
0.178053729 0.0412588878 0.0384416028
0.192638149 0.0416946772 0.0385721917
0.207115794 0.0421902064 0.0387206821
0.221464669 0.0427536648 0.0388895283
0.23570218 0.0433943644 0.0390815205
0.249843173 0.0441228938 0.0392998319
0.263900362 0.0449512931 0.0395480704
0.277884667 0.0458932528 0.0398303383
0.291805498 0.0469643402 0.0401513008
0.305670982 0.0481822568 0.0405162621
0.319488154 0.0495671304 0.0409312538
0.333263117 0.0511418483 0.0414031344
0.347001172 0.0529324351 0.0419397023
0.360706932 0.054968483 0.0425498251
0.374384416 0.0572836408 0.0432435861
0.388037129 0.0599161701 0.0440324508
0.401668131 0.0629095775 0.0449294563
0.415280097 0.0663133337 0.0459494271
0.428875367 0.0701836909 0.0471092198
0.442455986 0.0745846128 0.0484280016
0.456023746 0.0795888314 0.0499275676
0.469580219 0.0852790491 0.0516327003
0.483126781 0.0917493056 0.0535715797
0.496664638 0.0991065319 0.0557762487
0.51019485 0.107472317 0.058283143
0.523718344 0.116984919 0.0611336928
0.537235937 0.127801549 0.0643750078
0.550748344 0.140100967 0.0680606559
0.564256193 0.15408644 0.0722515479
0.577760037 0.1699891 0.0770169448
0.59126036 0.18784327 0.0824356022
0.604757589 0.205527802 0.0885970717
0.618252097 0.222570123 0.0956031812
0.631744214 0.23908509 0.103569717
0.645234229 0.255162587 0.112628339
0.658722394 0.270874109 0.122928755
0.672208935 0.286277298 0.134641195
0.685694047 0.301419177 0.147959224
0.699177902 0.316338479 0.163102945
0.712660653 0.331067385 0.18032263
0.726142432 0.345632828 0.198379708
0.739623356 0.360057487 0.215727304
0.75310353 0.37436057 0.232493683
0.766583043 0.388558416 0.248780242
0.780061976 0.402664987 0.264667009
0.793540397 0.416692252 0.280218089
0.80701837 0.430650507 0.295485482
0.820495947 0.44454863 0.310511821
0.833973178 0.458394299 0.325332383
0.847450102 0.472194163 0.339976584
0.860926759 0.485953996 0.354469126
0.874403178 0.499678814 0.368830868
0.887879391 0.513372986 0.383079518
0.90135542 0.52704032 0.397230174
0.914831289 0.540684138 0.411295759
0.0374233974 0.0504426182 0.0376783608
0.0515038842 0.050844856 0.0377988955
0.0655843709 0.0512470938 0.0379194302
0.0796648577 0.0516493315 0.0380399649
0.0937453444 0.0520515693 0.0381604996
0.107825831 0.0524538071 0.0382810343
0.121906318 0.0528560449 0.0384015691
0.135986805 0.0532582826 0.0385221038
0.150067291 0.0536605204 0.0386426385
0.164147778 0.0540627582 0.0387631732
0.178240979 0.0544653592 0.0388838168
0.1928056 0.0549011486 0.0390144056
0.207261671 0.0553966778 0.039162896
0.221591906 0.0559601362 0.0393317422
0.235813275 0.0566008358 0.0395237345
0.249940263 0.0573293652 0.0397420458
0.263985279 0.0581577645 0.0399902843
0.277958988 0.0590997242 0.0402725522
0.291870584 0.0601708116 0.0405935147
0.305728011 0.0613887282 0.040958476
0.319538146 0.0627736018 0.0413734677
0.333306958 0.0643483197 0.0418453483
0.347039632 0.0661389065 0.0423819162
0.360740682 0.0681749544 0.042992039
0.37441404 0.0704901122 0.0436858
0.388063138 0.0731226415 0.0444746647
0.401690971 0.0761160489 0.0453716702
0.415300158 0.079519805 0.046391641
0.428892988 0.0833901623 0.0475514337
0.442471467 0.0877910842 0.0488702155
0.45603735 0.0927953028 0.0503697815
0.469592174 0.0984855205 0.0520749142
0.483137287 0.104955777 0.0540137936
0.496673872 0.112313003 0.0562184626
0.510202966 0.120678789 0.0587253569
0.523725479 0.130191391 0.0615759067
0.537242209 0.14100802 0.0648172218
0.550753857 0.153307438 0.0685028698
0.56426104 0.167292911 0.0726937618
0.577764299 0.183172601 0.0774591587
0.591264107 0.199538638 0.0828778161
0.604760884 0.215491859 0.0890392856
0.618254994 0.2310989 0.0960453951
0.631746762 0.246413702 0.104011931
0.645236468 0.26148041 0.113070553
0.658724364 0.276335493 0.123370969
0.672210667 0.291009326 0.135083409
0.68569557 0.305527383 0.148401438
0.699179241 0.319911155 0.163545159
0.71266183 0.334178871 0.180764844
0.726143467 0.348346061 0.198753729
0.739624267 0.362426011 0.216044396
0.753104331 0.376430121 0.232763992
0.766583748 0.390368209 0.249011718
0.780062595 0.404248746 0.264865982
0.793540942 0.418079063 0.280389666
0.807018849 0.431865514 0.295633834
0.820496369 0.445613617 0.310640384
0.833973548 0.459328171 0.325444014
0.847450428 0.473013356 0.340073676
0.860927045 0.486672817 0.354553693
0.87440343 0.500309735 0.368904617
0.887879612 0.513926888 0.383143902
0.901355615 0.527526708 0.397286435
0.91483146 0.54111132 0.411344961
0.037610648 0.0636490896 0.0381205747
0.0516911347 0.0640513274 0.0382411094
0.0657716215 0.0644535652 0.0383616441
0.0798521082 0.0648558029 0.0384821788
0.093932595 0.0652580407 0.0386027135
0.108013082 0.0656602785 0.0387232482
0.122093569 0.0660625163 0.038843783
0.136174055 0.066464754 0.0389643177
0.150254542 0.0668669918 0.0390848524
0.164335029 0.0672692296 0.0392053871
0.17842823 0.0676718306 0.0393260307
0.192972784 0.0681076199 0.0394566195
0.207407345 0.0686031491 0.0396051099
0.221718988 0.0691666075 0.0397739561
0.235924253 0.0698073072 0.0399659484
0.250037263 0.0705358366 0.0401842598
0.264070127 0.0713642359 0.0404324982
0.278033257 0.0723061955 0.0407147662
0.291935631 0.073377283 0.0410357286
0.305785009 0.0745951996 0.0414006899
0.319588115 0.0759800732 0.0418156817
0.33335078 0.0775547911 0.0422875622
0.347078078 0.0793453779 0.0428241301
0.36077442 0.0813814258 0.0434342529
0.374443656 0.0836965836 0.0441280139
0.38808914 0.0863291129 0.0449168786
0.401713805 0.0893225203 0.0458138842
0.415320214 0.0927262764 0.0468338549
0.428910607 0.0965966336 0.0479936476
0.442486947 0.100997556 0.0493124294
0.456050951 0.106001774 0.0508119954
0.469604126 0.111691992 0.0525171281
0.483147792 0.118162248 0.0544560075
0.496683105 0.125519475 0.0566606765
0.510211082 0.13388526 0.0591675708
0.523732613 0.143397862 0.0620181206
0.53724848 0.154214492 0.0652594357
0.550759371 0.166513909 0.0689450837
0.564265888 0.180499383 0.0731359757
0.577768561 0.195370708 0.0779013726
0.591267855 0.210059772 0.08332003
0.604764178 0.224590937 0.0894814995
0.618257891 0.238986024 0.096487609
0.631749309 0.25326353 0.104454145
0.645238708 0.267439208 0.113512767
0.658726334 0.28152653 0.123813183
0.672212399 0.295537053 0.135525623
0.685697093 0.309480727 0.148843652
0.699180581 0.323366137 0.163987373
0.712663008 0.337200707 0.181206543
0.726144503 0.350990875 0.19912642
0.739625178 0.364742229 0.216360533
0.753105132 0.378459628 0.233033606
0.766584452 0.392147304 0.249242684
0.780063215 0.405808947 0.265064577
0.793541487 0.419447777 0.280560963
0.807019328 0.433066608 0.295781976
0.82049679 0.446667899 0.31076879
0.833973919 0.460253802 0.325555527
0.847450754 0.473826201 0.340170677
0.860927332 0.487386746 0.354638191
0.874403682 0.500936883 0.368978314
0.887879834 0.514477881 0.383208247
0.90135581 0.528010851 0.397342665
0.914831632 0.541536769 0.411394139
0.0377978985 0.076855561 0.0385627886
0.0518783853 0.0772577988 0.0386833233
0.065958872 0.0776600365 0.038803858
0.0800393588 0.0780622743 0.0389243927
0.0941198455 0.0784645121 0.0390449274
0.108200332 0.0788667499 0.0391654622
0.122280819 0.0792689876 0.0392859969
0.136361306 0.0796712254 0.0394065316
0.150441793 0.0800734632 0.0395270663
0.164522279 0.080475701 0.039647601
0.17861548 0.0808783019 0.0397682446
0.193139702 0.0813140913 0.0398988334
0.207552817 0.0818096205 0.0400473238
0.221845917 0.0823730789 0.04021617
0.236035113 0.0830137786 0.0404081623
0.250134173 0.083742308 0.0406264737
0.264154906 0.0845707072 0.0408747121
0.278107473 0.0855126669 0.0411569801
0.292000637 0.0865837544 0.0414779425
0.305841977 0.0878016709 0.0418429038
0.319638059 0.0891865446 0.0422578956
0.333394585 0.0907612625 0.0427297761
0.347116509 0.0925518493 0.043266344
0.360808148 0.0945878972 0.0438764668
0.374473263 0.096903055 0.0445702279
0.388115136 0.0995355843 0.0453590925
0.401736635 0.102528992 0.0462560981
0.415340266 0.105932748 0.0472760689
0.428928223 0.109803105 0.0484358615
0.442502424 0.114204027 0.0497546433
0.456064551 0.119208246 0.0512542093
0.469616078 0.124898463 0.052959342
0.483158295 0.13136872 0.0548982214
0.496692337 0.138725946 0.0571028905
0.510219197 0.147091731 0.0596097847
0.523739746 0.156604334 0.0624603345
0.537254751 0.167420963 0.0657016496
0.550764884 0.179720381 0.0693872976
0.564270735 0.192992989 0.0735781896
0.577772822 0.206296861 0.0783435865
0.591271602 0.219621096 0.0837622439
0.604767473 0.232963293 0.0899237134
0.618260788 0.246321325 0.0969298229
0.631751856 0.259693314 0.104896359
0.645240948 0.273077602 0.113954981
0.658728303 0.286472725 0.124255397
0.672214131 0.299877392 0.135967836
0.685698616 0.313290463 0.149285866
0.69918192 0.326710933 0.164429587
0.712664186 0.340137917 0.181646961
0.726145539 0.353570636 0.199497793
0.739626089 0.367008401 0.216675719
0.753105933 0.380450609 0.233302529
0.766585156 0.393896724 0.249473143
0.780063834 0.407346279 0.265262798
0.793542032 0.42079886 0.280731981
0.807019807 0.434254104 0.295929909
0.820497211 0.447711689 0.310897038
0.833974289 0.461171336 0.325666921
0.84745108 0.474632795 0.340267589
0.860927618 0.488095848 0.354722622
0.874403934 0.501560304 0.36905196
0.887880055 0.515025994 0.383272552
0.901356005 0.528492769 0.397398865
0.914831803 0.541960499 0.411443295
0.0379851491 0.0900620324 0.0390050025
0.0520656358 0.0904642702 0.0391255372
0.0661461226 0.0908665079 0.0392460719
0.0802266093 0.0912687457 0.0393666066
0.0943070961 0.0916709835 0.0394871414
0.108387583 0.0920732212 0.0396076761
0.12246807 0.092475459 0.0397282108
0.136548556 0.0928776968 0.0398487455
0.150629043 0.0932799346 0.0399692802
0.16470953 0.0936821723 0.0400898149
0.178802731 0.0940847733 0.0402104585
0.193306355 0.0945205627 0.0403410473
0.207698088 0.0950160919 0.0404895377
0.221972693 0.0955795503 0.0406583839
0.236145856 0.09622025 0.0408503762
0.250230994 0.0969487794 0.0410686876
0.264239618 0.0977771786 0.041316926
0.278181637 0.0987191383 0.041599194
0.292065603 0.0997902258 0.0419201564
0.305898913 0.101008142 0.0422851177
0.31968798 0.102393016 0.0427001095
0.333438371 0.103967734 0.04317199
0.347154927 0.105758321 0.0437085579
0.360841865 0.107794369 0.0443186807
0.374502862 0.110109526 0.0450124418
0.388141126 0.112742056 0.0458013064
0.40175946 0.115735463 0.046698312
0.415360315 0.119139219 0.0477182828
0.428945836 0.123009576 0.0488780754
0.442517899 0.127410498 0.0501968572
0.456078149 0.132414717 0.0516964232
0.469628028 0.138104935 0.0534015559
0.483168798 0.144575191 0.0553404353
0.496701569 0.151932417 0.0575451044
0.510227311 0.160298203 0.0600519986
0.523746879 0.169810805 0.0629025484
0.537261022 0.180627434 0.0661438635
0.550770397 0.192295844 0.0698295115
0.564275582 0.204156781 0.0740204035
0.577777084 0.216191454 0.0787858004
0.591275348 0.228383186 0.0842044578
0.604770768 0.240716472 0.0903659274
0.618263685 0.253176995 0.0973720368
0.631754403 0.265751607 0.105338573
0.645243188 0.278428297 0.114397195
0.658730273 0.291196141 0.124697611
0.672215863 0.304045239 0.13641005
0.685700139 0.316966657 0.14972808
0.699183259 0.329952354 0.164871801
0.712665363 0.342995111 0.182085537
0.726146574 0.356088467 0.199867855
0.739627 0.369226646 0.216989961
0.753106734 0.3824045 0.233570764
0.766585861 0.395617444 0.249703096
0.780064453 0.408861404 0.265460644
0.793542576 0.422132761 0.28090272
0.807020286 0.435428305 0.296077634
0.820497633 0.448745195 0.31102513
0.83397466 0.462080913 0.325778197
0.847451406 0.475433233 0.340364412
0.860927905 0.488800189 0.354806985
0.874404186 0.502180042 0.369125554
0.887880277 0.515571258 0.383336818
0.901356199 0.528972484 0.397455036
0.914831974 0.542382524 0.411492427
0.0381723996 0.103268504 0.0394472164
0.0522528864 0.103670742 0.0395677511
0.0663333731 0.104072979 0.0396882858
0.0804138599 0.104475217 0.0398088205
0.0944943466 0.104877455 0.0399293553
0.108574833 0.105279693 0.04004989
0.12265532 0.10568193 0.0401704247
0.136735807 0.106084168 0.0402909594
0.150816294 0.106486406 0.0404114941
0.16489678 0.106888644 0.0405320288
0.178989982 0.107291245 0.0406526724
0.193472743 0.107727034 0.0407832612
0.207843158 0.108222563 0.0409317517
0.222099316 0.108786022 0.0411005978
0.236256483 0.109426721 0.0412925901
0.250327725 0.110155251 0.0415109015
0.26432426 0.11098365 0.0417591399
0.278255748 0.11192561 0.0420414079
0.292130528 0.112996697 0.0423623703
0.305955819 0.114214614 0.0427273317
0.319737877 0.115599487 0.0431423234
0.333482138 0.117174205 0.0436142039
0.34719333 0.118964792 0.0441507718
0.360875571 0.12100084 0.0447608946
0.374532452 0.123315998 0.0454546557
0.388167109 0.125948527 0.0462435204
0.401782279 0.128941934 0.0471405259
0.41538036 0.132345691 0.0481604967
0.428963445 0.136216048 0.0493202893
0.442533371 0.14061697 0.0506390712
0.456091745 0.145621188 0.0521386371
0.469639976 0.151311406 0.0538437698
0.4831793 0.157781663 0.0557826492
0.496710799 0.165138889 0.0579873183
0.510235425 0.173504674 0.0604942126
0.523754012 0.182997815 0.0633447624
0.537267292 0.193107143 0.0665860774
0.55077591 0.203530235 0.0702717254
0.564280428 0.214245827 0.0744626174
0.577781345 0.225232578 0.0792280143
0.591279095 0.23646941 0.0846466717
0.604774062 0.247935784 0.0908081413
0.618266582 0.259611926 0.0978142507
0.63175695 0.271479002 0.105780787
0.645245428 0.283519234 0.114839409
0.658732242 0.295715981 0.125139825
0.672217595 0.308053782 0.136852264
0.685701662 0.320518358 0.150170294
0.699184598 0.3330966 0.165314015
0.712666541 0.345776534 0.182522286
0.72614761 0.358547271 0.200236616
0.73962791 0.371398947 0.217303264
0.753107535 0.384322658 0.233838314
0.766586565 0.397310391 0.249932546
0.780065073 0.410354954 0.265658118
0.793543121 0.423449911 0.281073182
0.807020765 0.436589507 0.296225151
0.820498054 0.449768616 0.311153066
0.83397503 0.462982669 0.325889355
0.847451731 0.476227609 0.340461145
0.860928191 0.489499831 0.35489128
0.874404438 0.502796139 0.369199096
0.887880498 0.516113702 0.383401044
0.901356394 0.529450014 0.397511176
0.914832146 0.542802859 0.411541537
0.0383596502 0.116474975 0.0398894303
0.0524401369 0.116877213 0.040009965
0.0665206237 0.117279451 0.0401304997
0.0806011104 0.117681688 0.0402510345
0.0946815972 0.118083926 0.0403715692
0.108762084 0.118486164 0.0404921039
0.122842571 0.118888402 0.0406126386
0.136923057 0.11929064 0.0407331733
0.151003544 0.119692877 0.040853708
0.165084031 0.120095115 0.0409742428
0.179177232 0.120497716 0.0410948863
0.193638868 0.120933505 0.0412254751
0.207988028 0.121429035 0.0413739656
0.222225786 0.121992493 0.0415428117
0.236366993 0.122633193 0.041734804
0.250424368 0.123361722 0.0419531154
0.264408835 0.124190121 0.0422013538
0.278329807 0.125132081 0.0424836218
0.292195414 0.126203169 0.0428045842
0.306012694 0.127421085 0.0431695456
0.319787751 0.128805959 0.0435845373
0.333525888 0.130380677 0.0440564178
0.34723172 0.132171263 0.0445929857
0.360909267 0.134207311 0.0452031086
0.374562035 0.136522469 0.0458968696
0.388193085 0.139154998 0.0466857343
0.401805094 0.142148406 0.0475827398
0.415400401 0.145552162 0.0486027106
0.428981052 0.149422519 0.0497625032
0.442548842 0.153823441 0.0510812851
0.45610534 0.15882766 0.052580851
0.469651924 0.164517877 0.0542859837
0.4831898 0.170988134 0.0562248631
0.496720029 0.17834536 0.0584295322
0.510243538 0.186560782 0.0609364265
0.523761144 0.195215126 0.0637869763
0.537273562 0.204259414 0.0670282913
0.550781422 0.213676896 0.0707139393
0.564285275 0.223449009 0.0749048313
0.577785606 0.233555846 0.0796702282
0.591282842 0.24397661 0.0850888856
0.604777356 0.254690038 0.0912503552
0.618269478 0.265674789 0.0982564646
0.631759497 0.27690978 0.106223001
0.645247667 0.288374468 0.115281623
0.658734212 0.300049073 0.125582039
0.672219327 0.311914752 0.137294478
0.685703185 0.32395372 0.150612508
0.699185938 0.336149326 0.165756229
0.712667719 0.3484861 0.182957225
0.726148646 0.360949754 0.200604085
0.739628821 0.37352717 0.217615635
0.753108336 0.386206367 0.234105184
0.766587269 0.398976446 0.250161495
0.780065692 0.411827535 0.265855221
0.793543666 0.424750725 0.281243367
0.807021244 0.437737995 0.29637246
0.820498475 0.450782147 0.311280846
0.8339754 0.46387674 0.326000395
0.847452057 0.477016014 0.340557789
0.860928478 0.490194837 0.354975507
0.87440469 0.503408639 0.369272587
0.88788072 0.516653355 0.383465231
0.901356589 0.52992538 0.397567286
0.914832317 0.543221515 0.411590624
0.0385469007 0.129681447 0.0403316442
0.0526273875 0.130083684 0.0404521789
0.0667078742 0.130485922 0.0405727136
0.080788361 0.13088816 0.0406932484
0.0948688477 0.131290398 0.0408137831
0.108949335 0.131692635 0.0409343178
0.123029821 0.132094873 0.0410548525
0.137110308 0.132497111 0.0411753872
0.151190795 0.132899349 0.0412959219
0.165271282 0.133301586 0.0414164567
0.179364483 0.133704187 0.0415371002
0.19380473 0.134139977 0.041667689
0.208132698 0.134635506 0.0418161795
0.222352103 0.135198964 0.0419850256
0.236477387 0.135839664 0.0421770179
0.250520921 0.136568194 0.0423953293
0.264493341 0.137396593 0.0426435677
0.278403813 0.138338552 0.0429258357
0.292260259 0.13940964 0.0432467982
0.306069538 0.140627556 0.0436117595
0.3198376 0.14201243 0.0440267512
0.333569619 0.143587148 0.0444986317
0.347270095 0.145377735 0.0450351996
0.360942951 0.147413783 0.0456453225
0.374591609 0.149728941 0.0463390835
0.388219056 0.15236147 0.0471279482
0.401827904 0.155354877 0.0480249537
0.415420438 0.158758633 0.0490449245
0.428998656 0.162628991 0.0502047171
0.44256431 0.167029912 0.051523499
0.456118933 0.172034131 0.0530230649
0.46966387 0.177724349 0.0547281976
0.4832003 0.184146616 0.056667077
0.496729258 0.191053888 0.0588717461
0.510251651 0.198392209 0.0613786404
0.523768276 0.20615668 0.0642291902
0.537279832 0.214339052 0.0674705052
0.550786934 0.222927989 0.0711561532
0.564290121 0.231909413 0.0753470452
0.577789867 0.241266915 0.0801124422
0.591286588 0.250982197 0.0855310995
0.60478065 0.261035542 0.0916925691
0.618272375 0.271406267 0.0986986785
0.631762044 0.282073158 0.106665215
0.645249907 0.293014864 0.115723837
0.658736181 0.304210237 0.126024252
0.672221058 0.31563863 0.137736692
0.685704708 0.327280124 0.151054722
0.699187277 0.339115712 0.166198442
0.712668897 0.351127429 0.183390368
0.726149681 0.363298437 0.200970271
0.739629732 0.375613068 0.217927077
0.753109137 0.388056841 0.234371377
0.766587974 0.40061645 0.250389946
0.780066312 0.413279728 0.266051954
0.79354421 0.426035604 0.281413277
0.807021723 0.438874043 0.296519564
0.820498896 0.451785979 0.31140847
0.833975771 0.464763253 0.326111318
0.847452383 0.477798537 0.340654345
0.860928764 0.490885268 0.355059666
0.874404942 0.504017582 0.369346026
0.887880942 0.517190246 0.383529379
0.901356784 0.530398602 0.397623366
0.914832488 0.543638507 0.411639687
0.0387341513 0.142887918 0.0407738581
0.052814638 0.143290156 0.0408943928
0.0668951248 0.143692393 0.0410149276
0.0809756115 0.144094631 0.0411354623
0.0950560983 0.144496869 0.041255997
0.109136585 0.144899107 0.0413765317
0.123217072 0.145301345 0.0414970664
0.137297559 0.145703582 0.0416176011
0.151378045 0.14610582 0.0417381359
0.165458532 0.146508058 0.0418586706
0.179551733 0.146910659 0.0419793141
0.19397033 0.147346448 0.0421099029
0.208277168 0.147841977 0.0422583934
0.222478269 0.148405436 0.0424272395
0.236587665 0.149046135 0.0426192318
0.250617386 0.149774665 0.0428375432
0.26457778 0.150603064 0.0430857816
0.278477768 0.151545024 0.0433680496
0.292325064 0.152616111 0.0436890121
0.306126351 0.153834028 0.0440539734
0.319887426 0.155218902 0.0444689651
0.333613332 0.156793619 0.0449408457
0.347308457 0.158584206 0.0454774135
0.360976625 0.160620254 0.0460875364
0.374621174 0.162935412 0.0467812974
0.38824502 0.165567941 0.0475701621
0.401850709 0.168561349 0.0484671676
0.415440471 0.171965105 0.0494871384
0.429016257 0.175835462 0.050646931
0.442579776 0.180236384 0.0519657129
0.456132524 0.185156818 0.0534652788
0.469675814 0.190488116 0.0551704115
0.483210798 0.196238228 0.0571092909
0.496738486 0.202415099 0.05931396
0.510259763 0.209023302 0.0618208543
0.523775407 0.216063901 0.0646714041
0.537286101 0.223534406 0.0679127191
0.550792446 0.231428862 0.0715983671
0.564294967 0.239738036 0.0757892591
0.577794128 0.248449705 0.0805546561
0.591290334 0.257549026 0.0859733135
0.604783944 0.267018958 0.092134783
0.618275271 0.276840717 0.0991408924
0.631764591 0.286994238 0.107107429
0.645252147 0.297458631 0.116166051
0.65873815 0.308212598 0.126466466
0.67222279 0.319234818 0.138178906
0.68570623 0.330504269 0.151496936
0.699188616 0.342000506 0.166640656
0.712670074 0.353703874 0.183821729
0.726150717 0.365595678 0.201335183
0.739630642 0.377658292 0.218237598
0.753109938 0.389875235 0.234636896
0.766588678 0.402231206 0.2506179
0.780066931 0.414712089 0.266248319
0.793544755 0.427304934 0.281582912
0.807022202 0.439997917 0.296666461
0.820499318 0.452780295 0.31153594
0.833976141 0.465642337 0.326222124
0.847452709 0.478575265 0.340750811
0.860929051 0.491571185 0.355143759
0.874405194 0.504623011 0.369419414
0.887881163 0.517724403 0.383593488
0.901356979 0.530869698 0.397679416
0.91483266 0.544053848 0.411688728
0.0389214018 0.156094389 0.041216072
0.0530018886 0.156496627 0.0413366068
0.0670823753 0.156898865 0.0414571415
0.0811628621 0.157301103 0.0415776762
0.0952433489 0.15770334 0.0416982109
0.109323836 0.158105578 0.0418187456
0.123404322 0.158507816 0.0419392803
0.137484809 0.158910054 0.042059815
0.151565296 0.159312291 0.0421803498
0.165645783 0.159714529 0.0423008845
0.179738984 0.16011713 0.042421528
0.19413567 0.16055292 0.0425521168
0.20842144 0.161048449 0.0427006073
0.222604283 0.161611907 0.0428694534
0.236697826 0.162252607 0.0430614457
0.250713762 0.162981136 0.0432797571
0.26466215 0.163809536 0.0435279955
0.27855167 0.164751495 0.0438102635
0.29238983 0.165822583 0.044131226
0.306183133 0.167040499 0.0444961873
0.319937229 0.168425373 0.044911179
0.333657027 0.170000091 0.0453830596
0.347346804 0.171790678 0.0459196274
0.361010288 0.173826725 0.0465297503
0.374650731 0.176141883 0.0472235113
0.388270977 0.178774413 0.048012376
0.401873509 0.181764713 0.0489093815
0.415460501 0.185090453 0.0499293523
0.429033855 0.188748247 0.051089145
0.442595239 0.192758144 0.0524079268
0.456146113 0.197138906 0.0539074927
0.469687758 0.201907548 0.0556126255
0.483221296 0.207078879 0.0575515048
0.496747713 0.212665079 0.0597561739
0.510267874 0.218675339 0.0622630682
0.523782537 0.225115565 0.065113618
0.53729237 0.231988196 0.068354933
0.550797957 0.239292119 0.072040581
0.564299813 0.247022711 0.076231473
0.577798388 0.255171982 0.08099687
0.591294081 0.263728832 0.0864155274
0.604787238 0.272679389 0.0925769969
0.618278168 0.282007414 0.0995831063
0.631767138 0.291694743 0.107549642
0.645254386 0.301721757 0.116608265
0.65874012 0.312067833 0.12690868
0.672224522 0.322711784 0.13862112
0.685707753 0.333632257 0.15193915
0.699189955 0.344808077 0.16708287
0.712671252 0.356218547 0.184251323
0.726151752 0.367843682 0.201698831
0.739631553 0.379664397 0.218547202
0.753110738 0.39166264 0.234901745
0.766589382 0.403821479 0.25084536
0.78006755 0.416125153 0.266444317
0.7935453 0.428559086 0.281752273
0.807022681 0.441109878 0.296813153
0.820499739 0.453765273 0.311663254
0.833976512 0.466514113 0.326332813
0.847453035 0.479346284 0.340847189
0.860929337 0.492252644 0.355227784
0.874405446 0.505224965 0.36949275
0.887881385 0.518255853 0.383657557
0.901357174 0.531338687 0.397735436
0.914832831 0.54446755 0.411737745
0.0391088215 0.169312786 0.0416586853
0.0531893082 0.169715024 0.04177922
0.067269795 0.170117261 0.0418997547
