Luts/Panasonic-Standard/Conversion/G9IIS2V.cube
TITLE "G9II Standard to V-Log"
#LUMIXPHOTOSTYLE STD
LUT_3D_SIZE 5
0.1250305325 0.1250305325 0.1250305325
0.3731525060 0.0521896863 0.0857443021
0.4979616729 0.0203555628 0.0736915085
0.5918929831 0.0071945144 0.0559238326
0.7125285295 0.0002871329 0.0334795632
0.0003663004 0.3475083996 0.1515415158
0.3069204152 0.3061828780 0.1819329308
0.3541665376 0.2737276658 0.0660270817
0.4402352218 0.2817002773 0.1446317863
0.6380087700 0.2652732568 0.0880213792
0.1367062167 0.4327391215 0.2875780800
0.2809734011 0.3676984116 0.0964697184
0.3517336680 0.3562198485 0.0838545138
0.4045736161 0.3505259797 0.0735739130
0.6787305622 0.3352536485 0.1061976416
0.0142177026 0.5049874500 0.2434183577
0.2887443973 0.4379326849 0.1252927490
0.3545830084 0.4278836362 0.1087291793
0.4164328549 0.4182537473 0.0973770953
0.5942953513 0.3856621433 0.0439190715
0.0003663004 0.6072039306 0.2064713109
0.2788974982 0.5313521817 0.1549090376
0.3471128197 0.5241995681 0.1522056155
0.4216117263 0.5229548365 0.1485958546
0.5369963497 0.5052503198 0.1312576383
0.1112171889 0.1038308472 0.3094014539
0.3733840338 0.0370694393 0.2923760341
0.4586693615 0.1269765228 0.2977717612
0.5715114839 0.0643310094 0.2811934836
0.9287701358 0.0706577346 0.1913923387
0.1172223686 0.3631087701 0.3620009237
0.3444393608 0.3444393608 0.3444393608
0.4186737949 0.3286312491 0.3332586111
0.4843889400 0.3238152004 0.3314335419
0.8010260054 0.3136620745 0.2792193626
0.0071040545 0.4769947521 0.4252521757
0.3363734562 0.4262320516 0.3689867120
0.4173696364 0.4157334371 0.3643788018
0.4776449168 0.4115697671 0.3605840924
0.6669008818 0.3896230553 0.3424995892
0.0122046036 0.5518255968 0.4612640448
0.3491637441 0.4991982842 0.4019514950
0.4189419740 0.4959204121 0.3931923097
0.4902527698 0.4879105445 0.3877054843
0.5743599153 0.4786450116 0.3833662866
0.0001221001 0.8131868243 0.4901099056
0.3104718511 0.7038338875 0.4357899956
0.3693644020 0.6789866750 0.3651908026
0.4490842521 0.6577533782 0.3858363926
0.5914142263 0.6388202442 0.3888604722
0.1120102010 0.0946367813 0.3908521596
0.3703294441 0.0361006002 0.3714419342
0.4690179711 0.1065327820 0.3707598546
0.5900550137 0.0037655265 0.3488364416
0.6646450991 0.1545398808 0.3637353917
0.0326457217 0.3901679821 0.4514262259
0.3376640983 0.3501842432 0.4133043012
0.4215806603 0.3427552849 0.4121153768
0.4931930833 0.3391783825 0.4071963733
0.8262462051 0.3352628819 0.3676447400
0.0003188647 0.4891727276 0.4833344121
0.3676143246 0.4414968191 0.4379003977
0.4414085254 0.4414085254 0.4414085254
0.5054469666 0.4332032752 0.4372772719
0.7823861762 0.4028068747 0.3996694063
0.0004196746 0.5654109939 0.5233267527
0.3759720611 0.5183403259 0.4731870495
0.4369123450 0.5211468938 0.4674214658
0.5142327913 0.5134087885 0.4651890403
0.6672349889 0.4916851690 0.4527969967
0.1108663246 0.6878597895 0.5635218716
0.3686094076 0.6344392330 0.5145532589
0.4308560171 0.6296031207 0.5016414335
0.4935378429 0.6517170596 0.4911467004
0.6316539016 0.6401130203 0.4696796232
0.0713512508 0.1635002195 0.4571198479
0.3599257901 0.0478251504 0.4337157328
0.4494473955 0.1473180036 0.4385929238
0.5719265367 0.0364612751 0.4104978710
0.6949071696 0.0001637787 0.3894292715
0.1792939708 0.3722092654 0.4838398512
0.3394001654 0.3605907092 0.4785016089
0.4221918731 0.3537700349 0.4760276997
0.4924962094 0.3506919594 0.4730524156
0.8177769124 0.3573531252 0.4491543933
0.2580754756 0.4519392414 0.5034063833
0.3768127941 0.4477498605 0.4996990529
0.4409552193 0.4492466200 0.5045233465
0.5113637932 0.4452812128 0.5067230991
0.7318525852 0.4297552219 0.4840749587
0.0001231145 0.5745590160 0.5769420063
0.3980268309 0.5353266039 0.5330889831
0.4653160231 0.5375337854 0.5337615019
0.5373550281 0.5373550281 0.5373550281
0.7459410999 0.5044634277 0.5087450604
0.0024809620 0.6946402728 0.6383623832
0.3833309069 0.7006061270 0.5944192082
0.4471971945 0.6750550114 0.5847440150
0.5119396656 0.6851366982 0.5718712022
0.6534105038 0.6413760078 0.5636392498
0.0517709329 0.1444444131 0.6805860628
0.3002712364 0.0572026074 0.4911979436
0.4426094303 0.1629214594 0.6538166638
0.5683645106 0.0154630781 0.4812911861
0.6572239707 0.0011229747 0.4764089382
0.0012742725 0.4241711844 0.6937721658
0.3402280394 0.3692444208 0.6804159777
0.4153726570 0.3711809728 0.5514205714
0.4905711604 0.3607558260 0.5542826681
0.7771224442 0.3560357185 0.5687555016
0.2282973713 0.4554862300 0.6706632322
0.3734465099 0.4514634645 0.6767248388
0.4393508567 0.4567744188 0.5993189277
0.5135229725 0.4539835650 0.5939333925
0.6866660707 0.4400223001 0.6080099333
0.1598991961 0.5453103887 0.6207574116
0.4043433352 0.5388588907 0.6212651033
0.4701099301 0.5427861431 0.6253953925
0.5328655298 0.5420757793 0.6710827243
0.7298098547 0.5242502188 0.6458698410
0.3089907037 0.6566063699 0.6892317886
0.4211189472 0.6665960105 0.6988597632
0.4836360973 0.6832831773 0.6938184457
0.5726495981 0.6783882976 0.6776556969
0.6774114966 0.6774114966 0.6774114966
