Luts/Panasonic-Standard/Conversion/G9IIS2V.cube
TITLE "G9II Standard to V-Log"
#LUMIXPHOTOSTYLE STD
LUT_3D_SIZE 33
0.1250305325 0.1250305325 0.1250305325
0.1913520381 0.1256105797 0.1313259483
0.2074592151 0.1021587134 0.1159024841
0.2459263112 0.0921269589 0.1092627617
0.2793359311 0.0807587149 0.1021784969
0.3095976520 0.0685586067 0.0948175377
0.3336748096 0.0611374776 0.0912797632
0.3562435653 0.0548558263 0.0885507653
0.3731525060 0.0521896863 0.0857443021
0.3896604313 0.0491968794 0.0839043641
0.4052210485 0.0454118643 0.0843950141
0.4212616912 0.0406664216 0.0832195682
0.4377024229 0.0351349599 0.0806843152
0.4511254133 0.0329251445 0.0785905840
0.4662611775 0.0296917510 0.0756434479
0.4840960516 0.0245922772 0.0718620184
0.4979616729 0.0203555628 0.0736915085
0.5080828910 0.0203707280 0.0695586819
0.5191750512 0.0199794175 0.0668440274
0.5322422216 0.0185276662 0.0664755151
0.5466766224 0.0169041446 0.0663452570
0.5574281038 0.0142418344 0.0618398972
0.5718011847 0.0102997529 0.0595849786
0.5827636930 0.0080400837 0.0578275681
0.5918929831 0.0071945144 0.0559238326
0.6007048398 0.0066886978 0.0539538099
0.6101449253 0.0061468198 0.0518433372
0.6203518502 0.0055609238 0.0495614260
0.6551786146 0.0058001076 0.0552011665
0.6551786146 0.0058001076 0.0552011665
0.6551786146 0.0058001076 0.0552011665
0.6381859687 0.0755230641 0.0380842077
0.7125285295 0.0002871329 0.0334795632
0.1036923170 0.1822241401 0.1335587369
0.1784822508 0.1811874176 0.1336346318
0.1989398853 0.1510118640 0.1081318122
0.2360789519 0.1443629973 0.1037494977
0.2619381659 0.1402438750 0.1021460347
0.2826403065 0.1375595739 0.1008164453
0.3016057479 0.1356416056 0.0982885221
0.3166388650 0.1345823350 0.0934363855
0.3323475274 0.1328586226 0.0897946881
0.3475083967 0.1313680842 0.0866592724
0.3617661419 0.1293934418 0.0866120042
0.3736038594 0.1282111573 0.0840404310
0.3843814426 0.1273373073 0.0795889411
0.3931676880 0.1307525192 0.0756075606
0.4040529387 0.1329199638 0.0760959942
0.4101522467 0.1397409642 0.0770596019
0.4188565382 0.1392144327 0.0747544447
0.4270496655 0.1385010843 0.0702619385
0.4359035782 0.1382742835 0.0674178920
0.4438344463 0.1389843994 0.0686630197
0.4497483931 0.1400408043 0.0640802761
0.4593217995 0.1387770817 0.0643183846
0.4870495577 0.1227765516 0.0616147555
0.4941357006 0.1232794157 0.0603573543
0.5012668348 0.1239572681 0.0591020284
0.5082239041 0.1248480171 0.0578880238
0.5146534204 0.1252546531 0.0564812415
0.5206689486 0.1257447360 0.0549639473
0.6551786146 0.0058001076 0.0552011665
0.6551786146 0.0058001076 0.0552011665
0.5310868794 0.1363527439 0.0507769000
0.5372238896 0.1588065847 0.0541461910
0.7125285295 0.0002871329 0.0334795632
0.0426635025 0.2120621563 0.1263650445
0.1456557629 0.2002862669 0.1121147786
0.2029827715 0.1952098566 0.1015050677
0.2245859192 0.1940701454 0.0951612917
0.2450104545 0.1907840348 0.0931209285
0.2647004428 0.1874977454 0.0921919702
0.2828611595 0.1844194809 0.0941018253
0.2974149394 0.1825825389 0.0913347057
0.3107891649 0.1809101136 0.0878643435
0.3240333811 0.1788256129 0.0879664623
0.3369375268 0.1759922766 0.0856328798
0.3490182139 0.1735526762 0.0822578929
0.3575215320 0.1747146763 0.0795764677
0.3702434392 0.1715364834 0.0770529585
0.3824004362 0.1686719814 0.0758561227
0.3921881935 0.1678532228 0.0752633761
0.3993199309 0.1693891329 0.0710450342
0.4081148852 0.1706571043 0.0720451589
0.4167268498 0.1701609611 0.0714872925
0.4239854304 0.1706454983 0.0686308692
0.4330338974 0.1691381597 0.0659723906
0.4519030243 0.1591353094 0.0637477422
0.4577600909 0.1605459802 0.0627867931
0.4633071187 0.1623208861 0.0618884105
0.4684088511 0.1645726885 0.0610754084
0.4729382580 0.1667733381 0.0597607408
0.4768399322 0.1691014465 0.0578783257
0.4806347729 0.1715890796 0.0559139656
0.4877183700 0.1712089620 0.0540545726
0.4947381123 0.1712395276 0.0527684105
0.6076576578 0.1590161489 0.0253453889
0.5372238896 0.1588065847 0.0541461910
0.7125285295 0.0002871329 0.0334795632
0.0182133935 0.2489441335 0.1317026295
0.1653447316 0.2259507836 0.1067863717
0.1918377161 0.2243467368 0.0991899054
0.2152808809 0.2213300301 0.0940237080
0.2359977787 0.2172261574 0.0905487246
0.2567566423 0.2132090234 0.0895251324
0.2752165615 0.2092989141 0.0875847104
0.2900730152 0.2060773374 0.0850151118
0.3032330809 0.2037182773 0.0846293676
0.3156256677 0.2019571155 0.0838893904
0.3266291955 0.2013552428 0.0828720766
0.3363556019 0.2010125411 0.0814901331
0.3470148958 0.1991409210 0.0783465811
0.3585874710 0.1961276232 0.0738925243
0.3692068736 0.1953091396 0.0763040431
0.3791670409 0.1936742049 0.0741610345
0.3882478715 0.1932239376 0.0722527490
0.3962452371 0.1935131914 0.0703706118
0.4043395587 0.1936492562 0.0693582777
0.4128135487 0.1934714125 0.0689443390
0.4205186208 0.1919039844 0.0654932759
0.4283953238 0.1910882078 0.0645363843
0.4362976154 0.1902970886 0.0635853938
0.4442508339 0.1896798242 0.0626254107
0.4521485427 0.1889880363 0.0614648429
0.4598051416 0.1877977840 0.0593443353
0.4671480942 0.1869574885 0.0572939033
0.4742424461 0.1864096231 0.0553108060
0.6858803985 0.2179371173 0.0044610982
0.6860907670 0.2176795662 0.0044679505
0.6847568160 0.2167612922 0.0048105811
0.6591881661 0.1884728007 0.0184811168
0.8110549137 0.1321599277 0.0025483244
0.0075806317 0.2782974576 0.1372521539
0.1580615887 0.2487347063 0.1064658389
0.1902776645 0.2442544185 0.1002944159
0.2160004536 0.2400228379 0.0942355768
0.2367683237 0.2362541746 0.0905077291
0.2549323220 0.2328438080 0.0876823214
0.2696256848 0.2302774640 0.0875667559
0.2838560798 0.2277513571 0.0857170106
0.2978010140 0.2251080490 0.0810662582
0.3091463992 0.2237435897 0.0808753724
0.3203722383 0.2219907747 0.0805147728
0.3313378309 0.2198968333 0.0784428847
0.3397667429 0.2191571552 0.0733067432
0.3498110533 0.2183783629 0.0740656140
0.3604996021 0.2164020818 0.0748664996
0.3702157897 0.2143414462 0.0737234729
0.3771589451 0.2144633579 0.0690321714
0.3859771092 0.2134721060 0.0682892305
0.3958610483 0.2115286609 0.0669863744
0.4033496944 0.2116838094 0.0634682080
0.4148550662 0.2061238643 0.0649222044
0.4228052359 0.2052965000 0.0640068681
0.4307374747 0.2046957107 0.0630872741
0.4386459666 0.2042362153 0.0621734488
0.4462459998 0.2033278886 0.0604875661
0.4536706960 0.2023137538 0.0585617058
0.4607556064 0.2017782427 0.0566926888
0.6855742256 0.2183120460 0.0044510789
0.6856313745 0.2182420558 0.0044529533
0.6857336898 0.2181167591 0.0044563042
0.6859696940 0.2178277883 0.0044640100
0.6852492274 0.2161548131 0.0048243997
0.7554046457 0.1823116946 0.0014045070
0.0019912009 0.3031958291 0.1465001236
0.1556127805 0.2660282269 0.1086213121
0.0566843516 0.2774393694 0.1233337671
0.1085422442 0.2667056398 0.1149602516
0.2360435722 0.2532271906 0.0900551335
0.2516332075 0.2504122111 0.0884381070
0.2660017715 0.2477883670 0.0861970212
0.2782480604 0.2455800040 0.0812931408
0.2905432749 0.2439085909 0.0802515624
0.3031916156 0.2423268382 0.0810471020
0.3152952914 0.2394323221 0.0766993720
0.3248618080 0.2374646246 0.0739981470
0.3344148241 0.2356783193 0.0724701171
0.3450890630 0.2338217046 0.0709266946
0.3539095049 0.2335123583 0.0734138564
0.3614313415 0.2327788513 0.0704800197
0.3697918204 0.2315089539 0.0682338233
0.3791976526 0.2296148236 0.0666315333
0.3885427695 0.2280371313 0.0655105583
0.4012551951 0.2211689233 0.0652743050
0.4092635958 0.2203323746 0.0643919063
0.4172568655 0.2195960747 0.0635153396
0.4251318336 0.2192548314 0.0626361108
0.4328027639 0.2187964808 0.0614927757
0.4398001566 0.2181834711 0.0597366675
0.4466311556 0.2178305449 0.0580262996
0.6853890940 0.2185388009 0.0044449935
0.6853926739 0.2185344157 0.0044451114
0.6853982172 0.2185276256 0.0044452939
0.6854079492 0.2185157047 0.0044456143
0.6854295009 0.2184893061 0.0044463235
0.6855176976 0.2183812794 0.0044492230
0.7243500406 0.2040396453 0.0030634826
0.0002983130 0.3225099058 0.1464577120
0.0151157180 0.3068681980 0.1371174075
0.0403079580 0.2969454945 0.1278206397
0.0898871132 0.2865511939 0.1188410017
0.2335575463 0.2683536831 0.0909531447
0.2498876201 0.2650386557 0.0872334025
0.2626525127 0.2626924707 0.0837470943
0.2749468682 0.2606486589 0.0814355523
0.2874776406 0.2588912085 0.0806278501
0.2996165518 0.2564288278 0.0790937344
0.3106175322 0.2542985921 0.0778992176
0.3202843807 0.2527309198 0.0762650811
0.3285793880 0.2505746040 0.0713551109
0.3380681162 0.2489698344 0.0694398795
0.3484775331 0.2476139397 0.0698911488
0.3576766738 0.2465295717 0.0718460423
0.3644343267 0.2461317141 0.0664461921
0.3740611803 0.2444518113 0.0661827054
0.3826334455 0.2435482814 0.0679817382
0.3946707751 0.2369780392 0.0647263535
0.4023225016 0.2364769296 0.0639149597
0.4100000759 0.2362227621 0.0630969021
0.4177744402 0.2359544960 0.0622854969
0.4245529482 0.2357228284 0.0608715872
0.4309817885 0.2356002446 0.0593580715
0.4380913923 0.2348890373 0.0578058100
0.6852972979 0.2186778804 0.0044402905
0.6852815218 0.2187028014 0.0044394169
0.6852573617 0.2187409683 0.0044380782
0.6852157158 0.2188067642 0.0044357684
0.6851268371 0.2189472076 0.0044308292
0.6790640161 0.2271158338 0.0042852803
0.6668509635 0.2290123428 0.0058340653
0.0002559940 0.3400384423 0.1498966331
0.0100143937 0.3228276582 0.1399063296
0.0304213964 0.3130872850 0.1314110707
0.0744312700 0.3037276218 0.1221495151
0.2317567107 0.2814598362 0.0904683436
0.2485989834 0.2780621367 0.0876836958
0.2620190281 0.2758836759 0.0863192313
0.2736582229 0.2737078848 0.0816315639
0.2854064454 0.2716253546 0.0793339439
0.2969126919 0.2700982448 0.0797160945
0.3069149376 0.2683254629 0.0771619668
0.3152152748 0.2668862122 0.0738050301
0.3508653830 0.2859582047 0.1778600835
0.3612144067 0.2839900681 0.1765702745
0.3706705878 0.2822099817 0.1761018407
0.3794037941 0.2816779878 0.1770772662
0.3610106098 0.2598836718 0.0663827452
0.3691478394 0.2590506028 0.0669021612
0.3949980003 0.2756017213 0.1493658536
0.4046388767 0.2745439023 0.1508671130
0.4114880992 0.2731313185 0.1464089605
0.4148590816 0.2679865692 0.1249310225
0.4184052836 0.2635146500 0.1059795585
0.4257065916 0.2628827045 0.1050123453
0.4443128105 0.2697247231 0.1449563292
0.4519066016 0.2687641130 0.1434452416
0.6852156055 0.2188069384 0.0044357623
0.7082091024 0.2277900624 0.0021579982
0.6938644010 0.2311076105 0.0025194820
0.6198435189 0.2346847081 0.0099016904
0.6198435189 0.2346847081 0.0099016904
0.6198435189 0.2346847081 0.0099016904
0.6427818398 0.2352424899 0.0071918802
0.0003663004 0.3475083996 0.1515415158
0.0070308333 0.3371112793 0.1428742418
0.0234386114 0.3272048663 0.1339539690
0.0617185111 0.3184000177 0.1244657517
0.2287276145 0.2962298714 0.0930550424
0.2458249330 0.2936652917 0.0920609901
0.2820877147 0.3103435969 0.1868521008
0.2957972348 0.3076270117 0.1836062155
0.3069204152 0.3061828780 0.1819329308
0.3162545243 0.3042658322 0.1800271464
0.3269640769 0.3025418221 0.1802431136
0.3377504704 0.3010577320 0.1806592231
0.3480244693 0.2991780753 0.1793430414
0.3563879627 0.2967751366 0.1758703168
0.3658785597 0.2954309340 0.1763396823
0.3542202941 0.2798008847 0.0944361349
0.3541665376 0.2737276658 0.0660270817
0.3644272254 0.2729667316 0.0662257926
0.3923935012 0.2877823570 0.1515515419
0.3805960191 0.2699718104 0.0646246679
0.4059526781 0.2835772833 0.1390190887
0.4135548621 0.2821817613 0.1362670149
0.4243671829 0.2835662291 0.1477241714
0.4323254377 0.2825725190 0.1461130797
0.4402352218 0.2817002773 0.1446317863
0.4472408239 0.2803704005 0.1429709519
0.4549436602 0.2793925596 0.1422951046
0.6153342113 0.2652018926 0.1135911311
0.6153342113 0.2652018926 0.1135911311
0.5027290013 0.3006418317 0.2357236587
0.5027290013 0.3006418317 0.2357236587
0.5868943173 0.2455703528 0.0170143796
0.6380087700 0.2652732568 0.0880213792
0.0000113336 0.4218951415 0.1846065659
0.0514318920 0.3696615031 0.2565876975
0.0019017710 0.3563026676 0.1476047423
0.2115375694 0.3114013068 0.1004707918
0.2296130264 0.3078654972 0.0963317174
0.2457185196 0.3046341899 0.0930959426
0.2817046918 0.3219606332 0.1879062944
0.2941384688 0.3202333110 0.1870570700
0.3045123498 0.3166869335 0.1779633665
0.3156022885 0.3153830093 0.1781381895
0.3251776476 0.3140863389 0.1781566265
0.3357616837 0.3119287972 0.1762495985
0.3452036333 0.3104674604 0.1761470237
0.3541359001 0.3087472251 0.1758437149
0.3627863134 0.3073369703 0.1751962916
0.3713897323 0.3064089136 0.1749164186
0.3734302128 0.3009370110 0.1529441819
0.3809363914 0.3003685943 0.1525130881
0.3882269670 0.2999222046 0.1518748394
0.3953397306 0.2977556986 0.1459725668
0.4047936405 0.2975542711 0.1499716223
0.4126628680 0.2964911682 0.1485948986
0.4204946346 0.2955531329 0.1472095506
0.4285670429 0.2946902057 0.1458602543
0.4358725297 0.2937180880 0.1447013023
0.4427566377 0.2928654050 0.1438099159
0.4507400824 0.2919396857 0.1427608042
0.4576032580 0.2914111663 0.1415698039
0.5998253754 0.2550566282 0.0139315093
0.5998253754 0.2550566282 0.0139315093
0.5998253754 0.2550566282 0.0139315093
0.5998232596 0.2550594512 0.0139317471
0.5934359650 0.2582929387 0.0147671497
0.0000113336 0.4218951415 0.1846065659
0.0002797575 0.3770458828 0.1510454345
0.0008881167 0.3635199498 0.1490245194
0.2096375963 0.3234894611 0.0994665355
0.2265341674 0.3193801043 0.0968850008
0.2658711825 0.3358177567 0.1920387180
0.2798418345 0.3336366424 0.1897808457
0.2934033731 0.3308420559 0.1870116935
0.3060461779 0.3278418518 0.1841645604
0.3150234191 0.3263018878 0.1820119651
0.3250730005 0.3238884290 0.1797773114
0.3344668713 0.3219369101 0.1772113083
0.3432029573 0.3205117547 0.1745300173
0.3517908718 0.3195008976 0.1731799613
0.3611460454 0.3186951545 0.1743585308
0.3690356958 0.3173852152 0.1753589273
0.3539516952 0.2964257593 0.0740314986
0.3602826884 0.2952249881 0.0694644747
0.3855226926 0.3110965433 0.1498853645
0.3937990602 0.3105963137 0.1504894132
0.4013124747 0.3098085568 0.1492521367
0.4086220654 0.3091038379 0.1481107530
0.4168394298 0.3078929967 0.1468760662
0.4247317392 0.3067822233 0.1457788340
0.4311518894 0.3064684405 0.1450558717
0.4385270252 0.3055653411 0.1442747395
0.4423935668 0.3008900866 0.1252849322
0.4459426271 0.2973484400 0.1090683778
0.4516285538 0.2946891752 0.0995179267
0.5816960817 0.2898552054 0.1175844026
0.5816960817 0.2898552054 0.1175844026
0.5816960817 0.2898552054 0.1175844026
0.5708806618 0.2697553459 0.0212161048
0.0000113336 0.4218951415 0.1846065659
0.0004273443 0.3894666785 0.1530950779
0.0002434804 0.3693603006 0.1495921674
0.2127117547 0.3338282515 0.1041785772
0.2291823931 0.3307352322 0.1011072322
0.2638307950 0.3458564274 0.1920411016
0.2787736148 0.3430625083 0.1891996643
0.2935843615 0.3406380907 0.1881689599
0.3039807004 0.3387211892 0.1839552384
0.3141368393 0.3367692066 0.1814739382
0.3212782813 0.3320467164 0.1665404153
0.3299822683 0.3298473678 0.1606727424
0.3361787728 0.3276510266 0.1524283351
0.3436134119 0.3255462017 0.1482848554
0.3513598172 0.3239355565 0.1452511880
0.3544448765 0.3191115350 0.1252487795
0.3609495026 0.3177122712 0.1200186829
0.3674809388 0.3162907639 0.1146590999
0.3739818174 0.3150359140 0.1094286415
0.3887585614 0.3204385205 0.1403664575
0.3986256489 0.3211027524 0.1492548385
0.4066158562 0.3197499351 0.1482059879
0.4147310930 0.3182910813 0.1470973298
0.4215360382 0.3176667757 0.1464400090
0.4255700528 0.3143118644 0.1317672239
0.4310561350 0.3110725912 0.1203803275
0.4355980527 0.3078303218 0.1068106660
0.4406498628 0.3048020655 0.0947344975
0.4459643194 0.3014868694 0.0821293673
0.5342317620 0.2835064529 0.0278917177
0.5342289325 0.2834333316 0.0279031535
0.5342234816 0.2833593819 0.0279157329
0.5422470132 0.2960778617 0.0859988693
0.0000113336 0.4218951415 0.1846065659
0.0005182367 0.3841609799 0.1526341350
0.0002440534 0.4034310630 0.1555586970
0.2115787707 0.3436187584 0.1052641464
0.2296186864 0.3401426886 0.1008038340
0.2624681267 0.3522205672 0.1793094191
0.2761126849 0.3493613772 0.1750907111
0.2878101154 0.3465813990 0.1689171016
0.2981689566 0.3439660111 0.1623738057
0.3086312825 0.3410348229 0.1581847217
0.3173968018 0.3387351830 0.1519101359
0.3256909680 0.3361949970 0.1456545473
0.3332059364 0.3345986202 0.1410092819
0.3398813100 0.3334441418 0.1357781824
0.3431164683 0.3288755183 0.1167950358
0.3501167209 0.3271254026 0.1120529016
0.3570105619 0.3253575912 0.1070491032
0.3635766877 0.3235814148 0.1009052279
0.3702426450 0.3219267828 0.0953912777
0.3909431264 0.3308941171 0.1509192036
0.3978594561 0.3296273028 0.1480758401
0.4054736483 0.3289709700 0.1487155080
0.4104910806 0.3266643192 0.1391121220
0.4144892579 0.3237932693 0.1259324172
0.4195678312 0.3208157863 0.1142998037
0.4243450248 0.3177138141 0.1013316323
0.4297904465 0.3154088291 0.0917742868
0.4353090020 0.3122739140 0.0797263930
0.4390769805 0.3080979794 0.0620388768
0.4600303575 0.3188557942 0.1214242610
0.4647220334 0.2833639340 0.0502544682
0.4640768320 0.2925058810 0.0505999060
0.4934817161 0.2988358168 0.0444679376
0.0000113336 0.4218951415 0.1846065659
0.0001876749 0.4119501797 0.1608606360
0.0001595410 0.4130814878 0.1689693327
0.0002034668 0.4112753518 0.1601144958
0.0002442003 0.4070544547 0.1578632891
0.2599651270 0.3586545777 0.1653543951
0.2735821767 0.3550772747 0.1578493505
0.2838278702 0.3522890533 0.1500633906
0.2943364839 0.3495155029 0.1461714647
0.3048444666 0.3477768383 0.1440874126
0.3141357328 0.3454013147 0.1386506697
0.3215988881 0.3422615704 0.1294127440
0.3284127911 0.3407702146 0.1230588792
0.3337420078 0.3365959468 0.1079230794
0.3406929917 0.3349272129 0.1036806872
0.3474250789 0.3331283950 0.0986869691
0.3543309910 0.3316146825 0.0940148567
0.3610553176 0.3299942899 0.0886446139
0.3673864675 0.3282476848 0.0830205431
0.3899590413 0.3400278457 0.1496225804
0.3946709706 0.3372728857 0.1379685305
0.3996567254 0.3348919444 0.1280741313
0.4041500940 0.3324630515 0.1174275621
0.4090207909 0.3302508132 0.1077913085
0.4134376251 0.3277675100 0.0962020158
0.4183501544 0.3255350425 0.0857238399
0.4235957384 0.3228304045 0.0740388739
0.4287583027 0.3198758628 0.0625080053
0.4357143229 0.3182045317 0.0591531331
0.4436590064 0.3165353644 0.0555744243
0.4639826405 0.2929586672 0.0506285584
0.4907203913 0.3021978140 0.0456654476
0.5042715921 0.3334559117 0.1671857620
0.0000113336 0.4218951415 0.1846065659
0.0000576607 0.4175535786 0.1625593942
0.0000027560 0.4220598722 0.1721335909
0.0000022201 0.4219259688 0.1796284019
0.0000140813 0.4212393094 0.1797840022
0.0000133602 0.4216302054 0.1832917579
0.2685280642 0.3608482856 0.1419644110
0.2803591173 0.3581678770 0.1365531068
0.2913293001 0.3554086061 0.1309923865
0.3018459377 0.3529586911 0.1267827473
0.3114182754 0.3508650949 0.1205469076
0.3179924000 0.3492863351 0.1128334370
0.3253193917 0.3471390659 0.1054699861
0.3303460281 0.3422929946 0.0917286559
0.3375169855 0.3410443141 0.0889535205
0.3435170089 0.3389290658 0.0806545252
0.3510982988 0.3382126695 0.0795570886
0.3583251395 0.3371896022 0.0777735439
0.3654445372 0.3360255447 0.0757167991
0.3850509058 0.3462989536 0.1312899693
0.3897139664 0.3436735465 0.1204221398
0.3941489790 0.3412938482 0.1101834698
0.3988740850 0.3392704552 0.1012983940
0.4032400951 0.3370478562 0.0909093646
0.4072739509 0.3340848749 0.0770334313
0.4128967787 0.3319056116 0.0683166582
0.4203083212 0.3307106617 0.0664862825
0.4270880484 0.3290595207 0.0635800712
0.4350441174 0.3274037282 0.0604319119
0.4438548709 0.3259458511 0.0589244512
0.7179870629 0.3203140875 0.0956917838
0.7187129951 0.3207839048 0.0972226951
0.7047183833 0.3089199374 0.0594158109
0.0000113336 0.4218951415 0.1846065659
0.0003585389 0.4277701643 0.1641006416
0.0000003674 0.4233622193 0.1637787845
0.0000002399 0.4239115304 0.1637164595
0.0000001646 0.4241587652 0.1636945681
0.0000002973 0.4242954785 0.1636800674
0.2656231536 0.3674032612 0.1260255628
0.2765561880 0.3645687983 0.1191371870
0.2870941146 0.3622857791 0.1154734138
0.2973651188 0.3595814377 0.1097428315
0.3052568903 0.3567592368 0.1012754575
0.3140954696 0.3538846158 0.0933653253
0.3210369959 0.3510584897 0.0861005181
0.3288607951 0.3503233459 0.0852789736
0.3365621091 0.3496592502 0.0845412028
0.3441765586 0.3490187372 0.0838512014
0.3514489662 0.3478474220 0.0820332485
0.3585533620 0.3464208337 0.0797448458
0.3655401748 0.3452189972 0.0777092902
0.3817802648 0.3513883167 0.1149366828
0.3856653133 0.3487034912 0.1035723896
0.3901659557 0.3465479983 0.0945054776
0.3946967751 0.3441914055 0.0839942113
0.3988382979 0.3420278560 0.0734284111
0.4053466584 0.3414179316 0.0718442380
0.4123510630 0.3406113912 0.0701354200
0.4191004382 0.3393956691 0.0677723447
0.4270783544 0.3379107700 0.0652113234
0.4355586475 0.3365752915 0.0637524537
0.6917051464 0.3196584594 0.0765758208
0.6862272429 0.3214529937 0.0828439517
0.6862272429 0.3214529937 0.0828439517
0.6659020761 0.2946142685 0.0003028300
0.1367062167 0.4327391215 0.2875780800
0.0005691644 0.4379737437 0.1639643785
0.0006646214 0.4374659236 0.1633574198
0.0006351006 0.4355171382 0.1629953146
0.0004992721 0.4337966446 0.1631537811
0.0003627758 0.4320676914 0.1633130268
0.2599278380 0.3718765920 0.1007734830
0.2704934494 0.3697517815 0.0985392028
0.2809734011 0.3676984116 0.0964697184
0.2920114117 0.3655007630 0.0942843427
0.3033990807 0.3632063181 0.0920180303
0.3130096872 0.3616236172 0.0904135019
0.3208187749 0.3607036399 0.0894009147
0.3287563590 0.3597311408 0.0882862316
0.3369396180 0.3587036911 0.0870540622
0.3445883001 0.3574991365 0.0854940223
0.3517336680 0.3562198485 0.0838545138
0.3596418899 0.3547353603 0.0821645896
0.3679426828 0.3531522738 0.0805344092
0.3894982720 0.3666520085 0.1507158753
0.3813204185 0.3538028781 0.0870126445
0.3862545385 0.3517401954 0.0783229493
0.3923324673 0.3513410338 0.0769942132
0.3983908329 0.3509486102 0.0753848779
0.4045736161 0.3505259797 0.0735739130
0.4117508028 0.3495876785 0.0716209340
0.4195810290 0.3480300471 0.0695974282
0.4278422447 0.3469023331 0.0683478966
0.4363536626 0.3460618599 0.0675222712
0.6965819206 0.3343567103 0.1080663060
0.6965777459 0.3343580588 0.1080613912
0.6834986024 0.3309241454 0.0945339326
0.6787305622 0.3352536485 0.1061976416
0.0829494259 0.4263965407 0.2151600330
0.0000862800 0.4444747044 0.1720119621
0.0003194172 0.4410905680 0.1657738493
0.0004933069 0.4389992025 0.1645219279
0.0004917868 0.4390194876 0.1645330968
0.0004908945 0.4390313894 0.1645396524
0.2612053378 0.3803985660 0.1036127139
0.2713188802 0.3786381935 0.1016905336
0.2822392702 0.3765907309 0.0995592301
0.2940263219 0.3742676044 0.0972157003
0.3043705106 0.3723849990 0.0952193788
0.3123415703 0.3711560535 0.0937350092
0.3205919198 0.3698822680 0.0921411244
0.3293002800 0.3685853923 0.0904045204
0.3374526421 0.3673256368 0.0888937699
0.3448961375 0.3661791906 0.0878636800
0.3528171393 0.3649461638 0.0868964944
0.3711266483 0.3729712406 0.1319738153
0.3811484690 0.3749862850 0.1453290507
0.4065984537 0.3898640398 0.2249916593
0.4142761769 0.3886683364 0.2243287907
0.3860043414 0.3607691429 0.0808735334
0.3920296406 0.3603317546 0.0789877068
0.3982067583 0.3598727318 0.0773389342
0.4059162340 0.3588464939 0.0761020595
0.4137321294 0.3573274711 0.0747176854
0.4216642072 0.3559919324 0.0733080967
0.4294543767 0.3548823428 0.0716033005
0.6469932312 0.3352748698 0.0822805677
0.6682728685 0.3547850587 0.1583683055
0.6498583313 0.3350034019 0.0785657312
0.6321123540 0.3172161281 0.0004884005
0.6323101971 0.3181283826 0.0011398867
0.0001617788 0.4732472216 0.2645485194
0.0004884005 0.4525030553 0.1681318693
0.0004884005 0.4525030553 0.1681318693
0.0004884005 0.4525030553 0.1681318693
0.0004884005 0.4525030553 0.1681318693
0.0004240565 0.4519417547 0.1698762443
0.2617322959 0.3892710090 0.1067956600
0.2724011110 0.3873519777 0.1047287147
0.2839281447 0.3854227633 0.1025455646
0.2949730564 0.3835951317 0.1004065052
0.3036284949 0.3819529184 0.0983287840
0.3123909359 0.3802927678 0.0961840464
0.3213079660 0.3787180268 0.0941012572
0.3299813205 0.3772447746 0.0924577133
0.3377967116 0.3761113377 0.0919554567
0.3457626341 0.3749362607 0.0913714373
0.3861497019 0.4013650014 0.2298401992
0.3929234009 0.4003986245 0.2285872584
0.3998918142 0.3992681666 0.2266205808
