Luts/Panasonic-Standard/Conversion/GH6S2V.cube
TITLE "GH6 Standard to V-Log"
#LUMIXPHOTOSTYLE STD
LUT_3D_SIZE 5
0.1250305325 0.1250305325 0.1250305325
0.4097463112 0.1080403998 0.1361033544
0.5396824494 0.0983420191 0.1387410870
0.6333595135 0.0892221321 0.1420900685
0.7029703834 0.1106498528 0.1532335180
0.0005512334 0.3543709287 0.2248262897
0.3253449950 0.3235299795 0.1239498390
0.4253036801 0.3283607511 0.2168655923
0.5051088589 0.3261595530 0.1301088471
0.8835775423 0.3367123287 0.1216621549
0.0000477428 0.4449366963 0.2806996858
0.3168231603 0.4157662627 0.1176031487
0.4076792216 0.4144174368 0.1317822827
0.4784577911 0.4182711322 0.1183941278
0.5851811261 0.4185593181 0.2101068482
0.0003968900 0.5180301932 0.3465042974
0.3213797815 0.4888158891 0.1149542922
0.4064044034 0.4873912811 0.1093707609
0.4865399527 0.4905238419 0.1054255753
0.7661576228 0.4952941526 0.0875080003
0.0002244174 0.6532744644 0.3813184513
0.3136270073 0.6846148531 0.1191417180
0.3860752152 0.6701860669 0.0439728822
0.4865689874 0.6617826819 0.3848595917
0.6203907430 0.6544566751 0.3810744882
0.1481534186 0.2647145829 0.3143507068
0.3837970597 0.1690265817 0.3362089054
0.5567902596 0.0743543676 0.3282161751
0.6658504139 0.0613939169 0.3264285655
0.9999268973 0.0144895402 0.2998937707
0.0826262458 0.3525928199 0.3531868338
0.3443109011 0.3443109011 0.3443109011
0.4337842974 0.3452772534 0.3468818828
0.5209410257 0.3481029110 0.3481648868
0.6883466758 0.3540201739 0.3596785991
0.0006573800 0.4519851937 0.3828999785
0.3384800598 0.4287508505 0.3766586883
0.4308285341 0.4276896780 0.3801869773
0.5062232080 0.4293449788 0.3883322256
0.8195519910 0.4308153630 0.4033442272
0.0001125375 0.5274580702 0.4133081663
0.3447026859 0.5060172888 0.4118798073
0.4250185564 0.5093916905 0.4143814164
0.5144901692 0.5070524359 0.4199435260
0.7739235861 0.5088455951 0.4365326516
0.1680070098 0.7271590639 0.4649213109
0.3396212040 0.6673907911 0.4591514931
0.4058541837 0.6679446660 0.4592774023
0.4928818835 0.6598384408 0.4595979935
0.6526165961 0.6417991910 0.4594456642
0.0756826520 0.1851246219 0.4106010234
0.4249500799 0.0594736177 0.4245318039
0.4835211739 0.2098305918 0.4196696415
0.6641825797 0.0438408699 0.4247555113
0.9100841951 0.0201537701 0.4296565109
0.0104606091 0.3818341317 0.4327228872
0.3420428925 0.3594653588 0.4187980980
0.4371058721 0.3577348143 0.4248974313
0.5184826054 0.3644768203 0.4214291984
0.7058958868 0.3722776041 0.4272623439
0.0000000000 0.4619614529 0.4492923231
0.3562217548 0.4414815143 0.4362457591
0.4423853264 0.4423853264 0.4423853264
0.5162075517 0.4448047132 0.4489033766
0.6288101062 0.4464563712 0.4509260613
0.2472990861 0.5139863467 0.4730013976
0.3643571696 0.5178809971 0.4726550741
0.4387342768 0.5236691422 0.4736093188
0.5260076924 0.5234255662 0.4786855795
0.6308965022 0.5237401402 0.4861811414
0.1224166279 0.6629968789 0.5178369266
0.3500437985 0.6667158632 0.5178372176
0.4237161813 0.6532661433 0.5149012432
0.5103431999 0.6376914426 0.5120677649
0.6751655006 0.6411236691 0.5221657228
0.0710423614 0.1869129825 0.4792670391
0.4167103307 0.0447191194 0.4867435497
0.5048205988 0.1541227886 0.4874104804
0.6684005541 0.0311211351 0.4922051588
0.8876743129 0.0157693161 0.4990726962
0.0776175098 0.3891180905 0.4935600990
0.3473510846 0.3758039755 0.4871445236
0.4351959515 0.3743673982 0.4928204763
0.5182772876 0.3767665740 0.4964011554
0.6286678098 0.3843824448 0.4980479507
0.0401692524 0.4640288691 0.5133109999
0.3673009030 0.4565152732 0.5028840691
0.4451959400 0.4571238167 0.5094954476
0.5251452869 0.4582390955 0.5183701884
0.6375657701 0.4613604805 0.5170625770
0.0401046781 0.5320348724 0.5369976481
0.3785183089 0.5340883280 0.5310119454
0.4546519144 0.5376839537 0.5323646988
0.5383318290 0.5383318290 0.5383318290
0.6506717199 0.5400637776 0.5417753537
0.1664224677 0.6267399490 0.5688644946
0.3656674896 0.6524542919 0.5796938410
0.4305002204 0.6809128559 0.5855949420
0.5245963352 0.6562240032 0.5801442513
0.6785913771 0.6526261488 0.5869848460
0.1450783823 0.3574550818 0.6919880422
0.2658646461 0.0002148231 0.6947089238
0.4539838995 0.2790083807 0.6652295985
0.6753893518 0.0176136047 0.5672661971
0.8055648149 0.3157987037 0.6110955333
0.0496973031 0.4058133334 0.5639916590
0.3628950394 0.3944070804 0.6903737542
0.4363184089 0.3911261772 0.5725456411
0.5218946564 0.3892781513 0.5835508484
0.8783681435 0.4024321228 0.6778020994
0.0002989604 0.4948202648 0.6221361578
0.3735195306 0.4691581316 0.6130382393
0.4562034646 0.4687222516 0.6806511359
0.5352450271 0.4685263947 0.6790503897
0.6548546699 0.4730427248 0.6534322231
0.1814926103 0.5387489861 0.6274834269
0.4057837772 0.5436198058 0.6749464443
0.4641648051 0.5508354955 0.6280051764
0.5477427344 0.5490221470 0.6806279693
0.7296844170 0.5512274552 0.6848798759
0.2854020324 0.6503367280 0.6683963423
0.3732088893 0.7018369468 0.6743773721
0.4609972119 0.6683269444 0.6697812586
0.5481264833 0.6886429224 0.6714683697
0.6774114966 0.6774114966 0.6774114966
