Luts/Panasonic-Standard/Conversion/GH6S2V.cube
TITLE "GH6 Standard to V-Log"
#LUMIXPHOTOSTYLE STD
LUT_3D_SIZE 33
0.1250305325 0.1250305325 0.1250305325
0.1965826699 0.1311235317 0.1362168694
0.2317923693 0.1187703201 0.1278336865
0.2790651469 0.1142857149 0.1300366372
0.3151545849 0.1141967718 0.1310594828
0.3406922979 0.1133535048 0.1333036131
0.3632838900 0.1115481076 0.1344356981
0.3895242597 0.1082633274 0.1351217056
0.4097463112 0.1080403998 0.1361033544
0.4286921656 0.1066545860 0.1371181875
0.4485167067 0.1056589040 0.1385509311
0.4640056080 0.1028014022 0.1386020505
0.4779589397 0.1020268799 0.1393034647
0.4967007185 0.1007892162 0.1385372919
0.5142490583 0.0996806162 0.1380717872
0.5283442247 0.0989387653 0.1384427127
0.5396824494 0.0983420191 0.1387410870
0.5535355564 0.0971082638 0.1393349160
0.5664917933 0.0958069845 0.1399572681
0.5794392454 0.0947170303 0.1395277752
0.5918971208 0.0937742700 0.1385850172
0.6031845876 0.0925389077 0.1401001170
0.6142129405 0.0912707307 0.1418878687
0.6238425401 0.0901932930 0.1420225484
0.6333595135 0.0892221321 0.1420900685
0.6438349436 0.0884912911 0.1419276588
0.6538105854 0.0875742532 0.1428778918
0.6644203822 0.0862015607 0.1442958438
0.8073294649 0.0927496829 0.1455858838
0.7125631510 0.0791246472 0.1461951734
0.6628215317 0.1377410659 0.1581761215
0.7054585083 0.2094013459 0.1557248112
0.7029703834 0.1106498528 0.1532335180
0.1003309999 0.1814304807 0.1300821889
0.1872641277 0.1861942656 0.1356095820
0.2231644690 0.1695162085 0.1266796945
0.2631610055 0.1686980742 0.1288868618
0.2903187250 0.1704176001 0.1308817897
0.3173648657 0.1687972467 0.1332300823
0.3411499679 0.1694037492 0.1318368791
0.3617260952 0.1685315431 0.1337289327
0.3774749923 0.1689279205 0.1340014903
0.3966024171 0.1670327555 0.1342387090
0.4113058221 0.1677001364 0.1346201128
0.4309700588 0.1624501096 0.1356530595
0.4480338174 0.1621953075 0.1360166648
0.4625981965 0.1630476670 0.1363399460
0.4741124792 0.1653812222 0.1369729494
0.4825151515 0.1722458104 0.1376422808
0.4883151428 0.1843710010 0.1388090871
0.5006888065 0.1866600462 0.1399553725
0.5138026920 0.1854787420 0.1399667899
0.5265837444 0.1842289682 0.1402792329
0.5348579483 0.1901730143 0.1418025712
0.5421423521 0.1953997731 0.1416133343
0.5506945724 0.1975963935 0.1409212773
0.5599348445 0.1982939785 0.1418602575
0.5695529001 0.1990788182 0.1423662675
0.5867325194 0.1781791153 0.1426948714
0.7151404321 0.0783882812 0.1466422528
0.7151404321 0.0783882812 0.1466422528
0.8073294649 0.0927496829 0.1455858838
0.7077048633 0.2050659511 0.1547161510
0.7077121422 0.2050516581 0.1547127549
0.7054585083 0.2094013459 0.1557248112
0.6944512776 0.2408211482 0.1992294567
0.0419591853 0.2166055189 0.1277304416
0.1506364659 0.2154509888 0.1248346886
0.2170611633 0.2181714930 0.1254387539
0.2482276296 0.2176568665 0.1296178951
0.2735343057 0.2183321110 0.1286581837
0.2975533468 0.2175377015 0.1301831728
0.3202653452 0.2174864186 0.1317983148
0.3401318150 0.2158429209 0.1336021125
0.3586931524 0.2164252605 0.1319037613
0.3742966585 0.2164984817 0.1321226104
0.3878944052 0.2170793904 0.1316495169
0.4043677698 0.2155682174 0.1332119284
0.4210826894 0.2156035926 0.1344478478
0.4356082809 0.2148808243 0.1353890194
0.4494537543 0.2138602871 0.1362144816
0.4620602783 0.2139123957 0.1371961564
0.4737777697 0.2147193561 0.1383100312
0.4857945590 0.2153170538 0.1391468049
0.4979301252 0.2158265437 0.1398691207
0.5094929725 0.2160490581 0.1402542265
0.5205650833 0.2164490220 0.1403576570
0.5295228896 0.2185828761 0.1401819308
0.5391690571 0.2199882301 0.1405127758
0.5500074874 0.2201929999 0.1413860795
0.5596235551 0.2216553209 0.1415986116
0.5689261815 0.2236929232 0.1421588011
0.7151404321 0.0783882812 0.1466422528
0.7151404321 0.0783882812 0.1466422528
0.7077017763 0.2050720122 0.1547175910
0.7077048633 0.2050659511 0.1547161510
0.7077121422 0.2050516581 0.1547127549
0.7054585083 0.2094013459 0.1557248112
0.7248541295 0.2492312322 0.1436009111
0.0181122055 0.2506901491 0.1301253263
0.1770653616 0.2458496211 0.1243910991
0.2125846141 0.2449319013 0.1252292332
0.2423692463 0.2445248800 0.1276797318
0.2662699155 0.2451378133 0.1276781618
0.2906506824 0.2438869291 0.1299406024
0.3120589109 0.2421677467 0.1299325815
0.3314043161 0.2415738391 0.1315779468
0.3479849400 0.2431813374 0.1313061103
0.3628129387 0.2422606554 0.1318962642
0.3777048148 0.2387670599 0.1309762162
0.3941378528 0.2388341120 0.1323095022
0.4104090174 0.2387810976 0.1335974714
0.4250523376 0.2372745080 0.1342554320
0.4396665778 0.2357937035 0.1349187064
0.4515616458 0.2364071795 0.1361219322
0.4634596090 0.2370044089 0.1373537099
0.4750476261 0.2378009877 0.1387388175
0.4864911900 0.2384444426 0.1396874207
0.4976713716 0.2384938040 0.1389366870
0.4989600577 0.2799835215 0.2199939625
0.5172257130 0.2418524648 0.1392798029
0.5289709430 0.2421381110 0.1400536153
0.5402920114 0.2427243413 0.1406904839
0.5491474262 0.2450089376 0.1410537840
0.5580073261 0.2473575537 0.1420606545
0.5659674422 0.2494190941 0.1432280965
0.5733202964 0.2512611083 0.1429795196
0.5336005135 0.2942326934 0.1583979542
0.7077048633 0.2050659511 0.1547161510
0.7077121422 0.2050516581 0.1547127549
0.7054585083 0.2094013459 0.1557248112
0.7399681852 0.2664278949 0.1408425244
0.0087127449 0.2768346424 0.1319221444
0.1781926494 0.2676828681 0.1240661545
0.2140741054 0.2665868505 0.1253459000
0.2416267197 0.2653857644 0.1258396639
0.2671454311 0.2647076696 0.1261846688
0.2900999176 0.2637217571 0.1277206946
0.3089643850 0.2634619114 0.1278985677
0.3248849658 0.2632307364 0.1296289985
0.3392304549 0.2631698224 0.1301396725
0.3524047062 0.2631141468 0.1299997622
0.3675393016 0.2620257169 0.1300515438
0.3836918723 0.2621242870 0.1314817079
0.3996039670 0.2613265386 0.1325161821
0.4151630328 0.2592620721 0.1329818890
0.4291399544 0.2583189857 0.1338303981
0.4412628774 0.2586841948 0.1351482734
0.4527517470 0.2594678574 0.1368984285
0.4637778704 0.2604808437 0.1389350908
0.4749152558 0.2604449364 0.1384154356
0.4862058510 0.2600130464 0.1368283484
0.4965818503 0.2612539602 0.1375857866
0.5075247777 0.2621305178 0.1383825960
0.5203492260 0.2615337201 0.1386408864
0.5303526898 0.2625911315 0.1386534717
0.5395347971 0.2639326133 0.1388954292
0.5486371020 0.2648330362 0.1398443732
0.5562399606 0.2665126315 0.1398686652
0.5639149861 0.2682010331 0.1392844529
0.5336005135 0.2942326934 0.1583979542
0.5336029414 0.2942272390 0.1583956678
0.7077121422 0.2050516581 0.1547127549
0.7054585083 0.2094013459 0.1557248112
0.7268569538 0.2807964808 0.1405527021
0.0036193067 0.2975455610 0.1316008013
0.1736260407 0.2868090233 0.1243810194
0.2100231535 0.2850229679 0.1240447881
0.2413783786 0.2828959052 0.1263118879
0.2662344887 0.2823372316 0.1258996097
0.2859747737 0.2820209236 0.1264887604
0.3050747249 0.2817266256 0.1256793635
0.3210866051 0.2804781718 0.1277634319
0.3334111852 0.2822134435 0.1272109316
0.3480150361 0.2795439230 0.1276696974
0.3633902644 0.2796121916 0.1289493356
0.3786025919 0.2797237454 0.1302053027
0.3919996461 0.2788379457 0.1306398455
0.4051989763 0.2778913996 0.1310057199
0.4179955993 0.2776268786 0.1320444495
0.4361599947 0.2852034152 0.2185576382
0.4484988771 0.2858872294 0.2172864040
0.4602160233 0.2855086949 0.2150254235
0.4714571232 0.2863611013 0.2150862864
0.4817899842 0.2876969558 0.2153081434
0.4914788524 0.2890304316 0.2155360596
0.5001612395 0.2907169390 0.2208078254
0.5087713314 0.2916627381 0.2211608239
0.5173619931 0.2918872091 0.2178884710
0.5303503184 0.2808561846 0.1362550228
0.5390802229 0.2815778516 0.1369745992
0.5464759008 0.2837392002 0.1359141659
0.5548611563 0.2848230807 0.1361369607
0.5336005135 0.2942326934 0.1583979542
0.5336029414 0.2942272390 0.1583956678
0.5336086666 0.2942143766 0.1583902772
0.7054585083 0.2094013459 0.1557248112
0.7177045036 0.2938457325 0.1394248797
0.0024954701 0.3177404924 0.1315098109
0.1538809095 0.3067546291 0.1251555415
0.0691060506 0.3090236215 0.1256918520
0.2378595107 0.3000217464 0.1252892239
0.2629955996 0.2993146583 0.1250942446
0.2830970473 0.2986834392 0.1255043892
0.3010732277 0.2977870284 0.1244066040
0.3179868759 0.2968540778 0.1252692578
0.3299798884 0.2980187462 0.1254055991
0.3510608095 0.3039702060 0.2140193110
0.3657059593 0.3034911738 0.2145952591
0.3789130988 0.3024661460 0.2163437060
0.3920727851 0.3014583296 0.2180687578
0.4061639028 0.3005987074 0.2191522129
0.4208683293 0.2998400450 0.2197815261
0.4326896690 0.3002354827 0.2194007741
0.4437904689 0.3009075156 0.2191749751
0.4543076645 0.3013948851 0.2193283722
0.4647914684 0.3018637476 0.2195648639
0.4747496060 0.3025460658 0.2200322363
0.4825684670 0.3004989334 0.1850132488
0.4912708780 0.2986069898 0.1558874134
0.5016811991 0.2966240797 0.1331000227
0.5119591765 0.2973985517 0.1325300872
0.5212828743 0.2970958910 0.1339232174
0.5297474645 0.2980373677 0.1338326215
0.8575361980 0.3628310456 0.1196640712
0.8575361980 0.3628310456 0.1196640712
0.8575361980 0.3628310456 0.1196640712
0.8575361980 0.3628310456 0.1196640712
0.8575361980 0.3628310456 0.1196640712
0.8861579804 0.3270913281 0.1224609950
0.8982729908 0.3149404759 0.1236244675
0.0006538581 0.3336871949 0.1330674613
0.0129848530 0.3292881268 0.1294322657
0.0556058524 0.3251842135 0.1281697378
0.2361927419 0.3137602864 0.1259608360
0.2597846201 0.3128573622 0.1293996969
0.2791956406 0.3114235886 0.1262884524
0.3008470504 0.3110727707 0.1231896033
0.3168757638 0.3191100823 0.2132430564
0.3332766508 0.3168688224 0.2133470553
0.3486482637 0.3163868940 0.2136304291
0.3626260693 0.3157383869 0.2145449284
0.3751909991 0.3149529112 0.2160579055
0.3876818044 0.3142512920 0.2174903565
0.3998966493 0.3141806659 0.2180182719
0.4118872958 0.3141729746 0.2185252999
0.4229410100 0.3145149373 0.2181621141
0.4340006846 0.3148194924 0.2179220039
0.4455091550 0.3148185305 0.2172702492
0.4570742330 0.3148595044 0.2178980263
0.4682940505 0.3149592954 0.2189330570
0.4776209744 0.3149959766 0.2062658046
0.4831794516 0.3131755513 0.1585467656
0.4983796596 0.3155658482 0.2184281862
0.5030740323 0.3114868685 0.1313367686
0.5130288071 0.3115237564 0.1322013298
0.5220546436 0.3125093495 0.1319019563
0.8575361980 0.3628310456 0.1196640712
0.8575361980 0.3628310456 0.1196640712
0.8575361980 0.3628310456 0.1196640712
0.8575361980 0.3628310456 0.1196640712
0.8575361980 0.3628310456 0.1196640712
0.8792458665 0.3295450368 0.1239744391
0.8910180185 0.3260368628 0.1232796497
0.0005512334 0.3543709287 0.2248262897
0.0022387027 0.3504949454 0.1599115500
0.0467207849 0.3398152372 0.1296540598
0.2247278445 0.3299402606 0.1259727241
0.0116909595 0.3629750389 0.1303394718
0.0371293136 0.3658932450 0.1305080325
0.2967278976 0.3316909583 0.2123229122
0.2790952054 0.3009048496 0.2037236611
0.3253449950 0.3235299795 0.1239498390
0.3469441903 0.3287861291 0.2129818265
0.3588603963 0.3281708026 0.2133591755
0.3707575678 0.3276389573 0.2145908382
0.3818160802 0.3277211145 0.2163536128
0.3919635333 0.3282206695 0.2167792196
0.4023209200 0.3286069807 0.2170425102
0.4138215527 0.3284897913 0.2169031766
0.4253036801 0.3283607511 0.2168655923
0.4376198227 0.3280356892 0.2160504953
0.4498829242 0.3277603249 0.2173154354
0.4575853124 0.3273358385 0.1876711115
0.4717509763 0.3278157936 0.2067651025
0.4761345820 0.3271493563 0.1624370881
0.4861415061 0.3266164014 0.1571422901
0.4945792945 0.3257793878 0.1298360088
0.5051088589 0.3261595530 0.1301088471
0.5170495619 0.3286677253 0.1762792072
0.8575361980 0.3628310456 0.1196640712
0.8575361980 0.3628310456 0.1196640712
0.8575361980 0.3628310456 0.1196640712
0.8575361980 0.3628310456 0.1196640712
0.8575361980 0.3628310456 0.1196640712
0.8737887396 0.3380738187 0.1221229008
0.8835775423 0.3367123287 0.1216621549
0.0002506145 0.3650944892 0.2324786924
0.0324865143 0.3634403614 0.2143113609
0.0005701294 0.3658183798 0.1324821749
0.0003684761 0.3416941565 0.1332959413
0.0093739424 0.3635576911 0.1308614695
0.0350081682 0.3677898881 0.1307091205
0.2937539000 0.3375278966 0.1438438016
0.3084921230 0.3386037990 0.1526184046
0.3250747833 0.3385010300 0.1609454850
0.3403989937 0.3383949776 0.1673989088
0.3526152969 0.3385933145 0.1737773085
0.3654006792 0.3387062360 0.1816160339
0.3802379273 0.3397789717 0.2147686227
0.3918117477 0.3398243316 0.2149561453
0.4021135060 0.3398491751 0.2151977392
0.4120360346 0.3398951822 0.2154837810
0.4222903535 0.3401321159 0.2161697624
0.4325314865 0.3405245914 0.2170744588
0.4371197251 0.3405475090 0.1657747107
0.4433523664 0.3404651374 0.1265105080
0.4539346051 0.3405871973 0.1272142318
0.4643539893 0.3406266137 0.1276869090
0.4753384453 0.3404428193 0.1276163120
0.4856112468 0.3406069401 0.1282759475
0.4959572566 0.3409748089 0.1281231477
0.5066657417 0.3413889500 0.1271308574
0.5182806576 0.3410370500 0.1285818291
0.8575361980 0.3628310456 0.1196640712
0.8575361980 0.3628310456 0.1196640712
0.8575361980 0.3628310456 0.1196640712
0.8575361980 0.3628310456 0.1196640712
0.8575361980 0.3628310456 0.1196640712
0.8754509598 0.3473429219 0.1200251182
0.0002207859 0.3807642638 0.2454574388
0.1634283753 0.3715340178 0.2584962483
0.0462158011 0.3703381564 0.1431008277
0.0443979203 0.3648466207 0.1300643213
0.0238070873 0.3762579489 0.1317670146
0.0240687243 0.3816383482 0.1319940320
0.0305355204 0.3749726868 0.1312824671
0.3052197230 0.3508633398 0.1464414398
0.3225915716 0.3502245881 0.1536415848
0.3369164182 0.3502262009 0.1607339415
0.3505388220 0.3504014056 0.1682999569
0.3639369929 0.3506419529 0.1762877436
0.3768286878 0.3507844419 0.1818279486
0.3884297955 0.3509985085 0.1882551548
0.3980341041 0.3513662243 0.1955963391
0.4089163840 0.3515806132 0.2145686270
0.4177893158 0.3524082270 0.2134178465
0.4268977111 0.3532112903 0.2141194272
0.4274238885 0.3536871271 0.1237167862
0.4372482884 0.3543853137 0.1242800628
0.4473126576 0.3547254223 0.1242052487
0.4572312931 0.3550669702 0.1245449044
0.4673870021 0.3551089717 0.1255521900
0.4770955225 0.3549442021 0.1269056138
0.4881974198 0.3553569973 0.1254837715
0.5001948362 0.3548974777 0.1253417641
0.5132008817 0.3540359098 0.1325847981
0.8575361980 0.3628310456 0.1196640712
0.8575361980 0.3628310456 0.1196640712
0.8575361980 0.3628310456 0.1196640712
0.8575361980 0.3628310456 0.1196640712
0.8575361980 0.3628310456 0.1196640712
0.8697588179 0.3567145896 0.1188105992
0.0003362011 0.3904738355 0.2487685212
0.0002960348 0.3921850488 0.2447258115
0.2235849771 0.3833285069 0.2657071862
0.0264780648 0.3795528203 0.1317381990
0.0168902135 0.3872955976 0.1327847188
0.0147455451 0.3904829886 0.1331369915
0.0247628831 0.3823802988 0.1319717123
0.3032165804 0.3629204547 0.1425716851
0.3207495752 0.3620952572 0.1504791018
0.3353124274 0.3620567712 0.1578553289
0.3498053700 0.3619374760 0.1644907745
0.3630434366 0.3619119976 0.1699556178
0.3761129154 0.3618969352 0.1751468176
0.3860328206 0.3622446842 0.1805199783
0.3962091707 0.3624562519 0.1852769518
0.4055171341 0.3632377813 0.1889898633
0.4145446081 0.3642172791 0.1925868702
0.4254219348 0.3645680103 0.2123230254
0.4247967750 0.3658064371 0.1233274896
0.4347578126 0.3667152546 0.1230800866
0.4449063191 0.3672455869 0.1231605906
0.4557064270 0.3664168272 0.1241592346
0.4646151506 0.3666360520 0.1243784895
0.4734365764 0.3672049861 0.1246999798
0.4853886243 0.3672055695 0.1331163661
0.4964085215 0.3675122627 0.1438381113
0.5076858594 0.3667201161 0.1538967592
0.5195668767 0.3667263158 0.1611937493
0.8290767603 0.3709947198 0.2180458516
0.7906122148 0.3644596171 0.1284414246
0.7975370083 0.3652875850 0.1257455756
0.7973193932 0.3656066638 0.1257052848
0.8375017304 0.3671788439 0.1237890753
0.0001996850 0.3990298173 0.2515020762
0.0019302554 0.4312694248 0.3114746388
0.1375262510 0.3859750153 0.2069880013
0.0131847230 0.3932960424 0.1333888906
0.0079928033 0.3984138761 0.1337173308
0.0102584136 0.4012866158 0.1333257522
0.0190673505 0.3898511967 0.1327252415
0.3041080634 0.3743218121 0.1339217634
0.3201742164 0.3736989024 0.1426161638
0.3347992253 0.3731297467 0.1496555820
0.3485138970 0.3728428643 0.1554057438
0.3617765811 0.3728207039 0.1610496745
0.3734529180 0.3730346354 0.1660021389
0.3845592118 0.3732456282 0.1709804186
0.3945717358 0.3738552519 0.1758278478
0.4034197561 0.3748612312 0.1798939696
0.4123874701 0.3752832315 0.1840150272
0.4213180682 0.3754391574 0.1889366500
0.4229601327 0.3780014671 0.1222757041
0.4328621039 0.3792297118 0.1219025051
0.4440978855 0.3778396086 0.1228460810
0.4538037881 0.3774738760 0.1231362025
0.4618425255 0.3781488347 0.1229006933
0.4723574616 0.3785230891 0.1243803401
0.4829043438 0.3785574973 0.1356711463
0.4925889310 0.3782821390 0.1447730950
0.5032465120 0.3782214305 0.1557788618
0.5157693509 0.3784035701 0.1634131794
0.5401088602 0.3784128804 0.2629419323
0.5479353486 0.3777529965 0.2507333217
0.7093164125 0.3772929678 0.2447442447
0.7093164125 0.3772929678 0.2447442447
0.7588636349 0.3761972443 0.1252502707
0.0534958496 0.3995904343 0.2768734263
0.0604909258 0.4034916047 0.2754194818
0.0000316789 0.4144408396 0.2236057412
0.0038169923 0.4072257632 0.1336069747
0.0054875010 0.4111197036 0.1332341492
0.0088223412 0.4074827170 0.1331137345
0.0051642222 0.4144019563 0.1332487718
0.3041036932 0.3858746127 0.1257819777
0.3190088917 0.3850564624 0.1326972288
0.3338382353 0.3842264343 0.1388513084
0.3468578548 0.3840035995 0.1436187194
0.3596709429 0.3838732704 0.1480151171
0.3709925848 0.3839439411 0.1545690253
0.3819478782 0.3840573518 0.1595260244
0.3922064466 0.3845624356 0.1639904575
0.4021251153 0.3849464995 0.1680285102
0.4110067044 0.3852210002 0.1718814332
0.4201363201 0.3859010473 0.1757295655
0.4233364290 0.3883337982 0.1215841422
0.4338258431 0.3880973684 0.1219187193
0.4439320774 0.3878778880 0.1221775068
0.4526349980 0.3881148088 0.1228941527
0.4621747460 0.3889505407 0.1229548213
0.4714547840 0.3895006548 0.1241055380
0.4802081232 0.3888258350 0.1291105654
0.4886987777 0.3889315889 0.1397054378
0.5008554756 0.3893019914 0.1491534297
0.5115469548 0.3891686801 0.1614043232
0.5330195666 0.3890838923 0.2515900653
0.5404534215 0.3885586612 0.2391800749
0.5437105681 0.3887545449 0.1769494075
0.5579575855 0.3880533335 0.1858848513
0.6736453513 0.3872828195 0.1255888014
0.0005241400 0.4241654746 0.2820027767
0.1486761944 0.4189689345 0.3042400467
0.2129753951 0.4048993815 0.2645996243
0.0055452702 0.4180013205 0.1331113250
0.0027284805 0.4206862036 0.1334223109
0.0076284789 0.4135365834 0.1330177234
0.0034960195 0.4193979748 0.1333624253
0.3018243669 0.3969180245 0.1192455143
0.3175160587 0.3961010216 0.1194148085
0.3319037421 0.3956622045 0.1249503427
0.3454108372 0.3954294947 0.1300233425
0.3574282119 0.3950132826 0.1359428853
0.3689806912 0.3945115730 0.1440468126
0.3801334438 0.3946603300 0.1458458605
0.3916287492 0.3947192341 0.1511210276
0.4005440031 0.3947675035 0.1550497978
0.4093568020 0.3951782531 0.1567079111
0.4189547368 0.3959050035 0.1624802916
0.4239678373 0.3973700576 0.1208682384
0.4338055529 0.3978501750 0.1207895011
0.4430294808 0.3980407332 0.1211623149
0.4527639724 0.3984271105 0.1214356774
0.4627070898 0.3986603066 0.1217690495
0.4719427312 0.3983764685 0.1214559723
0.4801720580 0.3984068918 0.1222746747
0.4893670288 0.3987566370 0.1347505304
0.4986611643 0.3990120401 0.1448069919
0.5085804521 0.3988760863 0.1547692238
0.5258261829 0.3992050173 0.2372049077
0.5293756937 0.3990045681 0.1872666505
0.5379439855 0.3997017578 0.1583274558
0.5468436300 0.4003057262 0.1292105245
0.6098794097 0.3965957157 0.2141560833
0.0002823893 0.4348673018 0.2840410023
0.0003263714 0.4341092020 0.2798272989
0.2104603448 0.4139481736 0.2663787876
0.0001221898 0.4323017974 0.1330286674
0.0001224106 0.4302412147 0.1331822787
0.0001221717 0.4319535069 0.1330265449
0.0001221914 0.4325065732 0.1330258927
0.3024059102 0.4064107852 0.1186375874
0.3169256757 0.4059090162 0.1184469839
0.3305365315 0.4057412391 0.1178705337
0.3437552073 0.4054451708 0.1178510023
0.3559643907 0.4045865320 0.1228673229
0.3681945730 0.4040633367 0.1287323052
0.3804632004 0.4039080676 0.1341931160
0.3900967179 0.4041023932 0.1366373313
0.3994226428 0.4044578346 0.1412416832
0.4086426619 0.4045988888 0.1455038679
0.4178115337 0.4050491691 0.1500028254
0.4236265489 0.4071315847 0.1195196213
0.4332555313 0.4077361211 0.1191885357
0.4433278838 0.4078546297 0.1196183419
0.4539484974 0.4076957272 0.1208973041
0.4633637197 0.4080051057 0.1206987038
0.4716915176 0.4080640289 0.1201941919
0.4797073422 0.4082255953 0.1232920505
0.4881770973 0.4087811304 0.1277341016
0.4982481118 0.4087216430 0.1369320512
0.5097028994 0.4085508151 0.1493849386
0.5188362723 0.4086784144 0.2159377179
0.5242738667 0.4096570593 0.1639188728
0.5351554269 0.4094859082 0.1390113429
0.5478622420 0.4095064522 0.1277284132
0.5868434973 0.4083214284 0.2116694115
0.0000477428 0.4449366963 0.2806996858
0.1633049896 0.4265104309 0.2872505314
0.0000524833 0.4446623830 0.2404500890
0.0001233796 0.4416102533 0.1336331272
0.0001380259 0.4406177977 0.1335813085
0.0008234160 0.4383337531 0.1334366349
0.0002034582 0.4380551090 0.1334225888
0.3030381028 0.4160529178 0.1182626631
0.3168231603 0.4157662627 0.1176031487
0.3304863348 0.4154623262 0.1168201121
0.3434034315 0.4147773202 0.1164914184
0.3560861989 0.4139924626 0.1163266047
0.3684843428 0.4136854907 0.1173367679
0.3796152184 0.4136803341 0.1200034995
0.3892458936 0.4140605081 0.1223411377
0.3985199954 0.4141853044 0.1268779654
0.4076792216 0.4144174368 0.1317822827
0.4171654111 0.4148859986 0.1363061643
0.4247066473 0.4158853775 0.1189190909
0.4339366746 0.4164145932 0.1192211009
0.4450188303 0.4169072797 0.1195504037
0.4540600877 0.4180085403 0.1188432510
0.4624008822 0.4180852801 0.1211212125
0.4703658494 0.4176589766 0.1183056173
0.4784577911 0.4182711322 0.1183941278
0.4887316395 0.4179372952 0.1223356907
0.5001624445 0.4178568286 0.1311969362
0.5097170621 0.4180641361 0.1409359014
0.5174169577 0.4187721928 0.1871762572
0.5247472947 0.4190223343 0.1519801177
0.5343675585 0.4191941251 0.1231183678
0.5470592948 0.4194856799 0.1471772811
0.5851811261 0.4185593181 0.2101068482
0.0002171021 0.4510595650 0.2827544878
0.1725330033 0.4319272814 0.2876667298
0.0001133581 0.4528134349 0.2423665327
0.0001221001 0.4492063522 0.1340659410
0.0001221001 0.4492063522 0.1340659410
0.0001221001 0.4491989153 0.1340654012
0.0001219867 0.4481008229 0.1340902582
0.3048748715 0.4261097173 0.1165003360
0.3175864676 0.4257949357 0.1158483051
0.3303273534 0.4253134146 0.1154318882
0.3431069267 0.4245657101 0.1153309544
0.3558213150 0.4239935089 0.1150858546
0.3684257346 0.4235855777 0.1147023292
0.3794466790 0.4236273165 0.1158987851
0.3894451950 0.4237385220 0.1167285782
0.3982204087 0.4238634683 0.1169678503
0.4077184391 0.4238050656 0.1188423746
0.4174223829 0.4238681943 0.1251436881
0.4255956609 0.4245113082 0.1180362647
0.4352987078 0.4254800299 0.1178827974
0.4442131884 0.4260645935 0.1170855692
0.4529266431 0.4261171670 0.1166118311
0.4616925704 0.4262828100 0.1175552848
0.4707659503 0.4265363688 0.1173138747
0.4805924767 0.4265875169 0.1216297017
0.4903868336 0.4271492573 0.1231298638
0.5006818018 0.4280464776 0.1199739446
0.5088356563 0.4277474391 0.1326951907
0.5169096706 0.4285934751 0.1654504402
0.5246234251 0.4288341606 0.1310332011
0.5352512983 0.4293145860 0.1413507663
0.8147604983 0.4257946496 0.2708505397
0.8274376177 0.4234762842 0.2700685434
0.0002734631 0.4528637934 0.2815494184
0.0002258974 0.4565835675 0.2967523016
0.0002092606 0.4609680713 0.2449975505
0.0008169549 0.4534553737 0.1334348982
0.0001221001 0.4492063522 0.1340659410
0.0001221001 0.4492063522 0.1340659410
0.0001221001 0.4492063522 0.1340659410
0.0001221001 0.4492063522 0.1340659410
0.3191581034 0.4345036587 0.1165709141
0.3305400778 0.4339137957 0.1150822486
0.3419132618 0.4333988476 0.1136340045
0.3536178736 0.4333650458 0.1128571571
0.3660010159 0.4330961839 0.1136622895
0.3791874397 0.4325518120 0.1163148813
0.3893034253 0.4319175622 0.1158837006
0.3993376034 0.4318837851 0.1159855799
0.4092616276 0.4325467995 0.1166955693
0.4329533913 0.4347679591 0.2996339118
0.4495628413 0.4156635670 0.2903953794
