Luts/Panasonic-Standard/Conversion/GH7S2V.cube
TITLE "GH7 Standard to V-Log"
#LUMIXPHOTOSTYLE STD
# Globally fitted from paired decoded Standard/V-Log forward maps.
# No pointwise Standard inverse or empirical output colour patch is used.
# Samples=300000, smoothness=0.01, prior_weight=1.
LUT_3D_SIZE 5
0.1250305325 0.1250305325 0.1250305325
0.3122391816 0.1785791434 0.1405339805
0.3922830604 0.2345570740 0.1736461135
0.4593257011 0.2600639442 0.1736019323
0.4193891294 0.3233914299 0.0682206159
0.2354220535 0.3003228107 0.2031436441
0.3481572128 0.3391164211 0.2362320464
0.4178530855 0.3683346672 0.1959730954
0.4885791000 0.3796761976 0.2050179161
0.6319963010 0.2678219047 0.0919082392
0.1441110153 0.4266330065 0.2563437355
0.3038029629 0.3751209509 0.1566882011
0.4691491462 0.4830824372 0.2995816623
0.5123059411 0.4743857665 0.2255533735
0.5449533248 0.4247066034 0.2540170951
0.0156804121 0.5036011203 0.2392286550
0.2904625511 0.4386533025 0.1329494160
0.3582051067 0.4307169866 0.1201676258
0.4238099112 0.4258849092 0.1113226806
0.6030239570 0.5492736842 0.3792689781
0.0044633359 0.6052625508 0.2072774240
0.2799287631 0.5330290686 0.1550398824
0.3475121894 0.5252399508 0.1545323307
0.4217408220 0.5225600216 0.1505325381
0.5382498729 0.5077563347 0.1360045143
0.1130009897 0.1643354765 0.3150909362
0.2310802843 0.1283731006 0.2632016569
0.3920810463 0.1921986579 0.3303822011
0.5637574912 0.0856701056 0.2586014802
0.9139524019 0.0761939581 0.1903056228
0.2240926888 0.3039401239 0.3217672745
0.3444393608 0.3444393608 0.3444393608
0.4135500421 0.3541084359 0.3316037920
0.4712930637 0.3681701966 0.3404874022
0.5258247572 0.3645930310 0.3315510936
0.2355615679 0.4240160764 0.3749578037
0.3198728805 0.4323468320 0.3762880567
0.4328036987 0.4286705213 0.3679394356
0.5039708781 0.4535710602 0.3629243226
0.5804565042 0.4301444742 0.3641651884
0.3042901760 0.4970847149 0.3977838421
0.4207558776 0.5035846089 0.3364529501
0.4443450416 0.5262027039 0.4085527173
0.5266269749 0.5355993647 0.3923776985
0.6870850506 0.5508415764 0.3933322655
0.0131055234 0.8016145927 0.4902166074
0.3111291253 0.6971176651 0.4327737995
0.3715686253 0.6715781059 0.3715528332
0.4513894847 0.6548471410 0.3874925631
0.6809621888 0.6573668392 0.4739465004
0.0165879574 0.1305444006 0.3556467303
0.3696416217 0.0409604908 0.3702391217
0.4709865566 0.1028069279 0.3704000918
0.5992251413 0.0042262176 0.3475248749
0.6780171593 0.1520758452 0.3605462451
0.2731668129 0.3168931974 0.3876507394
0.3515053697 0.3479219667 0.4195656411
0.4275299971 0.3241588631 0.4047758440
0.4874511299 0.3522798677 0.4071616081
0.5773580990 0.3232985512 0.4090775401
0.2676719287 0.4726721742 0.4525693533
0.3738971405 0.4141879949 0.4269263662
0.4414085254 0.4414085254 0.4414085254
0.5037171015 0.4465494612 0.4351023067
0.5868035491 0.4731880032 0.4457567515
0.3035021770 0.5118423141 0.4750107984
0.3753170945 0.5201832326 0.4770584267
0.4236995718 0.5243545226 0.4741633195
0.5368574138 0.5256818808 0.4768068520
0.6079810526 0.5602151499 0.4701387876
0.1255610305 0.6805885436 0.5598251705
0.3738508292 0.5911858344 0.5080183550
0.3914090651 0.6024260473 0.5224996604
0.5156088297 0.6033303997 0.4868290824
0.6815288087 0.6590774664 0.4746578672
0.0814720465 0.1652611725 0.4544741357
0.3585368138 0.0548338632 0.4347823227
0.4509744066 0.1434587149 0.4428694431
0.5716412688 0.0369987599 0.4099365372
0.7193097890 0.0025670734 0.3840524793
0.2333338735 0.3033980186 0.4648635303
0.3456312498 0.3702420193 0.5094029993
0.4179697994 0.3674133668 0.4737526541
0.4962185778 0.3407918008 0.4728396358
0.5820583696 0.3466195232 0.4644245100
0.2513639042 0.4480903282 0.5012339616
0.3734495879 0.4294644121 0.4857321213
0.4322567508 0.4622086978 0.5088536898
0.5109972163 0.4429144589 0.5058448197
0.5969178153 0.4336043486 0.4964482952
0.3047062511 0.5219774885 0.5297826394
0.3992640673 0.5498836071 0.5350425772
0.4722920838 0.5145302958 0.5285504073
0.5373550281 0.5373550281 0.5373550281
0.6214926390 0.5253132456 0.5308178082
0.0151086516 0.6947651284 0.6367494696
0.4009366698 0.6442420096 0.5826786173
0.4512113420 0.6454948153 0.5859411643
0.5206650181 0.6384682648 0.5643705689
0.6569919175 0.6360459882 0.5718608161
0.0490399324 0.1435921565 0.6782246529
0.2963515428 0.0668506527 0.4972623782
0.4422261716 0.1665195200 0.6573676514
0.5780224036 0.0221413801 0.4861123368
0.6670236710 0.0033252161 0.4742598026
0.1847274114 0.2764134430 0.6089154353
0.3706310275 0.3876400622 0.5682259410
0.4147115643 0.3721381652 0.5597698660
0.4875932575 0.3630013640 0.5615580323
0.7674672752 0.3575961306 0.5676361780
0.2230889774 0.4564169032 0.6677746967
0.3754007279 0.4514051187 0.6685276717
0.4487232528 0.4307907398 0.5937985241
0.5178530403 0.4586399995 0.5798252588
0.5499066149 0.4921757537 0.5772246525
0.1575987110 0.5439369840 0.6223159245
0.4131233635 0.5488898502 0.6160732593
0.4786160938 0.5310349340 0.5807599224
0.5492500708 0.5622092180 0.6251918310
0.6664642049 0.5350806424 0.6231990916
0.3103245260 0.6571030920 0.6883222044
0.4331696107 0.6196039955 0.6491811234
0.4829198103 0.6699210902 0.6756080487
0.5685059105 0.6606675706 0.6585405770
0.6774114966 0.6774114966 0.6774114966
