Luts/Panasonic-Standard/Conversion/GH7S2V.cube
TITLE "GH7 Standard to V-Log"
#LUMIXPHOTOSTYLE STD
# Globally fitted from paired decoded Standard/V-Log forward maps.
# No pointwise Standard inverse or empirical output colour patch is used.
# Samples=300000, smoothness=0.01, prior_weight=1.
LUT_3D_SIZE 33
0.1250305325 0.1250305325 0.1250305325
0.1628970582 0.1446161692 0.1394203957
0.2223091981 0.1854295618 0.1698035485
0.2774914214 0.2223909117 0.1930903649
0.3326736447 0.2593522617 0.2163771813
0.3275650290 0.2391589821 0.1974163811
0.3224564132 0.2189657025 0.1784555809
0.3173477974 0.1987724229 0.1594947807
0.3122391816 0.1785791434 0.1405339805
0.3252867426 0.1941106795 0.1564124878
0.3383343035 0.2096422156 0.1722909951
0.3513818645 0.2251737517 0.1881695023
0.3644294254 0.2407052878 0.2040480096
0.3713928341 0.2391682344 0.1964475356
0.3783562429 0.2376311809 0.1888470616
0.3853196516 0.2360941275 0.1812465875
0.3922830604 0.2345570740 0.1736461135
0.4002996156 0.2389497865 0.1740985288
0.4083161707 0.2433424990 0.1745509441
0.4163327259 0.2477352115 0.1750033594
0.4243492811 0.2521279240 0.1754557747
0.4330933861 0.2541119290 0.1749923141
0.4418374911 0.2560959341 0.1745288535
0.4505815961 0.2580799391 0.1740653929
0.4593257011 0.2600639442 0.1736019323
0.4651123539 0.2622552835 0.1733007372
0.4708990067 0.2644466228 0.1729995422
0.4766856595 0.2666379621 0.1726983471
0.4824723124 0.2688293014 0.1723971520
0.4667015166 0.2824698336 0.1463530180
0.4509307209 0.2961103657 0.1203088840
0.4351599251 0.3097508978 0.0942647499
0.4193891294 0.3233914299 0.0682206159
0.1425909807 0.1647475982 0.1375063870
0.1777923446 0.1817143114 0.1531573313
0.2296148938 0.2151161600 0.1797284695
0.2710118921 0.2383744196 0.1972913425
0.3124088904 0.2616326791 0.2148542156
0.3144328437 0.2495674763 0.2018899257
0.3164567970 0.2375022734 0.1889256358
0.3184807503 0.2254370705 0.1759613460
0.3205047036 0.2133718677 0.1629970561
0.3321306276 0.2244376577 0.1724298337
0.3437565517 0.2355034478 0.1818626114
0.3553824757 0.2465692378 0.1912953890
0.3670083998 0.2576350278 0.2007281666
0.3745651660 0.2573849779 0.1915089839
0.3821219322 0.2571349279 0.1822898013
0.3896786984 0.2568848780 0.1730706186
0.3972354646 0.2566348280 0.1638514359
0.4062725805 0.2595310952 0.1686398380
0.4153096964 0.2624273623 0.1734282402
0.4243468123 0.2653236294 0.1782166423
0.4333839282 0.2682198965 0.1830050444
0.4412468829 0.2697830326 0.1824163922
0.4491098376 0.2713461687 0.1818277400
0.4569727923 0.2729093048 0.1812390878
0.4648357470 0.2744724409 0.1806504356
0.4709426676 0.2765818240 0.1837139808
0.4770495882 0.2786912071 0.1867775261
0.4831565088 0.2808005902 0.1898410714
0.4892634294 0.2829099733 0.1929046167
0.4781080360 0.2926846801 0.1685483597
0.4669526426 0.3024593869 0.1441921026
0.4557972492 0.3122340937 0.1198358456
0.4446418558 0.3220088005 0.0954795886
0.1816970431 0.2256924198 0.1659755312
0.2093088163 0.2352475890 0.1778144608
0.2369205896 0.2448027582 0.1896533905
0.2645323629 0.2543579274 0.2014923201
0.2921441361 0.2639130966 0.2133312498
0.3013006585 0.2599759704 0.2063634703
0.3104571809 0.2560388443 0.1993956908
0.3196137032 0.2521017182 0.1924279112
0.3287702256 0.2481645920 0.1854601317
0.3389745127 0.2547646360 0.1884471797
0.3491787999 0.2613646799 0.1914342277
0.3593830870 0.2679647239 0.1944212756
0.3695873741 0.2745647678 0.1974083236
0.3777374978 0.2756017214 0.1865704323
0.3858876215 0.2766386749 0.1757325410
0.3940377451 0.2776756285 0.1648946496
0.4021878688 0.2787125820 0.1540567583
0.4122455454 0.2801124038 0.1631811473
0.4223032220 0.2815122256 0.1723055362
0.4323608986 0.2829120473 0.1814299252
0.4424185752 0.2843118691 0.1905543141
0.4494003796 0.2854541362 0.1898404703
0.4563821841 0.2865964033 0.1891266265
0.4633639885 0.2877386705 0.1884127826
0.4703457929 0.2888809376 0.1876989388
0.4767729813 0.2909083645 0.1941272244
0.4832001696 0.2929357913 0.2005555100
0.4896273580 0.2949632182 0.2069837957
0.4960545464 0.2969906451 0.2134120813
0.4895145553 0.3028995266 0.1907437013
0.4829745643 0.3088084081 0.1680753213
0.4764345733 0.3147172896 0.1454069413
0.4698945823 0.3206261711 0.1227385613
0.2165731889 0.2827851987 0.1873483389
0.2303997371 0.2786372775 0.1934633252
0.2442262854 0.2744893564 0.1995783115
0.2580528336 0.2703414352 0.2056932977
0.2718793818 0.2661935140 0.2118082840
0.2881684733 0.2703844646 0.2108370148
0.3044575647 0.2745754152 0.2098657457
0.3207466561 0.2787663658 0.2088944765
0.3370357475 0.2829573163 0.2079232073
0.3458183978 0.2850916142 0.2044645256
0.3546010480 0.2872259121 0.2010058440
0.3633836983 0.2893602100 0.1975471623
0.3721663485 0.2914945079 0.1940884806
0.3809098297 0.2938184649 0.1816318806
0.3896533108 0.2961424219 0.1691752807
0.3983967919 0.2984663790 0.1567186807
0.4071402730 0.3007903360 0.1442620807
0.4182185103 0.3006937124 0.1577224565
0.4292967476 0.3005970888 0.1711828323
0.4403749849 0.3005004652 0.1846432081
0.4514532223 0.3004038416 0.1981035839
0.4575538764 0.3011252398 0.1972645484
0.4636545305 0.3018466380 0.1964255129
0.4697551847 0.3025680361 0.1955864775
0.4758558388 0.3032894343 0.1947474420
0.4826032950 0.3052349049 0.2045404680
0.4893507511 0.3071803756 0.2143334940
0.4960982072 0.3091258462 0.2241265200
0.5028456634 0.3110713169 0.2339195459
0.5009210747 0.3131143731 0.2129390429
0.4989964861 0.3151574293 0.1919585400
0.4970718974 0.3172004855 0.1709780370
0.4951473088 0.3192435418 0.1499975340
0.2514493347 0.3398779776 0.2087211466
0.2514906579 0.3220269661 0.2091121895
0.2515319811 0.3041759546 0.2095032324
0.2515733043 0.2863249430 0.2098942753
0.2516146276 0.2684739315 0.2102853183
0.2750362880 0.2807929588 0.2153105594
0.2984579485 0.2931119861 0.2203358006
0.3218796090 0.3054310134 0.2253610418
0.3453012695 0.3177500407 0.2303862829
0.3526622828 0.3154185925 0.2204818716
0.3600232962 0.3130871443 0.2105774603
0.3673843096 0.3107556961 0.2006730490
0.3747453229 0.3084242479 0.1907686376
0.3840821615 0.3120352084 0.1766933290
0.3934190001 0.3156461690 0.1626180204
0.4027558387 0.3192571295 0.1485427117
0.4120926772 0.3228680900 0.1344674031
0.4241914752 0.3212750211 0.1522637657
0.4362902733 0.3196819521 0.1700601283
0.4483890713 0.3180888832 0.1878564910
0.4604878693 0.3164958142 0.2056528536
0.4657073732 0.3167963434 0.2046886265
0.4709268770 0.3170968726 0.2037243994
0.4761463809 0.3173974018 0.2027601723
0.4813658847 0.3176979310 0.2017959453
0.4884336086 0.3195614454 0.2149537116
0.4955013325 0.3214249598 0.2281114779
0.5025690564 0.3232884742 0.2412692442
0.5096367804 0.3251519887 0.2544270106
0.5123275941 0.3233292196 0.2351343846
0.5150184078 0.3215064505 0.2158417586
0.5177092216 0.3196836815 0.1965491327
0.5204000353 0.3178609124 0.1772565067
0.2474425144 0.3299891859 0.2073267710
0.2549599003 0.3212043834 0.2084384433
0.2624772862 0.3124195810 0.2095501156
0.2699946720 0.3036347786 0.2106617878
0.2775120579 0.2948499761 0.2117734601
0.2946378573 0.3019103910 0.2167920260
0.3117636566 0.3089708059 0.2218105920
0.3288894560 0.3160312208 0.2268291579
0.3460152553 0.3230916358 0.2318477238
0.3544937125 0.3234861671 0.2245233684
0.3629721697 0.3238806983 0.2171990131
0.3714506269 0.3242752296 0.2098746577
0.3799290841 0.3246697609 0.2025503024
0.3883300079 0.3270610043 0.1893736833
0.3967309317 0.3294522476 0.1761970643
0.4051318555 0.3318434910 0.1630204452
0.4135327793 0.3342347343 0.1498438262
0.4245067367 0.3337234988 0.1651459969
0.4354806940 0.3332122633 0.1804481675
0.4464546514 0.3327010278 0.1957503382
0.4574286087 0.3321897923 0.2110525089
0.4638637537 0.3324404686 0.2089397412
0.4702988986 0.3326911450 0.2068269734
0.4767340436 0.3329418213 0.2047142057
0.4831691885 0.3331924976 0.2026014380
0.4958805970 0.3281037828 0.2074657517
0.5085920054 0.3230150679 0.2123300654
0.5213034138 0.3179263530 0.2171943791
0.5340148223 0.3128376381 0.2220586928
0.5375858921 0.3109660187 0.2055238796
0.5411569620 0.3090943993 0.1889890663
0.5447280319 0.3072227799 0.1724542531
0.5482991017 0.3053511605 0.1559194398
0.2434356941 0.3201003942 0.2059323954
0.2584291427 0.3203818008 0.2077646970
0.2734225912 0.3206632075 0.2095969987
0.2884160397 0.3209446141 0.2114293003
0.3034094883 0.3212260207 0.2132616020
0.3142394265 0.3230278233 0.2182734927
0.3250693647 0.3248296258 0.2232853833
0.3358993029 0.3266314283 0.2282972740
0.3467292412 0.3284332309 0.2333091647
0.3563251422 0.3315537417 0.2285648653
0.3659210433 0.3346742524 0.2238205659
0.3755169443 0.3377947632 0.2190762665
0.3851128454 0.3409152740 0.2143319671
0.3925778544 0.3420868002 0.2020540376
0.4000428634 0.3432583263 0.1897761082
0.4075078724 0.3444298525 0.1774981787
0.4149728814 0.3456013786 0.1652202492
0.4248219981 0.3461719766 0.1780282280
0.4346711148 0.3467425745 0.1908362067
0.4445202315 0.3473131724 0.2036441855
0.4543693482 0.3478837704 0.2164521642
0.4620201342 0.3480845938 0.2131908558
0.4696709203 0.3482854173 0.2099295474
0.4773217063 0.3484862408 0.2066682390
0.4849724924 0.3486870643 0.2034069307
0.5033275853 0.3366461201 0.1999777918
0.5216826783 0.3246051759 0.1965486529
0.5400377712 0.3125642318 0.1931195140
0.5583928642 0.3005232876 0.1896903751
0.5628441902 0.2986028178 0.1759133746
0.5672955162 0.2966823481 0.1621363740
0.5717468422 0.2947618783 0.1483593735
0.5761981682 0.2928414085 0.1345823729
0.2394288738 0.3102116025 0.2045380198
0.2618983850 0.3195592182 0.2070909508
0.2843678962 0.3289068339 0.2096438818
0.3068374074 0.3382544496 0.2121968128
0.3293069186 0.3476020654 0.2147497439
0.3338409957 0.3441452555 0.2197549593
0.3383750728 0.3406884457 0.2247601747
0.3429091499 0.3372316358 0.2297653901
0.3474432270 0.3337748260 0.2347706056
0.3581565719 0.3396213162 0.2326063621
0.3688699168 0.3454678065 0.2304421187
0.3795832617 0.3513142968 0.2282778753
0.3902966066 0.3571607871 0.2261136318
0.3968257008 0.3571125960 0.2147343920
0.4033547950 0.3570644050 0.2033551521
0.4098838892 0.3570162139 0.1919759122
0.4164129834 0.3569680229 0.1805966723
0.4251372595 0.3586204543 0.1909104591
0.4338615355 0.3602728857 0.2012242459
0.4425858116 0.3619253171 0.2115380327
0.4513100876 0.3635777484 0.2218518195
0.4601765148 0.3637287191 0.2174419705
0.4690429419 0.3638796897 0.2130321214
0.4779093690 0.3640306603 0.2086222724
0.4867757962 0.3641816309 0.2042124234
0.5107745737 0.3451884574 0.1924898319
0.5347733511 0.3261952840 0.1807672404
0.5587721286 0.3072021105 0.1690446489
0.5827709061 0.2882089370 0.1573220574
0.5881024882 0.2862396169 0.1463028696
0.5934340704 0.2842702968 0.1352836817
0.5987656525 0.2823009767 0.1242644939
0.6040972346 0.2803316566 0.1132453061
0.2354220535 0.3003228107 0.2031436441
0.2653676274 0.3187366356 0.2064172045
0.2953132012 0.3371504604 0.2096907649
0.3252587751 0.3555642852 0.2129643253
0.3552043490 0.3739781100 0.2162378857
0.3534425649 0.3652626878 0.2212364259
0.3516807809 0.3565472655 0.2262349661
0.3499189969 0.3478318433 0.2312335063
0.3481572128 0.3391164211 0.2362320464
0.3599880016 0.3476888908 0.2366478590
0.3718187903 0.3562613606 0.2370636715
0.3836495791 0.3648338304 0.2374794840
0.3954803679 0.3734063001 0.2378952966
0.4010735473 0.3721383919 0.2274147463
0.4066667267 0.3708704837 0.2169341960
0.4122599061 0.3696025754 0.2064536457
0.4178530855 0.3683346672 0.1959730954
0.4254525209 0.3710689320 0.2037926902
0.4330519563 0.3738031969 0.2116122851
0.4406513917 0.3765374617 0.2194318799
0.4482508270 0.3792717265 0.2272514748
0.4583328953 0.3793728443 0.2216930851
0.4684149635 0.3794739620 0.2161346954
0.4784970318 0.3795750798 0.2105763057
0.4885791000 0.3796761976 0.2050179161
0.5182215620 0.3537307948 0.1850018720
0.5478640240 0.3277853920 0.1649858279
0.5775064860 0.3018399893 0.1449697838
0.6071489480 0.2758945865 0.1249537397
0.6133607863 0.2738764160 0.1166923646
0.6195726245 0.2718582456 0.1084309894
0.6257844628 0.2698400751 0.1001696143
0.6319963010 0.2678219047 0.0919082392
0.2106500150 0.3219006784 0.2198043397
0.2455339611 0.3344677921 0.2254240355
0.2804179072 0.3470349058 0.2310437313
0.3153018532 0.3596020195 0.2366634272
0.3501857993 0.3721691332 0.2422831230
0.3515953446 0.3697681032 0.2384378678
0.3530048900 0.3673670733 0.2345926126
0.3544144354 0.3649660434 0.2307473574
0.3558239807 0.3625650135 0.2269021022
0.3654541219 0.3665512709 0.2329264440
0.3750842631 0.3705375283 0.2389507858
0.3847144043 0.3745237858 0.2449751276
0.3943445455 0.3785100432 0.2509994694
0.4016180516 0.3794277729 0.2383484419
0.4088915576 0.3803455025 0.2256974145
0.4161650636 0.3812632322 0.2130463870
0.4234385697 0.3821809619 0.2003953595
0.4308089661 0.3842461960 0.2087848961
0.4381793625 0.3863114301 0.2171744326
0.4455497589 0.3883766642 0.2255639691
0.4529201553 0.3904418983 0.2339535056
0.4618830592 0.3903504560 0.2289318821
0.4708459631 0.3902590137 0.2239102585
0.4798088670 0.3901675713 0.2188886350
0.4887717709 0.3900761290 0.2138670114
0.5151463451 0.3711548633 0.1982618354
0.5415209192 0.3522335976 0.1826566594
0.5678954933 0.3333123319 0.1670514834
0.5942700675 0.3143910662 0.1514463075
0.5969142641 0.3060123952 0.1358972225
0.5995584607 0.2976337243 0.1203481375
0.6022026573 0.2892550534 0.1047990525
0.6048468539 0.2808763824 0.0892499675
0.1858779766 0.3434785460 0.2364650352
0.2257002948 0.3501989486 0.2444308665
0.2655226131 0.3569193512 0.2523966977
0.3053449313 0.3636397538 0.2603625290
0.3451672496 0.3703601564 0.2683283602
0.3497481243 0.3742735187 0.2556393096
0.3543289991 0.3781868811 0.2429502590
0.3589098739 0.3821002435 0.2302612085
0.3634907486 0.3860136059 0.2175721579
0.3709202423 0.3854136510 0.2292050290
0.3783497359 0.3848136961 0.2408379000
0.3857792296 0.3842137412 0.2524707711
0.3932087232 0.3836137863 0.2641036422
0.4021625559 0.3867171538 0.2492821376
0.4111163885 0.3898205214 0.2344606329
0.4200702212 0.3929238890 0.2196391283
0.4290240538 0.3960272565 0.2048176237
0.4361654113 0.3974234599 0.2137771019
0.4433067687 0.3988196633 0.2227365801
0.4504481261 0.4002158667 0.2316960583
0.4575894836 0.4016120701 0.2406555365
0.4654332231 0.4013280677 0.2361706791
0.4732769627 0.4010440653 0.2316858216
0.4811207023 0.4007600629 0.2272009642
0.4889644418 0.4004760604 0.2227161067
0.5120711281 0.3885789318 0.2115217988
0.5351778144 0.3766818032 0.2003274910
0.5582845006 0.3647846745 0.1891331831
0.5813911869 0.3528875459 0.1779388752
0.5804677419 0.3381483745 0.1551020804
0.5795442968 0.3234092030 0.1322652855
0.5786208518 0.3086700316 0.1094284907
0.5776974067 0.2939308602 0.0865916958
0.1611059382 0.3650564137 0.2531257308
0.2058666286 0.3659301051 0.2634376975
0.2506273190 0.3668037966 0.2737496641
0.2953880094 0.3676774881 0.2840616308
0.3401486999 0.3685511796 0.2943735974
0.3479009040 0.3787789342 0.2728407515
0.3556531082 0.3890066889 0.2513079055
0.3634053124 0.3992344436 0.2297750596
0.3711575165 0.4094621983 0.2082422136
0.3763863626 0.4042760310 0.2254836140
0.3816152087 0.3990898638 0.2427250143
0.3868440548 0.3939036966 0.2599664147
0.3920729009 0.3887175293 0.2772078150
0.4027070602 0.3940065348 0.2602158332
0.4133412195 0.3992955403 0.2432238514
0.4239753787 0.4045845458 0.2262318696
0.4346095380 0.4098735512 0.2092398878
0.4415218564 0.4106007239 0.2187693077
0.4484341749 0.4113278966 0.2282987276
0.4553464934 0.4120550693 0.2378281475
0.4622588118 0.4127822420 0.2473575673
0.4689833871 0.4123056794 0.2434094760
0.4757079623 0.4118291169 0.2394613847
0.4824325375 0.4113525544 0.2355132934
0.4891571128 0.4108759919 0.2315652021
0.5089959112 0.4060030003 0.2247817623
0.5288347096 0.4011300087 0.2179983225
0.5486735079 0.3962570172 0.2112148827
0.5685123063 0.3913840256 0.2044314430
0.5640212197 0.3702843537 0.1743069383
0.5595301330 0.3491846818 0.1441824336
0.5550390463 0.3280850098 0.1140579289
0.5505479596 0.3069853379 0.0839334242
0.1363338997 0.3866342813 0.2697864263
0.1860329623 0.3816612617 0.2824445284
0.2357320249 0.3766882420 0.2951026305
0.2854310876 0.3717152224 0.3077607326
0.3351301502 0.3667422028 0.3204188347
0.3460536837 0.3832843497 0.2900421933
0.3569772173 0.3998264967 0.2596655520
0.3679007509 0.4163686437 0.2292889107
0.3788242844 0.4329107906 0.1989122694
0.3818524830 0.4231384111 0.2217621990
0.3848806815 0.4133660315 0.2446121286
0.3879088801 0.4035936520 0.2674620582
0.3909370786 0.3938212724 0.2903119878
0.4032515645 0.4012959158 0.2711495289
0.4155660504 0.4087705592 0.2519870699
0.4278805363 0.4162452025 0.2328246109
0.4401950221 0.4237198459 0.2136621520
0.4468783016 0.4237779879 0.2237615135
0.4535615811 0.4238361298 0.2338608751
0.4602448606 0.4238942718 0.2439602366
0.4669281401 0.4239524138 0.2540595982
0.4725335510 0.4232832912 0.2506482730
0.4781389619 0.4226141686 0.2472369478
0.4837443728 0.4219450459 0.2438256226
0.4893497837 0.4212759233 0.2404142974
0.5059206942 0.4234270688 0.2380417257
0.5224916047 0.4255782143 0.2356691540
0.5390625153 0.4277293598 0.2332965824
0.5556334258 0.4298805053 0.2309240107
0.5475746974 0.4024203329 0.1935117962
0.5395159691 0.3749601605 0.1560995816
0.5314572408 0.3474999881 0.1186873671
0.5233985124 0.3200398157 0.0812751525
0.1382781786 0.3966339626 0.2664257536
0.1859804353 0.3908576371 0.2752859651
0.2336826920 0.3850813116 0.2841461766
0.2813849487 0.3793049862 0.2930063880
0.3290872054 0.3735286607 0.3018665995
0.3368326426 0.3847623282 0.2734890127
0.3445780797 0.3959959957 0.2451114259
0.3523235169 0.4072296632 0.2167338391
0.3600689541 0.4184633307 0.1883562523
0.3660768814 0.4122042143 0.2113196767
0.3720848087 0.4059450980 0.2342831011
0.3780927361 0.3996859816 0.2572465254
0.3841006634 0.3934268652 0.2802099498
0.3999338858 0.4047102723 0.2689429697
0.4157671083 0.4159936795 0.2576759897
0.4316003307 0.4272770866 0.2464090096
0.4474335532 0.4385604937 0.2351420296
0.4535243728 0.4368609286 0.2436642056
0.4596151924 0.4351613634 0.2521863816
0.4657060120 0.4334617983 0.2607085577
0.4717968317 0.4317622332 0.2692307337
0.4776198295 0.4324600209 0.2610978169
0.4834428274 0.4331578086 0.2529649001
0.4892658252 0.4338555964 0.2448319832
0.4950888230 0.4345533841 0.2366990664
0.5101455685 0.4368132749 0.2403825259
0.5252023140 0.4390731656 0.2440659854
0.5402590595 0.4413330564 0.2477494449
0.5553158049 0.4435929471 0.2514329044
0.5486836576 0.4192463385 0.2196898378
0.5420515102 0.3948997299 0.1879467713
0.5354193629 0.3705531212 0.1562037047
0.5287872155 0.3462065126 0.1244606382
0.1402224575 0.4066336439 0.2630650809
0.1859279083 0.4000540126 0.2681274018
0.2316333591 0.3934743813 0.2731897226
0.2773388099 0.3868947499 0.2782520435
0.3230442607 0.3803151186 0.2833143644
0.3276116015 0.3862403066 0.2569358321
0.3321789422 0.3921654947 0.2305572998
0.3367462829 0.3980906827 0.2041787675
0.3413136237 0.4040158708 0.1778002352
0.3503012798 0.4012700176 0.2008771544
0.3592889359 0.3985241644 0.2239540735
0.3682765921 0.3957783112 0.2470309927
0.3772642482 0.3930324580 0.2701079118
0.3966162072 0.4081246289 0.2667364106
0.4159681662 0.4232167998 0.2633649095
0.4353201252 0.4383089707 0.2599934083
0.4546720842 0.4534011415 0.2566219072
0.4601704439 0.4499438693 0.2635668977
0.4656688037 0.4464865970 0.2705118882
0.4711671635 0.4430293248 0.2774568787
0.4766655232 0.4395720525 0.2844018692
0.4827061080 0.4416367506 0.2715473608
0.4887466928 0.4437014487 0.2586928523
0.4947872776 0.4457661468 0.2458383439
0.5008278624 0.4478308449 0.2329838355
0.5143704428 0.4501994809 0.2427233261
0.5279130232 0.4525681170 0.2524628167
0.5414556036 0.4549367530 0.2622023074
0.5549981841 0.4573053890 0.2719417980
0.5497926177 0.4360723441 0.2458678794
0.5445870513 0.4148392993 0.2197939609
0.5393814850 0.3936062544 0.1937200423
0.5341759186 0.3723732095 0.1676461238
0.1421667364 0.4166333252 0.2597044082
0.1858753813 0.4092503880 0.2609688384
0.2295840262 0.4018674509 0.2622332687
0.2732926711 0.3944845137 0.2634976990
0.3170013160 0.3871015765 0.2647621292
0.3183905603 0.3877182851 0.2403826515
0.3197798046 0.3883349937 0.2160031737
0.3211690490 0.3889517023 0.1916236959
0.3225582933 0.3895684109 0.1672442182
0.3345256782 0.3903358208 0.1904346321
0.3464930631 0.3911032308 0.2136250460
0.3584604481 0.3918706408 0.2368154599
0.3704278330 0.3926380508 0.2600058738
0.3932985285 0.4115389854 0.2645298515
0.4161692241 0.4304399201 0.2690538293
0.4390399196 0.4493408547 0.2735778070
0.4619106152 0.4682417894 0.2781017848
0.4668165151 0.4630268100 0.2834695897
0.4717224150 0.4578118307 0.2888373947
0.4766283149 0.4525968513 0.2942051997
0.4815342148 0.4473818719 0.2995730047
0.4877923866 0.4508134804 0.2819969047
0.4940505583 0.4542450888 0.2644208046
0.5003087300 0.4576766972 0.2468447045
0.5065669018 0.4611083057 0.2292686045
0.5185953171 0.4635856870 0.2450641263
0.5306237325 0.4660630683 0.2608596481
0.5426521478 0.4685404496 0.2766551699
0.5546805632 0.4710178309 0.2924506916
0.5509015778 0.4528983498 0.2720459211
0.5471225924 0.4347788687 0.2516411505
0.5433436071 0.4166593876 0.2312363800
0.5395646217 0.3985399065 0.2108316094
0.1441110153 0.4266330065 0.2563437355
0.1858228543 0.4184467635 0.2538102751
0.2275346933 0.4102605205 0.2512768148
0.2692465323 0.4020742775 0.2487433544
0.3109583713 0.3938880345 0.2462098941
0.3091695192 0.3891962636 0.2238294709
0.3073806671 0.3845044927 0.2014490476
0.3055918150 0.3798127218 0.1790686244
0.3038029629 0.3751209509 0.1566882011
0.3187500766 0.3794016241 0.1799921098
0.3336971903 0.3836822973 0.2032960184
0.3486443041 0.3879629704 0.2265999271
0.3635914178 0.3922436436 0.2499038358
0.3899808499 0.4149533420 0.2623232924
0.4163702820 0.4376630404 0.2747427491
0.4427597141 0.4603727388 0.2871622057
0.4691491462 0.4830824372 0.2995816623
0.4734625862 0.4761097507 0.3033722818
0.4777760263 0.4691370643 0.3071629013
0.4820894664 0.4621643778 0.3109535208
0.4864029064 0.4551916913 0.3147441403
0.4928786651 0.4599902101 0.2924464486
0.4993544238 0.4647887289 0.2701487569
0.5058301825 0.4695872477 0.2478510652
0.5123059411 0.4743857665 0.2255533735
0.5228201914 0.4769718930 0.2474049265
0.5333344417 0.4795580196 0.2692564794
0.5438486920 0.4821441462 0.2911080324
0.5543629423 0.4847302728 0.3129595853
0.5520105379 0.4697243554 0.2982239627
0.5496581336 0.4547184381 0.2834883402
0.5473057292 0.4397125207 0.2687527176
0.5449533248 0.4247066034 0.2540170951
0.1102006918 0.4332603084 0.2359789068
0.1566403497 0.4251243416 0.2343040514
0.2030800076 0.4169883748 0.2326291959
0.2495196655 0.4088524080 0.2309543404
0.2959593235 0.4007164412 0.2292794849
0.2968677112 0.3959945623 0.2084714768
0.2977760989 0.3912726835 0.1876634687
0.2986844866 0.3865508046 0.1668554605
0.2995928743 0.3818289257 0.1460474524
0.3145278558 0.3859242358 0.1673976697
0.3294628373 0.3900195458 0.1887478870
0.3443978187 0.3941148559 0.2100981044
0.3593328002 0.3982101660 0.2314483217
0.3861426984 0.4195616249 0.2492695647
0.4129525965 0.4409130838 0.2670908078
0.4397624947 0.4622645427 0.2849120508
0.4665723929 0.4836160015 0.3027332939
0.4691285660 0.4780451190 0.3036778477
0.4716847391 0.4724742365 0.3046224015
0.4742409123 0.4669033540 0.3055669553
0.4767970854 0.4613324715 0.3065115091
0.4870247310 0.4667434330 0.2915813805
0.4972523766 0.4721543944 0.2766512518
0.5074800222 0.4775653559 0.2617211232
0.5177076679 0.4829763174 0.2467909946
0.5281565601 0.4861176118 0.2645964132
0.5386054523 0.4892589062 0.2824018319
0.5490543446 0.4924002006 0.3002072506
0.5595032368 0.4955414951 0.3180126693
0.5579859044 0.4833285593 0.3057264675
0.5564685720 0.4711156235 0.2934402658
0.5549512396 0.4589026877 0.2811540640
0.5534339072 0.4466897519 0.2688678622
0.0762903683 0.4398876103 0.2156140782
0.1274578451 0.4318019197 0.2147978276
0.1786253220 0.4237162291 0.2139815770
0.2297927988 0.4156305386 0.2131653263
0.2809602757 0.4075448480 0.2123490757
0.2845659032 0.4027928611 0.1931134827
0.2881715307 0.3980408742 0.1738778897
0.2917771582 0.3932888873 0.1546422967
0.2953827857 0.3885369004 0.1354067037
0.3103056350 0.3924468474 0.1548032297
0.3252284842 0.3963567944 0.1741997557
0.3401513334 0.4002667414 0.1935962816
0.3550741826 0.4041766884 0.2129928076
0.3823045469 0.4241699078 0.2362158370
