Luts/Panasonic-Standard/Conversion/L10S2V.cube
TITLE "DC-L10 Standard to V-Log"
#LUMIXPHOTOSTYLE STD
# Globally fitted from paired decoded Standard/V-Log forward maps.
# No pointwise Standard inverse or empirical output colour patch is used.
# Samples=300000, smoothness=0.01, prior_weight=1.
LUT_3D_SIZE 33
0.1250305325 0.1250305325 0.1250305325
0.1622276897 0.1442110264 0.1386541275
0.2215857033 0.1853808019 0.1699161054
0.2762418262 0.2216535514 0.1917428414
0.3308979491 0.2579263008 0.2135695773
0.3262304730 0.2380978330 0.1953014418
0.3215629969 0.2182693651 0.1770333063
0.3168955208 0.1984408973 0.1587651709
0.3122280447 0.1786124295 0.1404970354
0.3252758954 0.1941943606 0.1563685969
0.3383237460 0.2097762918 0.1722401584
0.3513715967 0.2253582230 0.1881117200
0.3644194474 0.2409401541 0.2039832815
0.3713850252 0.2393420507 0.1963981705
0.3783506029 0.2377439473 0.1888130595
0.3853161807 0.2361458439 0.1812279486
0.3922817585 0.2345477404 0.1736428376
0.4002816568 0.2389360224 0.1740922866
0.4082815552 0.2433243045 0.1745417356
0.4162814536 0.2477125865 0.1749911846
0.4242813519 0.2521008685 0.1754406336
0.4330423905 0.2540842729 0.1749741061
0.4418034290 0.2560676773 0.1745075787
0.4505644676 0.2580510817 0.1740410512
0.4593255061 0.2600344861 0.1735745238
0.4648643737 0.2620785058 0.1731229732
0.4704032412 0.2641225255 0.1726714225
0.4759421087 0.2661665453 0.1722198719
0.4814809762 0.2682105650 0.1717683213
0.4649050707 0.2791620051 0.1450368744
0.4483291651 0.2901134452 0.1183054275
0.4317532596 0.3010648853 0.0915739805
0.4151773540 0.3120163254 0.0648425336
0.1431999071 0.1652056622 0.1382787009
0.1778314523 0.1817904172 0.1533060938
0.2297206184 0.2155043331 0.1806540580
0.2706300286 0.2382051555 0.1971241156
0.3115394389 0.2609059779 0.2135941731
0.3137949960 0.2490094863 0.2009492706
0.3160505531 0.2371129947 0.1883043680
0.3183061101 0.2252165031 0.1756594655
0.3205616672 0.2133200114 0.1630145630
0.3321809194 0.2244470060 0.1724395164
0.3438001715 0.2355740006 0.1818644697
0.3554194237 0.2467009952 0.1912894231
0.3670386759 0.2578279897 0.2007143765
0.3745719614 0.2575168032 0.1914864668
0.3821052468 0.2572056167 0.1822585571
0.3896385323 0.2568944302 0.1730306474
0.3971718178 0.2565832436 0.1638027377
0.4062486900 0.2594933446 0.1685954450
0.4153255622 0.2624034456 0.1733881524
0.4244024345 0.2653135466 0.1781808598
0.4334793067 0.2682236476 0.1829735672
0.4412691609 0.2697939945 0.1824198726
0.4490590151 0.2713643415 0.1818661781
0.4568488692 0.2729346884 0.1813124836
0.4646387234 0.2745050353 0.1807587891
0.4708075588 0.2765483195 0.1837322806
0.4769763943 0.2785916038 0.1867057721
0.4831452297 0.2806348880 0.1896792636
0.4893140651 0.2826781723 0.1926527551
0.4772983831 0.2916996694 0.1667759951
0.4652827012 0.3007211666 0.1408992351
0.4532670193 0.3097426637 0.1150224751
0.4412513373 0.3187641609 0.0891457150
0.1835301381 0.2273700736 0.1691652524
0.2106928358 0.2364989690 0.1802786315
0.2378555334 0.2456278643 0.1913920106
0.2650182311 0.2547567597 0.2025053897
0.2921809288 0.2638856551 0.2136187688
0.3013595190 0.2599211397 0.2065970993
0.3105381092 0.2559566242 0.1995754297
0.3197166995 0.2519921088 0.1925537602
0.3288952897 0.2480275934 0.1855320906
0.3390859434 0.2546996514 0.1885104358
0.3492765971 0.2613717094 0.1914887810
0.3594672507 0.2680437674 0.1944671262
0.3696579044 0.2747158254 0.1974454714
0.3777588976 0.2756915557 0.1865747630
0.3858598907 0.2766672861 0.1757040546
0.3939608839 0.2776430165 0.1648333462
0.4020618771 0.2786187468 0.1539626377
0.4122157232 0.2800506668 0.1630986035
0.4223695693 0.2814825868 0.1722345692
0.4325234153 0.2829145068 0.1813705350
0.4426772614 0.2843464268 0.1905065008
0.4494959312 0.2855037162 0.1898656392
0.4563146011 0.2866610056 0.1892247776
0.4631332709 0.2878182951 0.1885839160
0.4699519407 0.2889755845 0.1879430545
0.4767507440 0.2910181332 0.1943415881
0.4835495473 0.2930606820 0.2007401217
0.4903483506 0.2951032308 0.2071386554
0.4971471539 0.2971457796 0.2135371890
0.4896916956 0.3042373338 0.1885151159
0.4822362373 0.3113288880 0.1634930427
0.4747807790 0.3184204421 0.1384709696
0.4673253207 0.3255119963 0.1134488964
0.2191584783 0.2846374589 0.1906165618
0.2325744634 0.2801944272 0.1963732625
0.2459904485 0.2757513955 0.2021299632
0.2594064335 0.2713083639 0.2078866639
0.2728224186 0.2668653322 0.2136433646
0.2889240420 0.2708327930 0.2122449280
0.3050256654 0.2748002538 0.2108464914
0.3211272888 0.2787677146 0.2094480549
0.3372289122 0.2827351754 0.2080496183
0.3459909674 0.2849522968 0.2045813553
0.3547530226 0.2871694182 0.2011130923
0.3635150777 0.2893865396 0.1976448294
0.3722771329 0.2916036610 0.1941765664
0.3809458338 0.2938663083 0.1816630593
0.3896145346 0.2961289555 0.1691495521
0.3982832355 0.2983916028 0.1566360450
0.4069519364 0.3006542500 0.1441225378
0.4181827563 0.3006079890 0.1576017620
0.4294135763 0.3005617280 0.1710809861
0.4406443962 0.3005154670 0.1845602102
0.4518752162 0.3004692060 0.1980394343
0.4577227016 0.3012134379 0.1973114057
0.4635701871 0.3019576698 0.1965833771
0.4694176726 0.3027019017 0.1958553484
0.4752651580 0.3034461337 0.1951273198
0.4826939292 0.3054879470 0.2049508956
0.4901227004 0.3075297603 0.2147744713
0.4975514716 0.3095715736 0.2245980471
0.5049802428 0.3116133869 0.2344216229
0.5020850081 0.3167749981 0.2102542366
0.4991897734 0.3219366093 0.1860868504
0.4962945387 0.3270982205 0.1619194641
0.4933993040 0.3322598317 0.1377520779
0.2547868186 0.3419048441 0.2120678712
0.2544560911 0.3238898854 0.2124678935
0.2541253635 0.3058749268 0.2128679158
0.2537946360 0.2878599681 0.2132679380
0.2534639084 0.2698450094 0.2136679603
0.2764885650 0.2817444464 0.2178927567
0.2995132216 0.2936438834 0.2221175531
0.3225378782 0.3055433204 0.2263423495
0.3455625347 0.3174427574 0.2305671459
0.3528959914 0.3152049422 0.2206522748
0.3602294481 0.3129671270 0.2107374037
0.3675629047 0.3107293118 0.2008225325
0.3748963614 0.3084914966 0.1909076614
0.3841327700 0.3120410608 0.1767513555
0.3933691786 0.3155906249 0.1625950496
0.4026055871 0.3191401891 0.1484387438
0.4118419957 0.3226897532 0.1342824379
0.4241497895 0.3211653112 0.1521049204
0.4364575833 0.3196408692 0.1699274029
0.4487653771 0.3181164272 0.1877498854
0.4610731709 0.3165919852 0.2055723679
0.4659494720 0.3169231596 0.2047571722
0.4708257731 0.3172543340 0.2039419765
0.4757020742 0.3175855084 0.2031267808
0.4805783753 0.3179166829 0.2023115851
0.4886371144 0.3199577607 0.2155602030
0.4966958535 0.3219988385 0.2288088209
0.5047545925 0.3240399164 0.2420574388
0.5128133316 0.3260809942 0.2553060567
0.5144783205 0.3293126625 0.2319933574
0.5161433095 0.3325443307 0.2086806580
0.5178082984 0.3357759990 0.1853679586
0.5194732873 0.3390076672 0.1620552593
0.2497206352 0.3310908533 0.2094158482
0.2568373949 0.3222603410 0.2103766269
0.2639541545 0.3134298286 0.2113374056
0.2710709142 0.3045993162 0.2122981842
0.2781876739 0.2957688038 0.2132589629
0.2950592284 0.3024810465 0.2178887090
0.3119307829 0.3091932892 0.2225184551
0.3288023375 0.3159055319 0.2271482012
0.3456738920 0.3226177745 0.2317779472
0.3542640888 0.3231556976 0.2244957647
0.3628542856 0.3236936206 0.2172135822
0.3714444824 0.3242315436 0.2099313997
0.3800346792 0.3247694667 0.2026492172
0.3883625003 0.3270970895 0.1894138373
0.3966903214 0.3294247124 0.1761784575
0.4050181425 0.3317523353 0.1629430777
0.4133459636 0.3340799581 0.1497076979
0.4244453978 0.3336208780 0.1650302188
0.4355448321 0.3331617978 0.1803527397
0.4466442663 0.3327027176 0.1956752606
0.4577437005 0.3322436374 0.2109977815
0.4639799107 0.3325120059 0.2089894547
0.4702161209 0.3327803744 0.2069811280
0.4764523311 0.3330487428 0.2049728012
0.4826885412 0.3333171113 0.2029644745
0.5069892725 0.3344462078 0.2091961579
0.5312900037 0.3355753043 0.2154278413
0.5555907349 0.3367044008 0.2216595246
0.5798914662 0.3378334974 0.2278912080
0.5726649408 0.3384678278 0.2069231259
0.5654384155 0.3391021582 0.1859550438
0.5582118901 0.3397364886 0.1649869617
0.5509853648 0.3403708190 0.1440188797
0.2446544518 0.3202768625 0.2067638252
0.2592186987 0.3206307965 0.2082853603
0.2737829455 0.3209847304 0.2098068954
0.2883471924 0.3213386644 0.2113284305
0.3029114393 0.3216925983 0.2128499655
0.3136298918 0.3232176467 0.2178846613
0.3243483442 0.3247426950 0.2229193570
0.3350667967 0.3262677433 0.2279540528
0.3457852492 0.3277927917 0.2329887485
0.3556321862 0.3311064529 0.2283392546
0.3654791231 0.3344201142 0.2236897607
0.3753260600 0.3377337755 0.2190402668
0.3851729970 0.3410474367 0.2143907729
0.3925922306 0.3421531183 0.2020763192
0.4000114642 0.3432587999 0.1897618655
0.4074306979 0.3443644815 0.1774474117
0.4148499315 0.3454701631 0.1651329580
0.4247410062 0.3460764447 0.1779555172
0.4346320808 0.3466827264 0.1907780765
0.4445231555 0.3472890080 0.2036006357
0.4544142302 0.3478952896 0.2164231950
0.4620103494 0.3481008522 0.2132217372
0.4696064687 0.3483064147 0.2100202794
0.4772025879 0.3485119773 0.2068188217
0.4847987072 0.3487175398 0.2036173639
0.5253414306 0.3489346550 0.2028321128
0.5658841540 0.3491517701 0.2020468616
0.6064268774 0.3493688853 0.2012616105
0.6469696008 0.3495860005 0.2004763593
0.6308515611 0.3476229930 0.1818528945
0.6147335215 0.3456599856 0.1632294297
0.5986154818 0.3436969782 0.1446059649
0.5824974422 0.3417339707 0.1259825000
0.2395882684 0.3094628717 0.2041118023
0.2616000025 0.3190012520 0.2061940937
0.2836117365 0.3285396322 0.2082763852
0.3056234706 0.3380780125 0.2103586767
0.3276352047 0.3476163928 0.2124409681
0.3322005551 0.3439542468 0.2178806136
0.3367659056 0.3402921008 0.2233202590
0.3413312560 0.3366299548 0.2287599044
0.3458966065 0.3329678088 0.2341995499
0.3570002835 0.3390572083 0.2321827446
0.3681039606 0.3451466078 0.2301659393
0.3792076377 0.3512360073 0.2281491340
0.3903113148 0.3573254068 0.2261323287
0.3968219609 0.3572091471 0.2147388010
0.4033326071 0.3570928874 0.2033452734
0.4098432532 0.3569766277 0.1919517457
0.4163538994 0.3568603680 0.1805582180
0.4250366145 0.3585320115 0.1908808156
0.4337193296 0.3602036549 0.2012034132
0.4424020447 0.3618752984 0.2115260108
0.4510847598 0.3635469419 0.2218486085
0.4600407881 0.3636896985 0.2174540197
0.4689968164 0.3638324551 0.2130594309
0.4779528447 0.3639752117 0.2086648421
0.4869088731 0.3641179683 0.2042702533
0.5436935886 0.3634231021 0.1964680676
0.6004783042 0.3627282359 0.1886658820
0.6572630198 0.3620333698 0.1808636963
0.7140477353 0.3613385036 0.1730615106
0.6890381814 0.3567781583 0.1567826631
0.6640286275 0.3522178131 0.1405038155
0.6390190736 0.3476574678 0.1242249680
0.6140095196 0.3430971225 0.1079461204
0.2345220850 0.2986488809 0.2014597793
0.2639813063 0.3173717075 0.2041028271
0.2934405275 0.3360945341 0.2067458750
0.3228997488 0.3548173607 0.2093889229
0.3523589701 0.3735401872 0.2120319707
0.3507712185 0.3646908469 0.2178765658
0.3491834669 0.3558415066 0.2237211609
0.3475957153 0.3469921663 0.2295657561
0.3460079637 0.3381428260 0.2354103512
0.3583683809 0.3470079637 0.2360262345
0.3707287981 0.3558731014 0.2366421178
0.3830892154 0.3647382391 0.2372580012
0.3954496326 0.3736033768 0.2378738845
0.4010516913 0.3722651758 0.2274012829
0.4066537499 0.3709269749 0.2169286813
0.4122558086 0.3695887739 0.2064560797
0.4178578673 0.3682505729 0.1959834780
0.4253322228 0.3709875782 0.2038061140
0.4328065784 0.3737245835 0.2116287500
0.4402809339 0.3764615888 0.2194513860
0.4477552894 0.3791985941 0.2272740220
0.4580712268 0.3792785448 0.2216863021
0.4683871642 0.3793584954 0.2160985823
0.4787031016 0.3794384461 0.2105108625
0.4890190390 0.3795183967 0.2049231427
0.5620457467 0.3779115492 0.1901040225
0.6350724544 0.3763047017 0.1752849023
0.7080991622 0.3746978542 0.1604657821
0.7811258699 0.3730910067 0.1456466619
0.7472248017 0.3659333236 0.1317124317
0.7133237335 0.3587756405 0.1177782014
0.6794226653 0.3516179574 0.1038439711
0.6455215971 0.3444602743 0.0899097408
0.2021536946 0.3204868102 0.2137158034
0.2397609788 0.3335589377 0.2205189765
0.2773682631 0.3466310653 0.2273221497
0.3149755474 0.3597031928 0.2341253229
0.3525828317 0.3727753203 0.2409284961
0.3530876657 0.3701109919 0.2373318036
0.3535924996 0.3674466634 0.2337351112
0.3540973336 0.3647823349 0.2301384188
0.3546021675 0.3621180065 0.2265417263
0.3644678023 0.3661688593 0.2325823018
0.3743334370 0.3702197121 0.2386228774
0.3841990718 0.3742705649 0.2446634529
0.3940647065 0.3783214177 0.2507040284
0.4014154932 0.3792794964 0.2381357420
0.4087662799 0.3802375751 0.2255674557
0.4161170666 0.3811956539 0.2129991693
0.4234678533 0.3821537326 0.2004308829
0.4307478352 0.3842165030 0.2088193029
0.4380278171 0.3862792735 0.2172077229
0.4453077991 0.3883420439 0.2255961429
0.4525877810 0.3904048143 0.2339845629
0.4617262883 0.3903340106 0.2289473899
0.4708647955 0.3902632070 0.2239102169
0.4800033028 0.3901924033 0.2188730439
0.4891418100 0.3901215996 0.2138358710
0.5501072175 0.3903055666 0.2024742480
0.6110726250 0.3904895336 0.1911126251
0.6720380325 0.3906735006 0.1797510021
0.7330034400 0.3908574676 0.1683893792
0.7117479104 0.3823866817 0.1538715616
0.6904923807 0.3739158957 0.1393537441
0.6692368511 0.3654451098 0.1248359266
0.6479813214 0.3569743239 0.1103181091
0.1697853041 0.3423247395 0.2259718274
0.2155406514 0.3497461680 0.2369351259
0.2612959987 0.3571675965 0.2478984244
0.3070513460 0.3645890250 0.2588617229
0.3528066933 0.3720104535 0.2698250214
0.3554041128 0.3755311368 0.2567870414
0.3580015323 0.3790518202 0.2437490615
0.3605989518 0.3825725036 0.2307110815
0.3631963714 0.3860931869 0.2176731015
0.3705672236 0.3853297548 0.2291383692
0.3779380759 0.3845663227 0.2406036369
0.3853089282 0.3838028906 0.2520689046
0.3926797805 0.3830394585 0.2635341723
0.4017792952 0.3862938170 0.2488702012
0.4108788099 0.3895481754 0.2342062300
0.4199783246 0.3928025339 0.2195422589
0.4290778393 0.3960568923 0.2048782878
0.4361634476 0.3974454279 0.2138324918
0.4432490559 0.3988339634 0.2227866958
0.4503346642 0.4002224989 0.2317408998
0.4574202726 0.4016110344 0.2406951038
0.4653813497 0.4013894765 0.2362084776
0.4733424268 0.4011679185 0.2317218515
0.4813035040 0.4009463605 0.2272352254
0.4892645811 0.4007248025 0.2227485992
0.5381686884 0.4026995840 0.2148444735
0.5870727956 0.4046743655 0.2069403478
0.6359769029 0.4066491470 0.1990362221
0.6848810102 0.4086239285 0.1911320964
0.6762710191 0.3988400398 0.1760306916
0.6676610280 0.3890561510 0.1609292869
0.6590510369 0.3792722622 0.1458278821
0.6504410458 0.3694883735 0.1307264773
0.1374169136 0.3641626688 0.2382278515
0.1913203240 0.3659333982 0.2533512753
0.2452237343 0.3677041277 0.2684746992
0.2991271446 0.3694748571 0.2835981230
0.3530305549 0.3712455866 0.2987215468
0.3577205600 0.3809512818 0.2762422793
0.3624105651 0.3906569770 0.2537630117
0.3671005701 0.4003626722 0.2312837442
0.3717905752 0.4100683674 0.2088044766
0.3766666450 0.4044906504 0.2256944365
0.3815427148 0.3989129334 0.2425843964
0.3864187846 0.3933352164 0.2594743563
0.3912948544 0.3877574994 0.2763643161
0.4021430971 0.3933081376 0.2596046603
0.4129913398 0.3988587757 0.2428450044
0.4238395825 0.4044094139 0.2260853486
0.4346878252 0.4099600520 0.2093256927
0.4415790600 0.4106743527 0.2188456807
0.4484702947 0.4113886533 0.2283656687
0.4553615294 0.4121029540 0.2378856567
0.4622527642 0.4128172546 0.2474056447
0.4690364112 0.4124449423 0.2434695654
0.4758200582 0.4120726300 0.2395334861
0.4826037052 0.4117003177 0.2355974068
0.4893873522 0.4113280054 0.2316613275
0.5262301592 0.4150936014 0.2272146990
0.5630729662 0.4188591974 0.2227680705
0.5999157733 0.4226247934 0.2183214421
0.6367585803 0.4263903894 0.2138748136
0.6407941277 0.4152933978 0.1981898216
0.6448296752 0.4041964062 0.1825048296
0.6488652227 0.3930994147 0.1668198376
0.6529007701 0.3820024231 0.1511348456
0.1050485232 0.3860005981 0.2504838756
0.1670999965 0.3821206285 0.2697674247
0.2291514699 0.3782406589 0.2890509739
0.2912029432 0.3743606893 0.3083345230
0.3532544165 0.3704807197 0.3276180721
0.3600370072 0.3863714267 0.2956975171
0.3668195978 0.4022621338 0.2637769620
0.3736021884 0.4181528408 0.2318564069
0.3803847790 0.4340435479 0.1999358518
0.3827660663 0.4236515460 0.2222505038
0.3851473537 0.4132595441 0.2445651559
0.3875286410 0.4028675422 0.2668798080
0.3899099284 0.3924755403 0.2891944600
0.4025068991 0.4003224581 0.2703391194
0.4151038698 0.4081693760 0.2514837788
0.4277008405 0.4160162939 0.2326284382
0.4402978112 0.4238632117 0.2137730976
0.4469946723 0.4239032775 0.2238588696
0.4536915335 0.4239433433 0.2339446416
0.4603883946 0.4239834090 0.2440304136
0.4670852557 0.4240234748 0.2541161856
0.4726914726 0.4235004082 0.2507306531
0.4782976895 0.4229773415 0.2473451207
0.4839039063 0.4224542749 0.2439595882
0.4895101232 0.4219312083 0.2405740557
0.5142916300 0.4274876188 0.2395849245
0.5390731368 0.4330440293 0.2385957933
0.5638546436 0.4386004398 0.2376066620
0.5886361504 0.4441568503 0.2366175308
0.6053172364 0.4317467559 0.2203489516
0.6219983224 0.4193366615 0.2040803723
0.6386794084 0.4069265671 0.1878117931
0.6553604945 0.3945164727 0.1715432139
0.0808744732 0.3962943126 0.2281319152
0.1440314271 0.3918396896 0.2490605468
0.2071883810 0.3873850666 0.2699891783
0.2703453349 0.3829304436 0.2909178098
0.3335022888 0.3784758206 0.3118464414
0.3419420107 0.3904165967 0.2831088824
0.3503817326 0.4023573728 0.2543713235
0.3588214544 0.4142981489 0.2256337645
0.3672611763 0.4262389250 0.1968962056
0.3724058063 0.4189154313 0.2188583791
0.3775504363 0.4115919376 0.2408205527
0.3826950663 0.4042684439 0.2627827262
0.3878396964 0.3969449502 0.2847448998
0.4026934835 0.4073295947 0.2722202022
0.4175472707 0.4177142392 0.2596955046
0.4324010579 0.4280988837 0.2471708071
0.4472548451 0.4384835282 0.2346461095
0.4531958814 0.4365036403 0.2433078105
0.4591369177 0.4345237524 0.2519695116
0.4650779540 0.4325438645 0.2606312126
0.4710189902 0.4305639766 0.2692929137
0.4771968668 0.4318486892 0.2611583290
0.4833747434 0.4331334018 0.2530237444
0.4895526200 0.4344181145 0.2448891597
0.4957304966 0.4357028271 0.2367545751
0.5163199826 0.4401194288 0.2411711674
0.5369094685 0.4445360305 0.2455877597
0.5574989545 0.4489526322 0.2500043520
0.5780884404 0.4533692339 0.2544209443
0.5914407654 0.4409705307 0.2395046478
0.6047930903 0.4285718275 0.2245883514
0.6181454152 0.4161731243 0.2096720549
0.6314977402 0.4037744212 0.1947557584
0.0567004232 0.4065880272 0.2057799549
0.1209628577 0.4015587508 0.2283536688
0.1852252922 0.3965294744 0.2509273827
0.2494877266 0.3915001980 0.2735010966
0.3137501611 0.3864709216 0.2960748106
0.3238470142 0.3944617667 0.2705202478
0.3339438673 0.4024526119 0.2449656850
0.3440407205 0.4104434570 0.2194111222
0.3541375736 0.4184343022 0.1938565594
0.3620455463 0.4141793166 0.2154662544
0.3699535190 0.4099243311 0.2370759495
0.3778614917 0.4056693456 0.2586856445
0.3857694643 0.4014143600 0.2802953395
0.4028800680 0.4143367312 0.2741012850
0.4199906717 0.4272591023 0.2679072305
0.4371012754 0.4401814734 0.2617131759
0.4542118791 0.4531038446 0.2555191214
0.4593970905 0.4491040030 0.2627567515
0.4645823019 0.4451041615 0.2699943816
0.4697675133 0.4411043199 0.2772320116
0.4749527247 0.4371044784 0.2844696417
0.4817022611 0.4401969703 0.2715860049
0.4884517974 0.4432894621 0.2587023680
0.4952013337 0.4463819540 0.2458187312
0.5019508700 0.4494744459 0.2329350944
0.5183483351 0.4527512388 0.2427574103
0.5347458002 0.4560280317 0.2525797261
0.5511432653 0.4593048246 0.2624020420
0.5675407304 0.4625816174 0.2722243578
0.5775642943 0.4501943055 0.2586603441
0.5875878582 0.4378069935 0.2450963304
0.5976114220 0.4254196816 0.2315323167
0.6076349859 0.4130323696 0.2179683029
0.0325263733 0.4168817417 0.1834279945
0.0978942883 0.4112778119 0.2076467908
0.1632622033 0.4056738821 0.2318655871
0.2286301183 0.4000699523 0.2560843835
0.2939980333 0.3944660225 0.2803031798
0.3057520177 0.3985069367 0.2579316131
0.3175060021 0.4025478509 0.2355600465
0.3292599865 0.4065887651 0.2131884798
0.3410139709 0.4106296793 0.1908169132
0.3516852862 0.4094432020 0.2120741297
0.3623566016 0.4082567246 0.2333313462
0.3730279170 0.4070702473 0.2545885628
0.3836992323 0.4058837699 0.2758457793
0.4030666525 0.4213438677 0.2759823678
0.4224340727 0.4368039655 0.2761189563
0.4418014928 0.4522640632 0.2762555448
0.4611689130 0.4677241610 0.2763921333
0.4655982996 0.4617043658 0.2822056924
0.4700276861 0.4556845706 0.2880192515
0.4744570727 0.4496647754 0.2938328106
0.4788864592 0.4436449802 0.2996463697
0.4862076553 0.4485452513 0.2820136807
0.4935288513 0.4534455224 0.2643809917
0.5008500473 0.4583457936 0.2467483027
0.5081712434 0.4632460647 0.2291156137
0.5203766876 0.4653830488 0.2443436531
0.5325821319 0.4675200329 0.2595716925
0.5447875761 0.4696570169 0.2747997319
0.5569930204 0.4717940010 0.2900277713
0.5636878232 0.4594180803 0.2778160404
0.5703826260 0.4470421596 0.2656043094
0.5770774288 0.4346662388 0.2533925784
0.5837722316 0.4222903181 0.2411808475
0.0083523233 0.4271754563 0.1610760342
0.0748257189 0.4209968731 0.1869399129
0.1412991145 0.4148182899 0.2128037916
0.2077725100 0.4086397067 0.2386676703
0.2742459056 0.4024611235 0.2645315490
0.2876570213 0.4025521067 0.2453429785
0.3010681369 0.4026430900 0.2261544080
0.3144792525 0.4027340732 0.2069658375
0.3278903682 0.4028250565 0.1877772670
0.3413250262 0.4047070873 0.2086820050
0.3547596842 0.4065891181 0.2295867430
0.3681943423 0.4084711490 0.2504914810
0.3816290003 0.4103531798 0.2713962191
0.4032532370 0.4283510042 0.2778634506
0.4248774736 0.4463488286 0.2843306821
0.4465017103 0.4643466530 0.2907979137
0.4681259469 0.4823444774 0.2972651452
0.4717995086 0.4743047285 0.3016546334
0.4754730703 0.4662649797 0.3060441215
0.4791466320 0.4582252308 0.3104336096
0.4828201938 0.4501854820 0.3148230978
0.4907130495 0.4568935324 0.2924413566
0.4986059053 0.4636015827 0.2700596154
0.5064987610 0.4703096331 0.2476778742
0.5143916167 0.4770176835 0.2252961331
0.5224050402 0.4780148588 0.2459298960
0.5304184636 0.4790120340 0.2665636589
0.5384318870 0.4800092093 0.2871974219
0.5464453104 0.4810063846 0.3078311848
0.5498113521 0.4686418551 0.2969717366
0.5531773939 0.4562773256 0.2861122884
0.5565434356 0.4439127961 0.2752528402
0.5599094774 0.4315482666 0.2643933920
0.0124085038 0.4346118098 0.1628463220
0.0778193142 0.4291985021 0.1858840447
0.1432301246 0.4237851945 0.2089217674
0.2086409350 0.4183718868 0.2319594901
0.2740517453 0.4129585792 0.2549972127
0.2874143970 0.4125955400 0.2397969651
0.3007770486 0.4122325008 0.2245967174
0.3141397003 0.4118694617 0.2093964697
0.3275023519 0.4115064225 0.1941962221
0.3407437198 0.4131087171 0.2109139431
0.3539850877 0.4147110117 0.2276316640
0.3672264556 0.4163133064 0.2443493850
0.3804678235 0.4179156010 0.2610671060
0.4018278837 0.4342117375 0.2710309926
0.4231879439 0.4505078740 0.2809948792
0.4445480041 0.4668040105 0.2909587658
0.4659080643 0.4831001470 0.3009226524
0.4683685971 0.4771664159 0.3019575482
0.4708291299 0.4712326848 0.3029924440
0.4732896626 0.4652989536 0.3040273398
0.4757501954 0.4593652225 0.3050622356
0.4865114157 0.4656290347 0.2905362715
0.4972726360 0.4718928469 0.2760103073
0.5080338563 0.4781566592 0.2614843431
0.5187950766 0.4844204714 0.2469583790
0.5270503811 0.4861529482 0.2629849844
0.5353056856 0.4878854250 0.2790115899
0.5435609900 0.4896179018 0.2950381954
0.5518162945 0.4913503786 0.3110648008
0.5552627702 0.4818012049 0.3031695503
0.5587092458 0.4722520312 0.2952742999
0.5621557214 0.4627028575 0.2873790494
0.5656021971 0.4531536839 0.2794837989
0.0164646843 0.4420481633 0.1646166098
0.0808129095 0.4374001312 0.1848281765
0.1451611347 0.4327520991 0.2050397432
0.2095093599 0.4281040670 0.2252513098
0.2738575851 0.4234560349 0.2454628765
0.2871717727 0.4226389733 0.2342509517
0.3004859604 0.4218219117 0.2230390268
0.3138001481 0.4210048501 0.2118271020
0.3271143357 0.4201877885 0.2006151771
0.3401624135 0.4215103469 0.2131458811
0.3532104912 0.4228329053 0.2256765851
0.3662585689 0.4241554638 0.2382072890
0.3793066467 0.4254780222 0.2507379930
0.4004025304 0.4400724708 0.2641985346
