Luts/Panasonic-Standard/Conversion/L10S2V.cube
TITLE "DC-L10 Standard to V-Log"
#LUMIXPHOTOSTYLE STD
# Globally fitted from paired decoded Standard/V-Log forward maps.
# No pointwise Standard inverse or empirical output colour patch is used.
# Samples=300000, smoothness=0.01, prior_weight=1.
LUT_3D_SIZE 5
0.1250305325 0.1250305325 0.1250305325
0.3122280447 0.1786124295 0.1404970354
0.3922817585 0.2345477404 0.1736428376
0.4593255061 0.2600344861 0.1735745238
0.4151773540 0.3120163254 0.0648425336
0.2345220850 0.2986488809 0.2014597793
0.3460079637 0.3381428260 0.2354103512
0.4178578673 0.3682505729 0.1959834780
0.4890190390 0.3795183967 0.2049231427
0.6455215971 0.3444602743 0.0899097408
0.0083523233 0.4271754563 0.1610760342
0.3278903682 0.4028250565 0.1877772670
0.4681259469 0.4823444774 0.2972651452
0.5143916167 0.4770176835 0.2252961331
0.5599094774 0.4315482666 0.2643933920
0.0042895811 0.5035176532 0.1751445779
0.3241665525 0.4699790559 0.1879973792
0.4064340177 0.4761262597 0.2720567725
0.4820549474 0.4842599378 0.3010574057
0.5970930214 0.5427785416 0.3625956848
0.0941470876 0.5758356878 0.1987441289
0.3149008534 0.5646281177 0.2045106399
0.3908111515 0.5607859379 0.2023191608
0.4582809891 0.5696023726 0.2015700395
0.5740593585 0.6029341224 0.2203990589
0.1123575832 0.1643623159 0.3149835765
0.2357467494 0.1324416538 0.2676764671
0.3841711589 0.1932304787 0.3360699804
0.7981930975 0.1459452528 0.2515080692
0.9449932325 0.0096727543 0.2352821449
0.2243531840 0.3046129217 0.3223189812
0.3444393608 0.3444393608 0.3444393608
0.4135419738 0.3541604433 0.3317413476
0.4704897114 0.3659291290 0.3394599626
0.5254350494 0.3634139740 0.3310412805
0.2100824934 0.4338596526 0.3694007841
0.3231623531 0.4338802073 0.3810293061
0.4349620121 0.4327744937 0.3774004017
0.5040034504 0.4538888839 0.3629803794
0.5836726890 0.4525418495 0.3757693232
0.1916048577 0.5155825630 0.4078877866
0.4881080682 0.4964430422 0.2573466065
0.4729563378 0.5401356389 0.3884997390
0.5363577428 0.5405702106 0.3895729284
0.6893849141 0.5510550059 0.3942507415
0.0000000000 0.7225796755 0.4048976367
0.2144097464 0.6877418724 0.3042202285
0.3990770701 0.6517462545 0.4409563945
0.4565076147 0.6772624655 0.4050855748
0.6781244094 0.6529720234 0.4903157600
0.0159687140 0.1311176646 0.3550510656
0.3712437735 0.0609417344 0.3779295474
0.4631140810 0.1268814426 0.3878550187
0.5761164209 0.0260212626 0.3712517998
0.6814457840 0.0112756572 0.3648894186
0.2733074602 0.3174825305 0.3875814883
0.3511578496 0.3483161009 0.4194201437
0.4301685983 0.3461055755 0.4141658794
0.4883041820 0.3631371933 0.4134061024
0.5731726417 0.3774735811 0.4175630991
0.2449841719 0.4780560463 0.4567106771
0.3740071785 0.4145237642 0.4267483769
0.4414085254 0.4414085254 0.4414085254
0.5049669084 0.4505565648 0.4375466874
0.5743980068 0.4595443895 0.4358117944
0.2751535408 0.5246473212 0.4685090564
0.3594473086 0.5275790080 0.4728487257
0.4336082215 0.5255121648 0.4781372773
0.5376429470 0.5287711875 0.4818561533
0.6064100049 0.5545010352 0.4645931695
0.1098344863 0.7058431064 0.4794073516
0.3438003248 0.6429755094 0.4989556083
0.3638420410 0.6150213335 0.5547336491
0.5268297837 0.6116122941 0.5050044952
0.6726478610 0.6681379744 0.4593034467
0.1226032551 0.0859118956 0.4178500709
0.3764783984 0.3214847621 0.5943479788
0.4669632435 0.0958437781 0.4477919836
0.5722656050 0.0236769404 0.4301987607
0.7350485958 0.2516547438 0.4491874554
0.2337097652 0.2988373109 0.4619913286
0.3507388294 0.3574168471 0.5077793740
0.4070968294 0.3838372993 0.4762118392
0.4894140863 0.3703324326 0.4809581879
0.5800904756 0.3847076478 0.4848614752
0.2433881122 0.4499147719 0.5004429027
0.3729243726 0.4254914314 0.4853941334
0.4339924918 0.4635786559 0.5144944636
0.5164097449 0.4516590321 0.5079203095
0.5991665493 0.4622871982 0.5140391764
0.2523044481 0.5265569373 0.5200304088
0.3860344636 0.5456195469 0.5366566740
0.4716470556 0.5147975497 0.5286455501
0.5373550281 0.5373550281 0.5373550281
0.6259416325 0.5424061763 0.5434821784
0.1125193880 0.6607529675 0.5415178176
0.3628695088 0.6553762807 0.5678843378
0.4270375980 0.6575139586 0.5785324531
0.5333040888 0.6335767088 0.5648619326
0.6679317390 0.6465745450 0.6027681639
0.1447058368 0.0929984997 0.5842194037
0.3628475670 0.3537790885 0.6300516769
0.4232805024 0.3150737411 0.6259714620
0.5495314169 0.0313549022 0.4871654475
0.8173907136 0.2641534724 0.6125068303
0.2558552684 0.4014022082 0.5814531979
0.3747923991 0.3835483595 0.5218177919
0.4311985480 0.4123067633 0.6257969725
0.4861178111 0.4077022689 0.6022522358
0.6871115171 0.4161235242 0.5588633395
0.0044367813 0.4926750007 0.5676914175
0.3914764190 0.4786381729 0.6441120874
0.4535237175 0.4436030992 0.5932069739
0.5040889962 0.4659598509 0.5759605990
0.5365863925 0.4581133841 0.5540499751
0.1623816949 0.5470332742 0.6487593186
0.4171016217 0.5377950290 0.6159180833
0.4674234396 0.5141380415 0.5622160015
0.5523106772 0.5573138563 0.6245718208
0.6592788581 0.5588455960 0.6285989087
0.1778757252 0.6657156989 0.6690773986
0.3923108503 0.6552907775 0.6694070608
0.4519737534 0.6638633361 0.6565863037
0.5583665628 0.6376301157 0.6375825375
0.6774114966 0.6774114966 0.6774114966
