Luts/Panasonic-Standard/Conversion/S1IIS2V.cube
TITLE "S1II Standard to V-Log"
#LUMIXPHOTOSTYLE STD
LUT_3D_SIZE 33
0.1250305325 0.1250305325 0.1250305325
0.1889899402 0.1313447007 0.1384279713
0.2167571478 0.1240413212 0.1320449203
0.2572516211 0.1244540461 0.1346182263
0.2836778942 0.1270922761 0.1348380788
0.3101257162 0.1297326575 0.1350581106
0.3349417800 0.1288769243 0.1353447586
0.3581245826 0.1247449052 0.1356927182
0.3811630060 0.1206386197 0.1360385106
0.3991577551 0.1194753801 0.1385077041
0.4150293430 0.1195630686 0.1418837049
0.4306757535 0.1196495131 0.1452118088
0.4428058001 0.1233673748 0.1441060171
0.4567010595 0.1282429038 0.1422167495
0.4658570261 0.1303316752 0.1432187938
0.4756407493 0.1318634708 0.1456894294
0.4857582281 0.1336438021 0.1478536397
0.4951716612 0.1363419265 0.1477936813
0.5053751095 0.1391249610 0.1480765184
0.5146855543 0.1411200525 0.1496725942
0.5225032159 0.1422443489 0.1502983595
0.5351341137 0.1414549177 0.1479300683
0.5457158118 0.1422728084 0.1488419772
0.5554547416 0.1442062743 0.1519928077
0.5608567797 0.1467323641 0.1513070379
0.5707649353 0.1509142423 0.1497731086
0.5438369502 0.2415357328 0.1466174495
0.5495724432 0.2461604146 0.1469043715
0.5565114934 0.2510793951 0.1477157369
0.5730455104 0.2317728809 0.1523463833
0.8135290736 0.2736557714 0.1935321362
0.8135290736 0.2736557714 0.1935321362
0.8665893614 0.3008876417 0.1999633051
0.1109276057 0.1816630558 0.1294977801
0.1939755927 0.1796741765 0.1376161793
0.2242638507 0.1684765514 0.1279445428
0.2516580236 0.1704412920 0.1282436730
0.2790558245 0.1724454119 0.1285360075
0.3044687844 0.1735552189 0.1292763690
0.3249468056 0.1726859156 0.1311424120
0.3451802448 0.1721438725 0.1330995735
0.3620971647 0.1735026455 0.1349844599
0.3761686291 0.1767194278 0.1366048631
0.3841506559 0.1928979559 0.1363484506
0.3949095705 0.2004186580 0.1343044648
0.4057321686 0.2070758391 0.1324106363
0.4185127578 0.2066987438 0.1334227322
0.4268918151 0.2146621524 0.1330365931
0.4386693081 0.2140232292 0.1370818548
0.4490940144 0.2180091694 0.1409453696
0.4587250231 0.2212740130 0.1394090681
0.4676780027 0.2264012758 0.1377835239
0.4763873318 0.2303971139 0.1362232104
0.4853856565 0.2329400943 0.1382527388
0.4945566706 0.2339701372 0.1420158355
0.5039016048 0.2334199861 0.1411251458
0.5132121220 0.2327017011 0.1397595565
0.5257257206 0.2320754846 0.1433143315
0.5338519433 0.2350016385 0.1431535045
0.5368380048 0.2556216944 0.1464305140
0.5437685459 0.2601342723 0.1437834112
0.5565114934 0.2510793951 0.1477157369
0.5855855367 0.2222963293 0.1498744814
0.8135290736 0.2736557714 0.1935321362
0.8135290736 0.2736557714 0.1935321362
0.8627108642 0.3096886501 0.1986987093
0.0639398284 0.2210626508 0.1156076186
0.1851393953 0.2142829579 0.1212454619
0.2194349615 0.2147468639 0.1222633330
0.2485204693 0.2153600355 0.1229845412
0.2765369974 0.2157888207 0.1239832868
0.2953772214 0.2167043194 0.1267699031
0.3142315157 0.2176140294 0.1293127714
0.3313502053 0.2190261373 0.1308070264
0.3459198545 0.2211409368 0.1309632286
0.3605632946 0.2231827383 0.1310616708
0.3732931520 0.2264086534 0.1310678519
0.3856454453 0.2297786076 0.1313372108
0.3978143539 0.2314610391 0.1315026957
0.4097628805 0.2318862547 0.1313418902
0.4210147884 0.2350148374 0.1326787661
0.4316643085 0.2332307175 0.1363312164
0.4420911900 0.2386754516 0.1381687304
0.4511947286 0.2425558379 0.1371554448
0.4608048006 0.2412090505 0.1361263813
0.4694428481 0.2437263856 0.1341386370
0.4790188595 0.2466454976 0.1369160205
0.4882241422 0.2528047267 0.1405889474
0.4968356651 0.2517488423 0.1423845351
0.5053992837 0.2543092613 0.1436725442
0.5139817809 0.2567869838 0.1428056944
0.5233147406 0.2582838259 0.1388297600
0.5320494219 0.2627618343 0.1456416388
0.5401537484 0.2684637818 0.1418599567
0.5455318551 0.2705428322 0.1470730813
0.5754882410 0.2457672735 0.1486275826
0.8135290736 0.2736557714 0.1935321362
0.8135290736 0.2736557714 0.1935321362
0.8519836172 0.3344666531 0.1986254895
0.0483791283 0.2526984591 0.1173437316
0.1881871995 0.2436992330 0.1231166724
0.2203294224 0.2410905504 0.1238565154
0.2523384816 0.2386222258 0.1245955465
0.2746121116 0.2386563757 0.1253460747
0.2935752904 0.2395212895 0.1260026633
0.3125283305 0.2403871311 0.1265538177
0.3275553109 0.2420495126 0.1263520430
0.3426464002 0.2436484739 0.1261000870
0.3567916225 0.2455125484 0.1267931391
0.3693367019 0.2478221056 0.1292886753
0.3818098718 0.2500033327 0.1318839854
0.3925757582 0.2519885165 0.1305657270
0.4029561691 0.2546095761 0.1290679807
0.4130140311 0.2560039662 0.1317368298
0.4226075917 0.2579468647 0.1353334595
0.4328070383 0.2595802142 0.1358872704
0.4432723227 0.2608074432 0.1356146893
0.4523040288 0.2641191804 0.1323968055
0.4613463678 0.2673494411 0.1315333421
0.4706690545 0.2696661676 0.1357228847
0.4792938312 0.2714796285 0.1407648524
0.4877217470 0.2732624719 0.1443911351
0.4966401509 0.2753945411 0.1422849736
0.5063844412 0.2764341187 0.1398106750
0.5157872301 0.2778430845 0.1415688094
0.5242027661 0.2804352755 0.1445459111
0.5314880103 0.2841187440 0.1413921326
0.5393924188 0.2849246371 0.1468641023
0.5657314635 0.2665277451 0.1476548865
0.8135290736 0.2736557714 0.1935321362
0.8135290736 0.2736557714 0.1935321362
0.8449127258 0.3498112086 0.1899454166
0.0347331992 0.2809685650 0.1195760957
0.1888085314 0.2689895437 0.1246820050
0.2246101332 0.2637726823 0.1254763318
0.2537576088 0.2606452093 0.1254708601
0.2728339991 0.2614635466 0.1241662109
0.2919092266 0.2622823622 0.1228817032
0.3088058888 0.2633388321 0.1220421218
0.3243012027 0.2643322862 0.1216251409
0.3398434005 0.2650676108 0.1213896538
0.3529548856 0.2660852937 0.1255576354
0.3661342890 0.2670926680 0.1298124419
0.3777005982 0.2690595632 0.1301880400
0.3879681435 0.2716950730 0.1278072191
0.3981854849 0.2738528599 0.1272968529
0.4082850255 0.2750728807 0.1308758491
0.4185519291 0.2758753555 0.1335895820
0.4289312992 0.2758707728 0.1342762552
0.4385597399 0.2772183413 0.1338689960
0.4474461507 0.2801800278 0.1321177999
0.4573341477 0.2820909126 0.1327634256
0.4677646832 0.2832630870 0.1343044553
0.4755018164 0.2848573090 0.1398212985
0.4837564917 0.2870446651 0.1408094931
0.4925224595 0.2898109583 0.1379626016
0.5014136447 0.2914902634 0.1403390931
0.5103655435 0.2929612110 0.1447756495
0.5177523012 0.2962843494 0.1434190087
0.5253963446 0.2985830867 0.1421568555
0.5491792494 0.2817336024 0.1457156495
0.5567212681 0.2850939931 0.1469027554
0.8135290736 0.2736557714 0.1935321362
0.8135290736 0.2736557714 0.1935321362
0.8371638451 0.3669524858 0.1866185607
0.0255576682 0.3013807964 0.1229670527
0.0699146517 0.3006925775 0.1238938730
0.1154182491 0.2974535586 0.1243969447
0.2505651805 0.2805600508 0.1276481826
0.2693949511 0.2802756389 0.1270057205
0.2879964915 0.2798161287 0.1232554358
0.3042830636 0.2799043136 0.1230559456
0.3206105286 0.2799569370 0.1228584321
0.3361749581 0.2803567440 0.1241113703
0.3510178279 0.2811376348 0.1267978875
0.3654610339 0.2820807313 0.1287440378
0.3758590154 0.2843306152 0.1262695953
0.3878471495 0.2920279758 0.2125451691
0.3973060114 0.2944386257 0.2107504985
0.4068227220 0.2960784218 0.2040642010
0.4165625242 0.2891760564 0.1320039717
0.4256216546 0.2897680893 0.1334919075
0.4341309260 0.2925358050 0.1333926019
0.4424911869 0.2958220515 0.1331531979
0.4541954045 0.2960757103 0.1320536072
0.4642236690 0.2966923038 0.1333265287
0.4713594039 0.2981630446 0.1389257290
0.4797817658 0.3012367404 0.1368164201
0.4885143050 0.3039636123 0.1372427766
0.4969528918 0.3059977078 0.1421470725
0.5062928898 0.3067589282 0.1451792016
0.5129873337 0.3103560733 0.1425384899
0.8174906012 0.3708193116 0.1856174692
0.8175767862 0.3706875394 0.1856169592
0.8253333612 0.3718604422 0.1867780063
0.8173997156 0.3709789971 0.1856220830
0.8277177092 0.3845270255 0.2462710528
0.8320683106 0.3744532552 0.1871886905
0.0190093763 0.3190787918 0.1276154174
0.0604984906 0.3150847764 0.1262942903
0.1021879970 0.3110453904 0.1254705006
0.2469207479 0.2988563374 0.1276030479
0.2653805924 0.2973516715 0.1255691087
0.2833266827 0.2962920339 0.1244413790
0.3005878845 0.2955328808 0.1242890189
0.3177915236 0.2948465140 0.1241768657
0.3343665906 0.2953915637 0.1252302957
0.3510179950 0.2959262199 0.1262117554
0.3636229163 0.2973415386 0.1248231062
0.3742532870 0.3003144862 0.1440745506
0.3848899739 0.3032020194 0.1785896531
0.3952716255 0.3010796898 0.1261537614
0.4053622312 0.3016849469 0.1293133842
0.4140139056 0.3024880119 0.1315470180
0.4227274166 0.3037940813 0.1334392265
0.4310687614 0.3065717819 0.1338164688
0.4407515500 0.3081944620 0.1332956644
0.4526791667 0.3157294830 0.2045270166
0.4612210689 0.3164952572 0.2047885058
0.4706940668 0.3173606805 0.2097302198
0.4788069529 0.3196953134 0.2120213722
0.4860099616 0.3235854416 0.2119691398
0.4946505506 0.3180241108 0.1403516696
0.5032994605 0.3195474607 0.1420660051
0.8094448517 0.3735098066 0.1848291152
0.8095383280 0.3733715486 0.1848411433
0.8096787985 0.3731639840 0.1848591660
0.8055475981 0.3895578206 0.1958275025
0.8100209382 0.3886632293 0.1867090632
0.8225277909 0.3902735874 0.2173730843
0.8256981365 0.3818678762 0.1872096838
0.0186393856 0.3371092697 0.1719232167
0.0229485591 0.3329862809 0.1321973635
0.0472093196 0.3309377082 0.1300986395
0.0918575366 0.2949905594 0.1236739806
0.0444775134 0.3311527398 0.1303213690
0.0460033258 0.3310156118 0.1301933095
0.0090131260 0.3643930250 0.1353900766
0.3167048030 0.3088065912 0.1282349869
0.3332109079 0.3091187640 0.1285035111
0.3489203903 0.3095499647 0.1286133010
0.3600713961 0.3109497158 0.1335975727
0.3718505985 0.3128414210 0.1543991886
0.3824306971 0.3147792593 0.1650886059
0.3928567743 0.3163307015 0.1662111585
0.4032992637 0.3139663442 0.1300216746
0.4118827267 0.3228088180 0.2087613918
0.4212706823 0.3230169431 0.2051743885
0.4308568024 0.3242917704 0.2063942921
0.4404496874 0.3267472092 0.2084129676
0.4501606897 0.3273359429 0.2078712464
0.4572082272 0.3261343819 0.1685797120
0.4670059130 0.3260005891 0.1674098404
0.4758524254 0.3249914081 0.1407546268
0.4834615458 0.3284625198 0.1379615288
0.4925421543 0.3298805258 0.1383374987
0.5006249112 0.3314080265 0.1420846142
0.8056804793 0.3836964916 0.1840590257
0.8057449726 0.3836014160 0.1840636453
0.8058422668 0.3834582364 0.1840706814
0.7648389851 0.3810326610 0.1807024663
0.7651679535 0.3805325409 0.1806960998
0.8067266810 0.3874808011 0.1857182646
0.8206061513 0.3905881012 0.2077550557
0.0147995179 0.3524979244 0.1932664352
0.0089707659 0.3646573521 0.1354561584
0.0437921115 0.3452381145 0.1327638310
0.0126276660 0.3477378076 0.1350994906
0.0090866152 0.3639344525 0.1352754335
0.0090378961 0.3642384598 0.1353514353
0.0089518822 0.3647751863 0.1354856170
0.3178890262 0.3269933943 0.1903488646
0.3321565879 0.3263608094 0.1906852161
0.3452878079 0.3262230734 0.1876177989
0.3574806696 0.3238262643 0.1495964389
0.3694840047 0.3269110389 0.1819585451
0.3798834697 0.3294559371 0.2008739325
0.3906021845 0.3306701773 0.2027558148
0.4016716426 0.3319988003 0.2059033098
0.4116208516 0.3328554085 0.2084469729
0.4212303765 0.3336110696 0.2102403027
0.4300081833 0.3347062946 0.2009148775
0.4390004814 0.3359885189 0.1961487444
0.4475460936 0.3347156272 0.1580749150
0.4552802798 0.3347858835 0.1375733490
0.4652017442 0.3348977256 0.1408643926
0.4738712129 0.3369123465 0.1394576498
0.4824196991 0.3392341232 0.1378602296
0.4916430287 0.3451482120 0.2064105151
0.4995750680 0.3468993050 0.2157739727
0.5109884003 0.3450512452 0.1837321012
0.7771706005 0.3847718450 0.1862163439
0.7772464589 0.3846514010 0.1862253327
0.7773729148 0.3844506635 0.1862409355
0.7776259128 0.3840492003 0.1862743107
0.7684841173 0.3864222683 0.2241338501
0.8130709382 0.3987100939 0.2255382955
0.0299713798 0.3651041344 0.2107535761
0.0100639541 0.3616462298 0.1351695737
0.0438096400 0.3586000178 0.1348684336
0.0114824641 0.3614880405 0.1351607919
0.0087639374 0.3659479614 0.1357788107
0.0087614302 0.3659636065 0.1357827220
0.0085226464 0.3674536170 0.1361552246
0.3176403083 0.3387608508 0.1869794870
0.3309574289 0.3380950471 0.1879455624
0.3450265115 0.3402958492 0.2088932124
0.3568003744 0.3396600005 0.2007815428
0.3672943148 0.3391437231 0.1916641839
0.3788594610 0.3404355030 0.2070539792
0.3907185883 0.3412651319 0.2062594406
0.4018875947 0.3421125997 0.2064291776
0.4114692504 0.3430690454 0.2075729853
0.4203227619 0.3436637678 0.1999163196
0.4287675242 0.3455227258 0.2099075929
0.4383064776 0.3472366527 0.2094884330
0.4629250460 0.3722205769 0.2429170563
0.4681646917 0.3722423679 0.2371226359
0.4636182414 0.3458197700 0.1407727027
0.4745321853 0.3504468944 0.1886901444
0.4832907519 0.3533831395 0.2117251802
0.4907944350 0.3544397794 0.2121243049
0.5002799425 0.3558284660 0.2158338621
0.5089284208 0.3528307688 0.1718853789
0.5189163728 0.3558546057 0.1907062869
0.7666379533 0.3963258643 0.1809516941
0.7667553425 0.3962571903 0.1809564051
0.7577735189 0.3947203229 0.1809529091
0.7580242050 0.3944464268 0.1809528040
0.8072593580 0.4072512290 0.2275886706
0.0240454693 0.3773679054 0.2112995861
0.0073761198 0.3746079420 0.1379438059
0.0239176470 0.3776838604 0.1393508984
0.0316938006 0.3795057256 0.1401770941
0.0437743634 0.3691700267 0.1376528840
0.0490048016 0.3661684688 0.1369339281
0.0492423564 0.3676574421 0.1373849904
0.3198412740 0.3514760566 0.2063734088
0.3322461061 0.3511769549 0.2076507772
0.3444679290 0.3508178452 0.2062051548
0.3569820063 0.3550553600 0.2553363597
0.3655176627 0.3490622793 0.1866270101
0.3773462006 0.3496071146 0.1871043370
0.3899294562 0.3512721763 0.2014446973
0.4001215894 0.3523118291 0.2068329437
0.4100759522 0.3531910801 0.2105747806
0.4203699600 0.3539900960 0.2091826785
0.4311646152 0.3585103429 0.2606410403
0.4399912887 0.3591194980 0.2521009990
0.4481457979 0.3571195622 0.2008485784
0.4575484129 0.3581035638 0.2060694902
0.4661562273 0.3594616321 0.2114231367
0.4746150914 0.3606399410 0.2003602786
0.4824820489 0.3623353352 0.2121853233
0.4911804079 0.3636283115 0.2132998130
0.5013632501 0.3621833819 0.1885188516
0.5092533809 0.3633661893 0.1854048576
0.5164370031 0.3630347933 0.1661024344
0.5270193286 0.3659669245 0.1772567884
0.5352838762 0.3703855862 0.2366634320
0.8011336583 0.4129299564 0.1868381183
0.7440107497 0.4018806847 0.1762370755
0.7996425080 0.4149964562 0.2267778927
0.0087048924 0.3912764850 0.2430448835
0.0205649822 0.3870537078 0.1418700571
0.0349522689 0.3818386379 0.1409952808
0.0312218623 0.3829533141 0.1411531188
0.0227151747 0.3940727815 0.1439839598
0.0252109573 0.3921414664 0.1435434650
0.0253414544 0.3926095041 0.1436852062
0.3215792116 0.3620881823 0.2075596547
0.3328081946 0.3607307704 0.2065679253
0.3447444395 0.3626280063 0.2315161650
0.3555024762 0.3611294901 0.2226168714
0.3665533128 0.3612447357 0.2216889516
0.3771036243 0.3608745912 0.2061856530
0.3876367935 0.3608049369 0.1906211977
0.3980215004 0.3608113367 0.1833465277
0.4087577687 0.3610625073 0.1745673574
0.4195251076 0.3617377632 0.1649836640
0.4303006367 0.3644262943 0.2010406683
0.4392818521 0.3657863867 0.2065682157
0.4485022610 0.3704696059 0.2575272264
0.4568265872 0.3714413390 0.2581926862
0.4656510011 0.3674941468 0.1786911576
0.4750798120 0.3701406778 0.2099017805
0.4821036996 0.3724565563 0.2117643930
0.4905067239 0.3721420192 0.1940521560
0.4993502819 0.3693943794 0.1615617262
0.5065226827 0.3696558122 0.1477282045
0.5182655656 0.3755546298 0.1919068445
0.5260133304 0.3745781919 0.1634000236
0.5355580165 0.3785384452 0.1894376023
0.5447068125 0.3802733206 0.1870057664
0.6789987981 0.4009768069 0.1719169803
0.6786896183 0.4018402110 0.1990410696
0.0081436620 0.4046421166 0.2606869415
0.0172530425 0.3940241638 0.1437108759
0.0208850400 0.3951594834 0.1442102712
0.0181261769 0.3998309609 0.1447688290
0.0226469053 0.3957299294 0.1444595708
0.0254927410 0.3932320439 0.1438727701
0.3102119500 0.3744814022 0.2099679443
0.3215485830 0.3732867799 0.2086757049
0.3329297002 0.3720750171 0.2083866031
0.3437145659 0.3703399092 0.2006386064
0.3544493430 0.3690984147 0.1970277005
0.3647159400 0.3690909295 0.1905144075
0.3750865773 0.3694946222 0.1823708737
0.3858504933 0.3696146213 0.1743466678
0.3968157325 0.3696373910 0.1675351616
0.4079968898 0.3701973674 0.1595308982
0.4184081776 0.3707923234 0.1495789174
0.4317518587 0.3769792081 0.2528753351
0.4405676679 0.3784041536 0.2584027352
0.4488206849 0.3785319732 0.2471050575
0.4579705701 0.3784811422 0.2347734886
0.4674978085 0.3785958517 0.2237395339
0.4746278511 0.3800006986 0.2073792054
0.4822005335 0.3802659090 0.1869820012
0.4913826891 0.3776564714 0.1580551125
0.4986746220 0.3780800242 0.1457169520
0.5070555542 0.3798709694 0.1469358324
0.5201843546 0.3905652359 0.2382006358
0.5276518159 0.3907209795 0.2209532823
0.5349766863 0.3893083748 0.1908186514
0.5443021322 0.3891368031 0.1665699613
0.5558207622 0.3786963264 0.1512379972
0.5882336561 0.3977742714 0.1627182098
0.0580227438 0.4085892401 0.2603819425
0.0175881266 0.4083981093 0.1460098766
0.0137720870 0.4053168280 0.1447698141
0.0077102048 0.4123148749 0.1444686356
0.0077101006 0.4123148875 0.1444685937
0.0076926139 0.4123170412 0.1444655757
0.3097862973 0.3847788983 0.1933166610
0.3213117546 0.3835900889 0.1865794152
0.3326305892 0.3821265093 0.1842172173
0.3435002441 0.3801405682 0.1823498115
0.3542824077 0.3784948062 0.1804729293
0.3637764090 0.3785348759 0.1734410029
0.3738061569 0.3785871444 0.1653158412
0.3847989470 0.3784745558 0.1574871212
0.3958242783 0.3783740631 0.1499803572
0.4068036137 0.3785582875 0.1442225601
0.4180825034 0.3803486681 0.1430929979
0.4324509879 0.3864276462 0.2611358919
0.4409247997 0.3862170598 0.2411250473
0.4493199282 0.3860764571 0.2274955695
0.4584278728 0.3863317215 0.2150370610
0.4667923870 0.3869978937 0.1985846922
0.4746329991 0.3876064508 0.1774868364
0.4830449257 0.3877599247 0.1578243366
0.4910001196 0.3875235859 0.1443277247
0.4993222241 0.3894674508 0.1465962620
0.5085970177 0.3915989392 0.1491397946
0.5193767671 0.3961720048 0.2081104759
0.5268997003 0.3964674506 0.1922707460
0.5354216317 0.3970674988 0.1688477599
0.5448877280 0.3975531261 0.1500468141
0.5563196210 0.3997050612 0.1517533685
0.5851218977 0.4043343577 0.1619806679
0.0069180593 0.4237272164 0.2630431525
0.0076576795 0.4123213439 0.1444595550
0.0076576795 0.4123213439 0.1444595550
0.0076751532 0.4123191918 0.1444625680
0.0076751532 0.4123191918 0.1444625680
0.0076751532 0.4123191918 0.1444625680
0.3106068898 0.3947935248 0.1740679749
0.3228074786 0.3940361687 0.1698546778
0.3331589752 0.3921179846 0.1662388464
0.3436475827 0.3902228908 0.1642343671
0.3535514424 0.3889538998 0.1614638648
0.3632712610 0.3881022775 0.1573801379
0.3733186428 0.3878591903 0.1496030505
0.3837255858 0.3879120773 0.1461175894
0.3944451470 0.3880836129 0.1469347779
0.4055382126 0.3886540003 0.1471146765
0.4171710577 0.3896562802 0.1466024653
0.4316555082 0.3939047742 0.2354154468
0.4402523585 0.3941689469 0.2205057288
0.4494682016 0.3945119600 0.2075959637
0.4588446349 0.3949399612 0.1903691059
0.4668029619 0.3951802719 0.1682837303
0.4753003293 0.3954163603 0.1485124156
0.4836377177 0.3962406096 0.1446171929
0.4918304226 0.3976668851 0.1468576768
0.5012426537 0.3991533598 0.1491980611
0.5107336679 0.4003555195 0.1513185263
0.5196623688 0.4028648561 0.1892268855
0.5280670438 0.4034010940 0.1692025482
0.5372002521 0.4040482076 0.1505708959
0.5460531445 0.4055581265 0.1513901637
0.5585483471 0.4078641295 0.1532543193
0.5822737824 0.4108879022 0.1612192030
0.0058110288 0.4343997956 0.2621944024
0.2267719513 0.4105061532 0.1449256577
0.0076576795 0.4123213439 0.1444595550
0.0076576795 0.4123213439 0.1444595550
0.0076576795 0.4123213439 0.1444595550
0.0076576795 0.4123213439 0.1444595550
0.3111323867 0.4045941934 0.1535345718
0.3220308479 0.4034246473 0.1484880122
0.3326035502 0.4021037779 0.1457562591
0.3431379652 0.4006717748 0.1470133053
0.3532615177 0.3991694090 0.1496658620
0.3633639315 0.3981132042 0.1507779189
0.3735827002 0.3977847265 0.1487391455
0.3839965147 0.3978258754 0.1488790513
0.3945546498 0.3981255112 0.1506347076
0.4057445499 0.3987484130 0.1503640955
0.4163802979 0.3996700485 0.1487965564
0.4301198804 0.4015851219 0.2138003477
0.4394123050 0.4028683991 0.1964251085
0.4499322370 0.4032686026 0.1805150621
0.4585943763 0.4035230751 0.1597081652
0.4675449421 0.4036026159 0.1471920072
0.4764432585 0.4035753831 0.1461574118
0.4845799734 0.4047564763 0.1478469252
0.4938518270 0.4061510235 0.1496342897
0.5037874824 0.4073251147 0.1513124517
0.5129319398 0.4085186847 0.1518882697
0.5213611837 0.4104134562 0.1685244661
0.5302068845 0.4110241575 0.1512133771
0.5395392617 0.4122935705 0.1516119522
0.5485773533 0.4140616834 0.1529783593
0.5610978401 0.4164496265 0.1552465504
0.5792596578 0.4175690672 0.1604766111
0.0076426138 0.4429135297 0.2636044502
0.0206518645 0.4228783700 0.1488997632
0.0076576795 0.4123213439 0.1444595550
0.0076576795 0.4123213439 0.1444595550
0.0076576795 0.4123213439 0.1444595550
0.3086846966 0.4204804137 0.2497090237
0.3121871967 0.4155557497 0.1483265395
0.3227452905 0.4143361710 0.1489981683
0.3334235901 0.4130590744 0.1495116387
0.3444047122 0.4113238203 0.1502832290
0.3550670478 0.4096090369 0.1511206384
0.3649407995 0.4083837396 0.1488292157
0.3751133362 0.4075406307 0.1480904370
0.3854761959 0.4080462129 0.1511413930
0.3955436012 0.4085675468 0.1526264264
0.4054037598 0.4091567469 0.1530065982
0.4157841539 0.4099420777 0.1512854801
0.4323630130 0.4154895660 0.2921489520
0.4382193119 0.4111387556 0.1684505592
0.4483421733 0.4114353550 0.1509753651
0.4583244999 0.4127468539 0.1506249764
0.4679662138 0.4116173508 0.1479722864
0.4768069921 0.4122722445 0.1491117741
0.4863045632 0.4134858607 0.1503801544
0.4966546463 0.4144560378 0.1515489008
0.5067400634 0.4158645750 0.1522328681
0.5149077211 0.4171038426 0.1520034935
0.5234876035 0.4184377877 0.1518011735
0.5327257613 0.4197163760 0.1518989427
0.5417719808 0.4214613344 0.1532661110
0.5515395299 0.4232366154 0.1547270420
0.7832687803 0.4363171262 0.2841858101
0.7776245782 0.4570640140 0.3043848502
0.0048654634 0.4524618491 0.2649914412
0.0062204313 0.4388757997 0.1496908841
0.0076751532 0.4123191918 0.1444625680
0.0076576795 0.4123213439 0.1444595550
0.2998641468 0.4321459212 0.2581835117
0.3110223376 0.4308741394 0.2584275942
0.3219882069 0.4296632750 0.2596597706
0.3324237798 0.4284170009 0.2589597259
0.3366282307 0.4220792994 0.1519671719
0.3478112650 0.4209498272 0.1522065582
0.3572955983 0.4199728586 0.1512896359
0.3664727244 0.4190205329 0.1492922569
0.3764715267 0.4184780233 0.1500737716
0.3862171304 0.4182049915 0.1516628597
0.3949839066 0.4185994245 0.1541688502
0.4054452010 0.4189452398 0.1546637860
0.4224383528 0.4244928356 0.2935990579
0.4337606897 0.4252783073 0.2939021771
0.4425002776 0.4242508737 0.2707835914
0.4480151449 0.4209673882 0.1548065149
0.4572513257 0.4214901975 0.1518166002
0.4678342863 0.4208906288 0.1508309194
0.4780551065 0.4221761338 0.1515953374
0.4885716405 0.4231117355 0.1521659874
0.4993351879 0.4239512099 0.1525790892
0.5077379414 0.4251002116 0.1524554924
0.5165729908 0.4264370308 0.1523668426
0.5290118298 0.4340203832 0.2773540363
0.5383376677 0.4354289970 0.2801486025
0.6938762637 0.4435087600 0.3070091046
0.7394121622 0.4458388284 0.2661921108
0.6208581799 0.4242628055 0.1622059788
0.7801307328 0.4624876235 0.2683872720
0.0062350120 0.4618889251 0.2671015254
0.0056000549 0.4545291049 0.1581031091
0.0188237169 0.4520904526 0.1584546169
0.2883673440 0.4422042907 0.2464511051
0.3009605746 0.4419689644 0.2590919791
0.3110561555 0.4406721344 0.2599128165
0.3219051374 0.4395257189 0.2601548758
0.3334454671 0.4386089258 0.2604144848
0.3445355131 0.4376092269 0.2605444534
0.3487755594 0.4311516747 0.1547064662
0.3593561365 0.4301764429 0.1560292562
0.3694574619 0.4293310820 0.1550001203
0.3791204800 0.4285237798 0.1537230204
0.3872432869 0.4277291171 0.1540619668
0.3964032330 0.4274326157 0.1545221518
0.4131509340 0.4319994353 0.2685360575
0.4221345447 0.4319501855 0.2665892140
0.4308634584 0.4324742346 0.2625671890
0.4407794224 0.4321809825 0.2585767995
