Luts/Panasonic-Standard/Conversion/S1IIES2V.cube
TITLE "S1IIE Standard to V-Log"
#LUMIXPHOTOSTYLE STD
LUT_3D_SIZE 33
0.1250305325 0.1250305325 0.1250305325
0.1961219275 0.1283175096 0.1368825885
0.2331359044 0.1183435968 0.1339464384
0.2758411365 0.1173395304 0.1349270051
0.3070969070 0.1178992067 0.1336354444
0.3380500327 0.1184534639 0.1323563896
0.3628410305 0.1141825912 0.1321123391
0.3886655480 0.1081977120 0.1321123391
0.4134248977 0.1028664694 0.1324844092
0.4316084129 0.1015440320 0.1351292841
0.4505135942 0.1001691098 0.1378791287
0.4658055760 0.1006910499 0.1377339945
0.4815664620 0.1027925014 0.1353173253
0.4982293883 0.1043049123 0.1340021205
0.5144569456 0.1033776240 0.1369164544
0.5272598041 0.1026065744 0.1390161007
0.5353738818 0.1020301670 0.1399028853
0.5477920847 0.1011194288 0.1412791992
0.5587553527 0.1000358477 0.1426814775
0.5681917477 0.0990320841 0.1437598328
0.5832976686 0.0950184298 0.1411327175
0.5961277059 0.0923600229 0.1400139609
0.6105429616 0.0920342550 0.1427015510
0.6204577987 0.0940425348 0.1408688781
0.6290156761 0.0964256994 0.1377528684
0.6391570461 0.0954037060 0.1379100992
0.6509206498 0.0945238684 0.1407934946
0.9992325136 0.0239839530 0.1327751683
0.9992325136 0.0239839530 0.1327751683
0.9992325136 0.0239839530 0.1327751683
0.9992325136 0.0239839530 0.1327751683
0.9678679072 0.1458704735 0.1227005235
0.9635539393 0.1673313238 0.1444549462
0.1050165487 0.1854789494 0.1307340143
0.1930983921 0.1826613339 0.1382047544
0.2327042400 0.1680656098 0.1303539538
0.2642935113 0.1675290100 0.1292873787
0.2957611321 0.1669552132 0.1282312934
0.3214840037 0.1650638237 0.1284716485
0.3442257663 0.1640740532 0.1294166418
0.3666459085 0.1641098016 0.1304424206
0.3817333024 0.1663450371 0.1325512379
0.3989988761 0.1675044654 0.1348492529
0.4135741082 0.1704529060 0.1350121375
0.4217238554 0.1854159930 0.1328872028
0.4346956323 0.1891613845 0.1329323918
0.4485221271 0.1902856435 0.1339120807
0.4608667810 0.1915494993 0.1358993853
0.4735960465 0.1912688213 0.1384569228
0.4838765886 0.1935298613 0.1375633054
0.4924167778 0.1969546141 0.1349315158
0.5019960315 0.2001255735 0.1340247744
0.5121232434 0.2019919000 0.1345082536
0.5216706338 0.2068894701 0.1380955856
0.5322368072 0.2091889869 0.1359664565
0.5415255867 0.2118092946 0.1348023963
0.5522019778 0.2111854309 0.1352457953
0.5651930519 0.2088042161 0.1342896794
0.5759325766 0.2099759265 0.1359737787
0.5836362831 0.2136090197 0.1372424174
0.9992325136 0.0239839530 0.1327751683
0.9992325136 0.0239839530 0.1327751683
0.9992325136 0.0239839530 0.1327751683
0.9992325136 0.0239839530 0.1327751683
0.9678679072 0.1458704735 0.1227005235
0.9663453309 0.1564940593 0.1442978573
0.0549812637 0.2277799951 0.1224921631
0.1811171347 0.2176812020 0.1268291048
0.2244145825 0.2150932951 0.1260891672
0.2566973002 0.2138249383 0.1253877745
0.2835163465 0.2132162143 0.1257297585
0.3046683715 0.2145713280 0.1269755942
0.3255186936 0.2163098228 0.1279765571
0.3415943334 0.2173232760 0.1293236547
0.3589984801 0.2177015042 0.1308685105
0.3749139983 0.2187979341 0.1316918581
0.3884873489 0.2208987917 0.1317324676
0.4038148269 0.2221757501 0.1318298532
0.4176188147 0.2218569054 0.1313524217
0.4307475080 0.2220812807 0.1314963687
0.4431155933 0.2221902608 0.1344977122
0.4555460543 0.2226183904 0.1362380074
0.4669695641 0.2236595355 0.1336863039
0.4776611561 0.2255074046 0.1314365768
0.4860741324 0.2304566236 0.1290011294
0.4959349472 0.2325585466 0.1320175019
0.5063938131 0.2333594034 0.1349959956
0.5160770376 0.2357232004 0.1360104403
0.5241671943 0.2388229167 0.1350014037
0.5354331528 0.2383922446 0.1325131907
0.5472999688 0.2381887600 0.1290619264
0.5560931971 0.2424231278 0.1336425164
0.5615194167 0.2466718682 0.1298774211
0.9992325136 0.0239839530 0.1327751683
0.9992325136 0.0239839530 0.1327751683
0.9992325136 0.0239839530 0.1327751683
0.9992325136 0.0239839530 0.1327751683
0.9678679072 0.1458704735 0.1227005235
0.9388180276 0.2496267829 0.1161281039
0.0349040444 0.2604054811 0.1238435163
0.1874345301 0.2469510934 0.1276886225
0.2231204320 0.2427818273 0.1270887968
0.2576260530 0.2389795666 0.1265189026
0.2786599322 0.2395045388 0.1263296113
0.2986177053 0.2412736834 0.1260137355
0.3165119275 0.2423450216 0.1262959941
0.3331127997 0.2426622827 0.1272929347
0.3503833319 0.2429889940 0.1282957675
0.3642502402 0.2442210217 0.1296559837
0.3795709722 0.2454048652 0.1313389542
0.3918592581 0.2467272615 0.1303314331
0.4030271647 0.2484144316 0.1283809645
0.4146283963 0.2497030586 0.1302210910
0.4262875977 0.2508079671 0.1336772254
0.4396711229 0.2508242647 0.1326217227
0.4538601136 0.2497678712 0.1301375657
0.4632541157 0.2531773651 0.1273375836
0.4725485800 0.2557860161 0.1269732845
0.4829318711 0.2558959276 0.1305564435
0.4933087347 0.2567875367 0.1335973710
0.5031020076 0.2586601182 0.1347515798
0.5129895112 0.2604357872 0.1313643430
0.5245519294 0.2597684017 0.1299861703
0.5348733680 0.2612493474 0.1318213855
0.5430166637 0.2640482933 0.1323598696
0.5492784970 0.2680541581 0.1281552781
0.9992325136 0.0239839530 0.1327751683
0.9992325136 0.0239839530 0.1327751683
0.9992325136 0.0239839530 0.1327751683
0.9992325136 0.0239839530 0.1327751683
0.9678679072 0.1458704735 0.1227005235
0.9347885396 0.2744207564 0.1120750791
0.0210934339 0.2879772477 0.1249927207
0.1873650024 0.2717530187 0.1281290624
0.2260581655 0.2657960244 0.1278550856
0.2538376476 0.2633615064 0.1267638402
0.2735537871 0.2645474052 0.1253336365
0.2928552377 0.2654901469 0.1242170585
0.3097457859 0.2648640178 0.1250423044
0.3271450040 0.2644687642 0.1259254269
0.3427322423 0.2643863561 0.1276073439
0.3578932767 0.2645274663 0.1296970501
0.3723196239 0.2651940445 0.1303468035
0.3828553288 0.2665520843 0.1280234114
0.3943717516 0.2678165955 0.1267673390
0.4064696723 0.2683954165 0.1298759707
0.4190264501 0.2688378885 0.1316109736
0.4318658720 0.2683945649 0.1301294850
0.4428567584 0.2699016083 0.1288024342
0.4524319666 0.2730727288 0.1276623064
0.4636555418 0.2728743382 0.1281053849
0.4756097760 0.2718937598 0.1290755036
0.4860150870 0.2728903093 0.1319901449
0.4949328150 0.2752487098 0.1306436547
0.5048069843 0.2773094671 0.1285011899
0.5146123258 0.2782840529 0.1315716676
0.5234252102 0.2801560265 0.1332569881
0.5306342214 0.2837083994 0.1304644714
0.5396886276 0.2847309146 0.1283443811
0.9992325136 0.0239839530 0.1327751683
0.9992325136 0.0239839530 0.1327751683
0.9992325136 0.0239839530 0.1327751683
0.9992325136 0.0239839530 0.1327751683
0.9678679072 0.1458704735 0.1227005235
0.9255153034 0.2901428761 0.1109803102
0.0167392572 0.3088636882 0.1258771649
0.1850529827 0.2907285961 0.1274914933
0.1109424517 0.3045959477 0.1262866051
0.2496676486 0.2839625861 0.1261589752
0.2708165755 0.2835984419 0.1247561613
0.2894298395 0.2822433180 0.1250201214
0.3067726167 0.2809793829 0.1260391818
0.3235714335 0.2801855120 0.1271621112
0.3387126760 0.2800815469 0.1285338874
0.3553002244 0.2802290312 0.1299741651
0.3668923901 0.2810745404 0.1280917805
0.3780164084 0.2820398633 0.1256686919
0.3894308113 0.2830408958 0.1268053434
0.4006829413 0.2840812213 0.1290452705
0.4134869851 0.2935676440 0.2052121416
0.4287681234 0.2931157371 0.2074242543
0.4429905865 0.2910189855 0.2054414752
0.4502949926 0.2904137872 0.2058782364
0.4601742978 0.2936297268 0.2028712739
0.4722981622 0.2947200198 0.2042547484
0.4779203282 0.2888916603 0.1303071643
0.4870214785 0.2913427468 0.1277777438
0.4967355665 0.2928549321 0.1287390385
0.5061544601 0.2945175305 0.1303260693
0.5152922898 0.2954729064 0.1301778175
0.5228793037 0.2984579482 0.1296690774
0.5329195309 0.2978586059 0.1282200444
0.9992325136 0.0239839530 0.1327751683
0.9992325136 0.0239839530 0.1327751683
0.9992325136 0.0239839530 0.1327751683
0.9992325136 0.0239839530 0.1327751683
0.9678679072 0.1458704735 0.1227005235
0.9170838602 0.3071205245 0.1724108557
0.0111870228 0.3271968713 0.1288040964
0.0551081294 0.3225245324 0.1269345836
0.1003303385 0.3175712507 0.1252849197
0.2459829734 0.3033125705 0.1257675680
0.2674710450 0.3012745422 0.1249588089
0.2853966086 0.2985435180 0.1259906374
0.3030285964 0.2968042946 0.1271387838
0.3194013907 0.2959912717 0.1279553561
0.3359422440 0.2956183636 0.1286658286
0.3511541572 0.2956415697 0.1282831790
0.3625994488 0.2959085402 0.1264622674
0.3741515181 0.2965173733 0.1257204669
0.3850927411 0.2973695811 0.1268660238
0.3961469046 0.2982621482 0.1276081886
0.4112866892 0.3026305767 0.1711006592
0.4209657501 0.3024432797 0.1622006762
0.4262278810 0.3025088624 0.1291661410
0.4369649006 0.3029449797 0.1273464457
0.4483830408 0.3032308140 0.1239971170
0.4580201047 0.3045488693 0.1272404844
0.4682967021 0.3053186636 0.1286843761
0.4869018958 0.3153194446 0.2123977164
0.4957706048 0.3174482053 0.2112436383
0.5058188940 0.3180560132 0.2137917894
0.5125285593 0.3175062884 0.2098136312
0.5194661415 0.3189169244 0.2100304484
0.6819557145 0.3748357725 0.2355770111
0.6819557145 0.3748357725 0.2355770111
0.6819557145 0.3748357725 0.2355770111
0.6819557145 0.3748357725 0.2355770111
0.9111899262 0.3181457309 0.1882269006
0.9112244769 0.3181069167 0.1882986337
0.8992803510 0.3164484912 0.1157929245
0.0153051599 0.3420554553 0.1318314237
0.0265043005 0.3409513686 0.1305049754
0.0264995848 0.3409603372 0.1305065038
0.2489478559 0.3173606184 0.1282365843
0.2692293979 0.3141215793 0.1299267467
0.2873870516 0.3118595309 0.1301920075
0.3042365111 0.3100836945 0.1270703540
0.3260449566 0.3176599589 0.2104859199
0.3371311994 0.3089052630 0.1277473813
0.3492745289 0.3088248059 0.1282132080
0.3610875328 0.3089430150 0.1289550661
0.3731464066 0.3120787022 0.1511688122
0.3824469673 0.3100325886 0.1262381241
0.3928970433 0.3111237484 0.1269549783
0.4029746194 0.3123580335 0.1287498163
0.4117832187 0.3142322082 0.1290124000
0.4307136268 0.3217306825 0.2107730798
0.4408778764 0.3230488482 0.2109824831
0.4516616433 0.3230866623 0.2094384162
0.4615249113 0.3239767946 0.2110441390
0.4715787943 0.3252768993 0.2152239961
0.4806560245 0.3265947407 0.2127695075
0.4895053859 0.3282730730 0.2122054020
0.4915290989 0.3239085531 0.1233936598
0.5006155719 0.3247188379 0.1268191672
0.5111626399 0.3297978989 0.1732222629
0.6819557145 0.3748357725 0.2355770111
0.6819557145 0.3748357725 0.2355770111
0.6819557145 0.3748357725 0.2355770111
0.6819557145 0.3748357725 0.2355770111
0.6819557145 0.3748357725 0.2355770111
0.6819557145 0.3748357725 0.2355770111
0.8986045120 0.3328350406 0.1707221779
0.0003351749 0.4338674602 0.1261469951
0.0234007702 0.3636651241 0.1304539128
0.0228734464 0.3544432385 0.1309125053
0.0228734367 0.3544432931 0.1309125035
0.0228734329 0.3544433143 0.1309125029
0.0228734308 0.3544433256 0.1309125026
0.0228734296 0.3544433325 0.1309125025
0.3225107465 0.3264837288 0.1629853319
0.3370477301 0.3265170301 0.1719084386
0.3496843402 0.3260000955 0.1685953298
0.3609864684 0.3266148319 0.1704916972
0.3712084319 0.3272740694 0.1714207615
0.3796401739 0.3234430387 0.1247003717
0.3972134834 0.3308614584 0.2099880528
0.4075345504 0.3310056239 0.2075298514
0.4155709200 0.3301843334 0.1894476524
0.4263361789 0.3326041376 0.1996567779
0.4314886116 0.3320965241 0.1629682348
0.4426761102 0.3332935986 0.1675086567
0.4480013349 0.3316291562 0.1258529763
0.4594534798 0.3319313601 0.1304996415
0.4670234397 0.3351365016 0.1235299605
0.4779812770 0.3378384711 0.1486247761
0.4893169174 0.3395943453 0.1713601600
0.5002312436 0.3410595143 0.1986417975
0.5148999168 0.3376894470 0.1786426150
0.6819557145 0.3748357725 0.2355770111
0.6819557145 0.3748357725 0.2355770111
0.6819557145 0.3748357725 0.2355770111
0.6819557145 0.3748357725 0.2355770111
0.6819557145 0.3748357725 0.2355770111
0.6819557145 0.3748357725 0.2355770111
0.8524095482 0.3430490632 0.1121686526
0.0003351749 0.4338674602 0.1261469951
0.0377669955 0.3639422767 0.1306100149
0.2316806673 0.3535510556 0.1931299075
0.2544537428 0.3512265627 0.2030485553
0.2745226007 0.3484621938 0.2081415745
0.2922260801 0.3461070169 0.2094753735
0.3082175305 0.3443237366 0.2081992409
0.3236159728 0.3431978909 0.2059220437
0.3379547729 0.3423937887 0.2064566534
0.3506353961 0.3425583141 0.2079916684
0.3608686335 0.3425402245 0.2080141146
0.3715533794 0.3426394641 0.2079074342
0.3836793488 0.3422795886 0.2077807343
0.3944852162 0.3421073752 0.2050251726
0.4047991435 0.3426921237 0.2094944730
0.4149653594 0.3436266238 0.2107472805
0.4257037554 0.3446585514 0.2084726572
0.4285980885 0.3435211750 0.1546069987
0.4356406575 0.3434409499 0.1222131228
0.4448210509 0.3445422185 0.1251812437
0.4537003600 0.3462030960 0.1245876010
0.4660798693 0.3476522910 0.1477615838
0.4779226555 0.3500478201 0.1815214997
0.4873710023 0.3519674587 0.2085841004
0.5031587813 0.3469672868 0.1777747456
0.5117046105 0.3482246106 0.1790784847
0.5203092835 0.3493820174 0.1789397081
0.6819557145 0.3748357725 0.2355770111
0.6819557145 0.3748357725 0.2355770111
0.6819557145 0.3748357725 0.2355770111
0.6819557145 0.3748357725 0.2355770111
0.6819557145 0.3748357725 0.2355770111
0.8755778919 0.3595273845 0.1594065816
0.0003351749 0.4338674602 0.1261469951
0.0018248949 0.3771720774 0.1306608052
0.2322216081 0.3644876395 0.1785337412
0.2534713177 0.3618814793 0.1861800490
0.2725101056 0.3590966139 0.1902900301
0.2893550658 0.3568276790 0.1912141070
0.3071587489 0.3546966176 0.1895736323
0.3236389141 0.3540600122 0.2077185617
0.3381163691 0.3529737555 0.2092304917
0.3497890724 0.3523174607 0.2098264098
0.3610833691 0.3516301946 0.2102760774
0.3719964751 0.3517160110 0.2093493112
0.3822600278 0.3519037879 0.2065659728
0.3923460578 0.3524843246 0.2088207769
0.4023637388 0.3531451810 0.2109012009
0.4137071426 0.3535949434 0.2091638805
0.4242565346 0.3541772870 0.2089434778
0.4236354229 0.3524389659 0.1225158960
0.4360475741 0.3541704322 0.1526326373
0.4432426906 0.3544679153 0.1240266267
0.4616224956 0.3578503549 0.2130489452
0.4615945252 0.3576249084 0.1225953902
0.4764850181 0.3612214000 0.2096565550
0.4859377308 0.3610197425 0.2091238162
0.5003899593 0.3577032737 0.1774077510
0.5085617521 0.3592212129 0.1778888566
0.5155831521 0.3589666053 0.1586760559
0.5269247963 0.3623433120 0.1795670506
0.5297829906 0.3234266660 0.1259341070
0.5697611186 0.3770972403 0.1557551170
0.5697611186 0.3770972403 0.1557551170
0.5697611186 0.3770972403 0.1557551170
0.8179690011 0.3691457848 0.1084854011
0.0003351749 0.4338674602 0.1261469951
0.0006880012 0.3923091693 0.1304603332
0.2337326640 0.3752018393 0.1619382558
0.2546035778 0.3726492351 0.1692427559
0.2719999431 0.3702005435 0.1720269162
0.2885701870 0.3678089426 0.1711383195
0.3083329944 0.3672812727 0.2087339576
0.3233794718 0.3651332527 0.2091967542
0.3368662377 0.3639769450 0.2108864657
0.3493105889 0.3623647278 0.2106098963
0.3609436054 0.3618237047 0.2108092106
0.3708813494 0.3621352974 0.2100181592
0.3810668138 0.3625558268 0.2102798514
0.3914279411 0.3631799264 0.2114075388
0.4021920799 0.3634225893 0.2099580316
0.4135766990 0.3640115469 0.2113180177
0.4224271428 0.3649443568 0.2133679925
0.4217465467 0.3633852572 0.1199158609
0.4408847723 0.3653939685 0.2101276419
0.4512492038 0.3663333102 0.2124416538
0.4579887687 0.3669104970 0.1965134128
0.4656637265 0.3683318951 0.1923454251
0.4747631394 0.3704394493 0.2083777702
0.4894363115 0.3675119591 0.1774755088
0.4966313670 0.3695464896 0.1777618104
0.5037356291 0.3693844902 0.1585989744
0.5111008220 0.3700822379 0.1458468269
0.5229348194 0.3749827074 0.1786477457
0.5281825353 0.3719237841 0.1316573345
0.5410904070 0.3778901893 0.1781960209
0.8103760298 0.3789040963 0.1076574230
0.8103760298 0.3789040963 0.1076574230
0.7917671918 0.3806953590 0.1164527211
0.0003351749 0.4338674602 0.1261469951
0.1974976217 0.3875830942 0.1210885356
0.2368026126 0.3843079583 0.1256962080
0.2569217365 0.3819022045 0.1294770650
0.2715353396 0.3796564647 0.1286636943
0.2873303075 0.3773704608 0.1289128554
0.3066737090 0.3791404303 0.2108490854
0.3210765221 0.3771430913 0.2077556813
0.3353971983 0.3745397521 0.2073713540
0.3498176978 0.3725088133 0.2086638669
0.3604178247 0.3717056584 0.2099484656
0.3710015637 0.3712203104 0.2114861218
0.3811179436 0.3722197066 0.2113426089
0.3912898221 0.3731260117 0.2113295936
0.4014640401 0.3730999445 0.1981920303
0.4103448670 0.3739418661 0.1926993351
0.4186376855 0.3746727083 0.1868340141
0.4343974651 0.3798025871 0.2642660690
0.4420823068 0.3801850479 0.2634241482
0.4425472968 0.3740737535 0.1246781693
0.4556653769 0.3761277141 0.1779108642
0.4652649235 0.3781637031 0.2042129784
0.4741108232 0.3792321900 0.2112657287
0.4844483105 0.3792027793 0.1662517200
0.4913883302 0.3799842336 0.1541667241
0.4985293986 0.3808986051 0.1413303049
0.5060834155 0.3819032961 0.1281357476
0.5310683690 0.3926605199 0.1995806302
0.5288124388 0.3868852722 0.1671665935
0.5402396620 0.3878131359 0.1770621709
0.5477628514 0.3883547476 0.1648587224
0.5826373011 0.3913986431 0.2040786931
0.5991195102 0.3909933199 0.1813394020
0.0003351749 0.4338674602 0.1261469951
0.0004884005 0.4158318800 0.1282165887
0.2346666132 0.3952636962 0.1228866010
0.2555386672 0.3926285292 0.1227300029
0.2729826362 0.3901546642 0.1211641890
0.2888725763 0.3880172495 0.1199760494
0.3081367814 0.3902405910 0.2084073944
0.3210590493 0.3874536674 0.1969360568
0.3351185998 0.3846556771 0.1963428372
0.3479862312 0.3831002612 0.1945252762
0.3597240944 0.3819474450 0.1944172877
0.3701244476 0.3817895460 0.1862876288
0.3804237880 0.3818333159 0.1799880696
0.3908608833 0.3818156933 0.1759468424
0.4007561065 0.3820041083 0.1723487069
0.4092560887 0.3827247255 0.1661830272
0.4173495609 0.3832077852 0.1580867322
0.4330596454 0.3884308067 0.2533434625
0.4417390405 0.3875098400 0.2388289957
0.4507061029 0.3870670552 0.2288983049
0.4580871589 0.3867512118 0.2178085833
0.4647830039 0.3870321527 0.2065455098
0.4735407537 0.3885905212 0.1595511461
0.4802831827 0.3893152610 0.1480364935
0.4873237713 0.3902410457 0.1357069178
0.4949768532 0.3911934660 0.1222983949
0.5045515577 0.3922177877 0.1207448108
0.5255826926 0.3948205469 0.2058701553
0.5336376152 0.3951680048 0.1901012147
0.5387890565 0.3952165621 0.1606499107
0.5457812319 0.3957497300 0.1418267651
0.5571984070 0.3964589996 0.1192795673
0.6030709177 0.4004919283 0.1448974364
0.0003351749 0.4338674602 0.1261469951
0.0003351749 0.4338674602 0.1261469951
0.0003351749 0.4338674602 0.1261469951
0.0003351749 0.4338674602 0.1261469951
0.0003351749 0.4338674602 0.1261469951
0.0003351749 0.4338674602 0.1261469951
0.3085683600 0.3992609761 0.1707963039
0.3218224202 0.3968773679 0.1703001604
0.3351311983 0.3948462851 0.1686074900
0.3476398407 0.3936192425 0.1706002420
0.3593401855 0.3926885823 0.1688951818
0.3699104203 0.3920829535 0.1597862162
0.3803534625 0.3913236139 0.1539048593
0.3907932763 0.3905705326 0.1506332869
0.3996552224 0.3911045323 0.1445793344
0.4079755593 0.3917693454 0.1360287285
0.4167275404 0.3926176393 0.1263882112
0.4332016547 0.3960236222 0.2344399736
0.4419351728 0.3954634605 0.2213459463
0.4499018486 0.3951157884 0.2133982445
0.4566586652 0.3949496495 0.2057698956
0.4625951302 0.3957939336 0.1791282398
0.4712461017 0.3970897551 0.1404622558
0.4783001601 0.3978199658 0.1284659104
0.4864653987 0.3985603889 0.1194006696
0.4969440528 0.3993620097 0.1198479023
0.5069886265 0.4001108294 0.1192485501
0.5232552500 0.4026888322 0.1796814740
0.5306961151 0.4028920321 0.1587220075
0.5370534885 0.4034453183 0.1398696026
0.5442407757 0.4043114517 0.1181770825
0.5583018643 0.4055640850 0.1200957499
0.5896849979 0.4074864707 0.1184313976
0.0003453580 0.4340286462 0.1258849419
0.0003453580 0.4340286462 0.1258849419
0.0003732391 0.4340238352 0.1258843614
0.0004058087 0.4340182151 0.1258836832
0.0004380084 0.4340126583 0.1258830129
0.0004747017 0.4340063258 0.1258822490
0.3067323130 0.4092715126 0.1410204260
0.3197288815 0.4071198558 0.1393668588
0.3330592508 0.4052698630 0.1403620911
0.3460494761 0.4036061186 0.1417255844
0.3573365812 0.4022130258 0.1369542700
0.3685390863 0.4009324557 0.1326602902
0.3800803605 0.4004970866 0.1278153645
0.3905299892 0.4004966090 0.1244163564
0.4001106230 0.4007718776 0.1227503451
0.4087516995 0.4013595905 0.1202916582
0.4179694937 0.4015768708 0.1197266588
0.4332587861 0.4041694221 0.2112164025
0.4427192017 0.4039198597 0.2036434652
0.4485431351 0.4038057259 0.1888338488
0.4546489672 0.4046736956 0.1663405700
0.4623379218 0.4052716560 0.1316266584
0.4693378719 0.4059248284 0.1195755753
0.4779298590 0.4069310050 0.1179423943
0.4879772891 0.4078412573 0.1183927966
0.4979925085 0.4084383014 0.1182642308
0.5080752426 0.4090613846 0.1179281515
0.5181685986 0.4099206731 0.1176293458
0.5291747098 0.4116131537 0.1422857882
0.5351810653 0.4122071112 0.1177373332
0.5446980608 0.4136634761 0.1181798147
0.5589734658 0.4148864677 0.1203875018
0.5782190578 0.4102368609 0.1195258762
0.0003360643 0.4340302499 0.1258851354
0.0003360643 0.4340302499 0.1258851354
0.0003407139 0.4340294476 0.1258850386
0.0003453580 0.4340286462 0.1258849419
0.0003500132 0.4340278430 0.1258848450
0.0003546517 0.4340270425 0.1258847484
0.3056834645 0.4210446590 0.1176343646
0.3192790064 0.4189331749 0.1182559994
0.3327394873 0.4167036623 0.1189385191
0.3441343949 0.4144000672 0.1164653683
0.3551610016 0.4120762382 0.1134961412
0.3685278492 0.4115311868 0.1173212894
0.3809237710 0.4113186470 0.1206203875
0.3906838915 0.4114404498 0.1228358334
0.4006462998 0.4112853780 0.1222993971
0.4102464191 0.4115899594 0.1212470484
0.4182575621 0.4126549843 0.1190181139
0.4278995569 0.4126208878 0.1196069234
0.4400669708 0.4131290375 0.1722135167
0.4463387469 0.4136053108 0.1522367130
0.4535683822 0.4138493324 0.1224628784
0.4612403259 0.4144794293 0.1161681049
0.4696503033 0.4157309300 0.1164687068
0.4793849539 0.4168135609 0.1168462196
0.4891749140 0.4173959643 0.1170403220
0.4993889779 0.4177355271 0.1169470688
0.5093711242 0.4184462983 0.1168711178
0.5184393264 0.4194434544 0.1169475385
0.5265470452 0.4206707326 0.1171838280
0.5351016309 0.4223208592 0.1174596456
0.5441186523 0.4230295676 0.1184201892
0.5590422410 0.4241607642 0.1195460222
0.5719118880 0.4121293618 0.1202082392
0.0003360643 0.4340302499 0.1258851354
0.0003360643 0.4340302499 0.1258851354
0.0003360643 0.4340302499 0.1258851354
0.0003407139 0.4340294476 0.1258850386
0.0003407139 0.4340294476 0.1258850386
0.0003453580 0.4340286462 0.1258849419
0.3083440526 0.4311673631 0.1153312407
0.3212244026 0.4294520994 0.1160821367
0.3338953093 0.4271119803 0.1165636753
0.3456955160 0.4243919981 0.1156871391
0.3578301321 0.4232511543 0.1159255688
0.3704397430 0.4225500428 0.1176140642
0.3808692269 0.4216980422 0.1199947158
0.3918344444 0.4208049729 0.1207528125
0.4027802305 0.4203420953 0.1200350127
0.4101824712 0.4210627023 0.1180908192
0.4192150002 0.4214152614 0.1185851922
0.4369447078 0.4252691611 0.2638862520
0.4373798687 0.4222806590 0.1373858033
0.4447246512 0.4234453581 0.1143079142
0.4529547865 0.4243957679 0.1146123452
0.4620198941 0.4252673137 0.1149573273
0.4716698964 0.4259972317 0.1153370865
0.4813091424 0.4266458383 0.1156536353
0.4908259686 0.4270291538 0.1157654995
0.5001676235 0.4276214145 0.1159105436
0.5099903461 0.4282383988 0.1161624720
0.5173493190 0.4301585049 0.1164720996
0.5261517008 0.4315078423 0.1167741946
0.5351647482 0.4324373726 0.1172921433
0.8071411451 0.4424730440 0.2684621809
0.7585718155 0.4373671129 0.3042137223
0.8219829488 0.4358189902 0.2203347018
0.0003360643 0.4340302499 0.1258851354
0.0003360643 0.4340302499 0.1258851354
0.0003360643 0.4340302499 0.1258851354
0.0003360643 0.4340302499 0.1258851354
0.0003407139 0.4340294476 0.1258850386
0.3050683800 0.4451383377 0.2623018935
0.3177118184 0.4441010463 0.2631083622
0.3196691768 0.4401153734 0.1149082694
0.3346051329 0.4377620119 0.1164474258
0.3481192459 0.4354578982 0.1162707827
0.3602130750 0.4341609225 0.1140724477
0.3712028361 0.4327062024 0.1159444607
0.3819113283 0.4309928750 0.1176632245
0.3932472289 0.4298067659 0.1191145126
0.4017835281 0.4305235294 0.1161938348
0.4108603257 0.4313526397 0.1152294075
0.4323494077 0.4361830500 0.3004126368
0.4389494112 0.4353699608 0.2800945881
0.4454562470 0.4365228702 0.2435833153
