Luts/Panasonic-Standard/Conversion/S1IIS2V.cube
TITLE "S1II Standard to V-Log"
#LUMIXPHOTOSTYLE STD
LUT_3D_SIZE 5
0.1250305325 0.1250305325 0.1250305325
0.3811630060 0.1206386197 0.1360385106
0.4857582281 0.1336438021 0.1478536397
0.5608567797 0.1467323641 0.1513070379
0.8665893614 0.3008876417 0.1999633051
0.0147995179 0.3524979244 0.1932664352
0.3321565879 0.3263608094 0.1906852161
0.4212303765 0.3336110696 0.2102403027
0.4916430287 0.3451482120 0.2064105151
0.8130709382 0.3987100939 0.2255382955
0.0076426138 0.4429135297 0.2636044502
0.3334235901 0.4130590744 0.1495116387
0.4157841539 0.4099420777 0.1512854801
0.4966546463 0.4144560378 0.1515489008
0.7776245782 0.4570640140 0.3043848502
0.0368164760 0.5143283950 0.2325925702
0.3486423623 0.4938761353 0.1694893716
0.4226650104 0.4872104743 0.1687141813
0.5046556299 0.4923402962 0.2691158580
0.7407413750 0.5111248273 0.2511266543
0.0317460336 0.6174603403 0.1909645954
0.3654064979 0.5917167856 0.1928089672
0.4270545997 0.5953064640 0.1955122330
0.5034774370 0.5978427942 0.2248812207
0.6512820721 0.6470085680 0.2177655697
0.0862023231 0.1917230106 0.3141721297
0.3582421616 0.1915086183 0.3229275584
0.4990089687 0.1156886974 0.3059955306
0.5767439873 0.1351916591 0.2968612755
0.6872433988 0.1668251252 0.2263681823
0.0129160115 0.3697377900 0.3499507583
0.3442527821 0.3442527821 0.3442527821
0.4277334557 0.3493816522 0.3433282891
0.5059754917 0.3537746361 0.3404592097
0.6051506461 0.3715312229 0.3437468202
0.0129519834 0.4545967710 0.3825893940
0.3509070589 0.4327257507 0.3732412778
0.4296044520 0.4284336336 0.3798882220
0.5053067799 0.4342336428 0.3874753256
0.7243388824 0.4604913923 0.4022929425
0.0080396397 0.5341166037 0.4166480121
0.3662893583 0.5168041364 0.4055730400
0.4406681431 0.5137651193 0.4099399452
0.5169021729 0.5096815398 0.4207183353
0.7367929397 0.5275888290 0.4397086536
0.1361315418 0.7028091475 0.4404853415
0.3929479210 0.6877452739 0.4420422678
0.4482243624 0.6808988324 0.4416294704
0.5213239517 0.6232357850 0.4446879943
0.6577533782 0.6459096670 0.4601953775
0.1157313530 0.1119988066 0.3810420466
0.3795339570 0.0868089166 0.3959199392
0.4802394130 0.1489086205 0.3978784007
0.5860254470 0.1156391824 0.3945564714
0.9057760476 0.2131909488 0.4221552374
0.0143639486 0.3852123708 0.4206084207
0.3415765526 0.3598975436 0.4174612333
0.4312813045 0.3595673394 0.4173165255
0.5088304295 0.3680549686 0.4181665240
0.6405591792 0.3877118273 0.4190336088
0.0030232043 0.4679562047 0.4427141624
0.3630222027 0.4463379600 0.4383898937
0.4416043577 0.4416043577 0.4416043577
0.5172119383 0.4473372174 0.4429943516
0.6118574877 0.4572758151 0.4453681634
0.2519547991 0.5298050766 0.4738114297
0.3758501110 0.5282318318 0.4721934544
0.4498765266 0.5269738815 0.4711952308
0.5256751487 0.5229723884 0.4759887278
0.7281117054 0.5371487018 0.4919416145
0.0941211477 0.7070784175 0.5034156943
0.3933205750 0.6426976264 0.4974186516
0.4528328014 0.6812547624 0.5004649073
0.5274093919 0.6617919938 0.5014254356
0.6682669423 0.6366102094 0.5168288168
0.1393206574 0.0918173829 0.4421633393
0.3546375408 0.0771209006 0.4573232651
0.5009361356 0.0930280465 0.4627363597
0.5894233948 0.1015687387 0.4617315193
0.8754196215 0.2320438091 0.4868981536
0.0024831286 0.3977770708 0.4867024714
0.3425671023 0.3758061424 0.4829575740
0.4303372082 0.3705883277 0.4886855344
0.5109368326 0.3785166719 0.4896716635
0.6184329715 0.3935587266 0.4931019050
0.0013125524 0.4790155578 0.5093898824
0.3696088858 0.4582181886 0.5087706163
0.4424595220 0.4564244867 0.5101409670
0.5241116700 0.4581133704 0.5122152358
0.7735302173 0.4832049412 0.5289206748
0.0060191359 0.5550103975 0.5342677586
0.3850021035 0.5420744805 0.5338585179
0.4561258847 0.5412822789 0.5339614624
0.5356055629 0.5356055629 0.5356055629
0.6460315939 0.5428543494 0.5374613491
0.2047997600 0.6583351499 0.5628381738
0.3995831538 0.6431357746 0.5657281659
0.4569867762 0.6795827331 0.5663003857
0.5351063817 0.6539657046 0.5650796634
0.6613919616 0.6492307901 0.5788278639
0.2058211770 0.0132177031 0.6153919265
0.3534215229 0.2694318090 0.6394607904
0.5607793487 0.0166745492 0.6498809747
0.5261670736 0.2753806651 0.6509426223
0.6996469071 0.1182445481 0.5434525895
0.0024730379 0.4051134187 0.5723336135
0.3536757865 0.3880457544 0.5662650079
0.4437921473 0.3762894363 0.6440480635
0.5129124757 0.3861237823 0.5774853422
0.8088203575 0.4229133904 0.6756180684
0.2938858009 0.4728267402 0.6441676514
0.3830299884 0.4701390648 0.6214243996
0.4449139101 0.4692738286 0.6119992886
0.5269794436 0.4632210015 0.6514336840
0.6638654766 0.4747425316 0.6276903195
0.2418184091 0.5495091865 0.6181592693
0.3992381615 0.5527550810 0.6254848348
0.4603105968 0.5530712040 0.6387046625
0.5362464304 0.5481943654 0.6418101786
0.7174761170 0.5517712387 0.6599009815
0.2913283816 0.6795497282 0.6610215533
0.4145299196 0.6769230962 0.6553113759
0.4560662276 0.6688849220 0.6566820550
0.5171603324 0.6708817295 0.6606879463
0.6656898856 0.6656898856 0.6656898856
