Luts/Panasonic-Standard/Conversion/S1IIES2V.cube
TITLE "S1IIE Standard to V-Log"
#LUMIXPHOTOSTYLE STD
LUT_3D_SIZE 5
0.1250305325 0.1250305325 0.1250305325
0.4134248977 0.1028664694 0.1324844092
0.5353738818 0.1020301670 0.1399028853
0.6290156761 0.0964256994 0.1377528684
0.9635539393 0.1673313238 0.1444549462
0.0003351749 0.4338674602 0.1261469951
0.3370477301 0.3265170301 0.1719084386
0.4263361789 0.3326041376 0.1996567779
0.5002312436 0.3410595143 0.1986417975
0.8524095482 0.3430490632 0.1121686526
0.0003360643 0.4340302499 0.1258851354
0.3327394873 0.4167036623 0.1189385191
0.4182575621 0.4126549843 0.1190181139
0.4891749140 0.4173959643 0.1170403220
0.5719118880 0.4121293618 0.1202082392
0.0002743066 0.5189540190 0.1225299851
0.3426015497 0.4981164150 0.1077087210
0.4225553343 0.4896150035 0.1037679590
0.5005274143 0.4918016626 0.1053470474
0.7497818373 0.5048828834 0.1287571656
0.2247040999 0.6202711347 0.0790336675
0.3426661720 0.5919270274 0.0817114275
0.4173279365 0.5897341731 0.0803519803
0.4998835813 0.6439262520 0.0491200616
0.6296155313 0.6680396899 0.0489297559
0.0909593107 0.1689801584 0.3257794688
0.3713567557 0.1860571978 0.3377185500
0.5447932577 0.0762783884 0.3246727149
0.6433529374 0.0702806007 0.3169692669
0.7460157279 0.0697850543 0.2757065927
0.0191851929 0.3701174100 0.3540375102
0.3456291103 0.3456291103 0.3456291103
0.4358756540 0.3483603948 0.3469255437
0.5198897417 0.3490537340 0.3443369724
0.6172814966 0.3600398136 0.3508285831
0.0570775339 0.4522308073 0.3805003019
0.3458561521 0.4351917188 0.3769111998
0.4317898560 0.4304637160 0.3818662171
0.5130415940 0.4332680712 0.3911123032
0.8170828229 0.4392533604 0.4075773234
0.0435955826 0.5285001981 0.4120901403
0.3604260197 0.5176450186 0.4092212875
0.4434223944 0.5122593210 0.4161046014
0.5245203532 0.5102525056 0.4255257967
0.7745181449 0.5157084325 0.4430137651
0.0757770225 0.7248578890 0.4123708223
0.3969176828 0.7043240160 0.4220925001
0.4462325782 0.6998102966 0.4172116633
0.5298716891 0.6288451965 0.4492830081
0.6620802793 0.6612725427 0.4590616977
0.0875535839 0.1641451720 0.4075225839
0.3987428326 0.0694834691 0.4191439077
0.4899734265 0.1689474165 0.4191526084
0.6501351159 0.0513781281 0.4244707911
0.9874387393 0.0898585100 0.4341024410
0.0355047125 0.3805964604 0.4305309106
0.3404994877 0.3611538397 0.4190324537
0.4309863211 0.3565617161 0.4256501855
0.5191204917 0.3635231559 0.4259179052
0.7471997223 0.3751371946 0.4315490020
0.0588597245 0.4612519444 0.4470744687
0.3618771445 0.4474101317 0.4392280616
0.4433621273 0.4433621273 0.4433621273
0.5183292824 0.4482787782 0.4485968789
0.6277221411 0.4541438240 0.4540790197
0.0022728678 0.5371233303 0.4774645435
0.3751155897 0.5273925108 0.4746631431
0.4475059854 0.5285603027 0.4751582042
0.5301575037 0.5250817814 0.4799694034
0.7713159620 0.5291630042 0.4995398480
0.2459936287 0.6472186457 0.5041984399
0.3949290416 0.6779572014 0.4999607161
0.4512651406 0.6450583163 0.5056602552
0.5257808100 0.6885195663 0.5087176398
0.6796715741 0.6478784641 0.5273226934
0.1213429481 0.1287085280 0.4743888786
0.3626908101 0.0635053217 0.4835336296
0.5139668005 0.1121394484 0.4878343513
0.6525387273 0.0388730264 0.4938198194
0.9849392535 0.1079308098 0.5085549343
0.0096949416 0.3963938674 0.4986037465
0.3340763612 0.3747738475 0.4911692015
0.4302696851 0.3702037662 0.4918924677
0.5159996554 0.3722114618 0.4983225429
0.6231677991 0.3832931291 0.5008587763
0.0147664236 0.4739069478 0.5169407448
0.3661023495 0.4581687966 0.5095739482
0.4438375667 0.4578371830 0.5085212062
0.5223042686 0.4576915189 0.5177626940
0.6430114504 0.4675626575 0.5199363700
0.2738929760 0.5410300722 0.5368401762
0.3886006620 0.5426990062 0.5354713857
0.4612013386 0.5429429613 0.5362165950
0.5400815670 0.5400815670 0.5400815670
0.7324073102 0.5443222545 0.5492338592
0.0276790845 0.6380963992 0.5714586414
0.4088540626 0.6721754185 0.5744571033
0.4633907669 0.6571506562 0.5760895733
0.5390685388 0.6654051080 0.5781685025
0.6763618019 0.6576838053 0.5925269589
0.0134473021 0.3116057754 0.5540309457
0.1506147328 0.0571763685 0.5548092447
0.5304423551 0.1074240834 0.6880821747
0.6505443735 0.0272325565 0.5655780838
0.7649024585 0.0117365630 0.6284842363
0.0012301113 0.4057673136 0.5846587895
0.3437209562 0.3872823305 0.5806711986
0.4356678134 0.3821659202 0.5870167492
0.5165294948 0.3856646491 0.5901181102
0.8301406416 0.3870480681 0.7010864107
0.0001757089 0.4797957492 0.6123873673
0.3712313488 0.4690821960 0.5982158755
0.4443734026 0.4694816351 0.6054834379
0.5237632186 0.4686411252 0.6034546733
0.7584103531 0.4710239937 0.6781329122
0.0001817350 0.5536357204 0.6587889697
0.4008205285 0.5530250538 0.6637498093
0.4637796545 0.5554903331 0.6430392683
0.5385789002 0.5542951940 0.6748035461
0.7411120939 0.5505369198 0.6853789991
0.0251673681 0.6426663197 0.6617516871
0.4185982701 0.6704083636 0.6670009865
0.4669965557 0.6925771732 0.6702344341
0.5286403392 0.6861456229 0.6736036492
0.6790860125 0.6790860125 0.6790860125
