Luts/Panasonic-Standard/Conversion/S1RIIS2V.cube
TITLE "S1RII Standard to V-Log"
#LUMIXPHOTOSTYLE STD
# Globally fitted from paired decoded Standard/V-Log forward maps.
# No pointwise Standard inverse or empirical output colour patch is used.
# Samples=300000, smoothness=0.01, prior_weight=1.
LUT_3D_SIZE 33
0.1250305325 0.1250305325 0.1250305325
0.1621314871 0.1450673555 0.1397350713
0.2234590146 0.1872035446 0.1707836834
0.2774041736 0.2238007017 0.1941910313
0.3313493326 0.2603978589 0.2175983792
0.3265332268 0.2399102723 0.1982938800
0.3217171211 0.2194226857 0.1789893807
0.3169010153 0.1989350991 0.1596848814
0.3120849095 0.1784475125 0.1403803822
0.3251394036 0.1941695824 0.1563360375
0.3381938976 0.2098916523 0.1722916928
0.3512483916 0.2256137222 0.1882473481
0.3643028857 0.2413357922 0.2042030034
0.3712968046 0.2396337462 0.1965569082
0.3782907236 0.2379317002 0.1889108131
0.3852846426 0.2362296542 0.1812647179
0.3922785615 0.2345276082 0.1736186228
0.4002839147 0.2389324305 0.1740856974
0.4082892678 0.2433372527 0.1745527721
0.4162946209 0.2477420749 0.1750198467
0.4242999740 0.2521468971 0.1754869214
0.4330709437 0.2541130254 0.1749970302
0.4418419135 0.2560791536 0.1745071391
0.4506128832 0.2580452818 0.1740172479
0.4593838530 0.2600114101 0.1735273568
0.4649550714 0.2621340015 0.1733315399
0.4705262898 0.2642565930 0.1731357229
0.4760975082 0.2663791845 0.1729399060
0.4816687266 0.2685017760 0.1727440891
0.4797941391 0.2761831707 0.1402376781
0.4779195517 0.2838645655 0.1077312671
0.4760449642 0.2915459602 0.0752248561
0.4741703767 0.2992273549 0.0427184451
0.1458486158 0.1665106197 0.1391002657
0.1801101268 0.1835897855 0.1549148210
0.2327685896 0.2172428093 0.1813342554
0.2725373923 0.2398393882 0.1986306181
0.3123061950 0.2624359671 0.2159269808
0.3143237374 0.2500985150 0.2026492453
0.3163412799 0.2377610629 0.1893715099
0.3183588224 0.2254236107 0.1760937745
0.3203763648 0.2130861586 0.1628160391
0.3320251503 0.2243414407 0.1723304475
0.3436739357 0.2355967228 0.1818448558
0.3553227212 0.2468520049 0.1913592641
0.3669715066 0.2581072870 0.2008736724
0.3745155519 0.2577257740 0.1916017198
0.3820595971 0.2573442609 0.1823297671
0.3896036424 0.2569627479 0.1730578144
0.3971476877 0.2565812348 0.1637858618
0.4062195636 0.2594985900 0.1685834446
0.4152914396 0.2624159452 0.1733810274
0.4243633155 0.2653333005 0.1781786102
0.4334351915 0.2682506557 0.1829761931
0.4412669558 0.2697986474 0.1824141953
0.4490987202 0.2713466391 0.1818521974
0.4569304846 0.2728946309 0.1812901996
0.4647622489 0.2744426226 0.1807282018
0.4708128889 0.2765575529 0.1837732351
0.4768635288 0.2786724832 0.1868182685
0.4829141688 0.2807874136 0.1898633018
0.4889648087 0.2829023439 0.1929083351
0.4884730823 0.2891435199 0.1650654712
0.4879813559 0.2953846960 0.1372226074
0.4874896294 0.3016258720 0.1093797435
0.4869979030 0.3078670480 0.0815368796
0.1908932720 0.2300900730 0.1695140723
0.2164857183 0.2386860735 0.1806994498
0.2420781647 0.2472820741 0.1918848273
0.2676706110 0.2558780747 0.2030702048
0.2932630574 0.2644740753 0.2142555823
0.3021142480 0.2602867577 0.2070046107
0.3109654387 0.2560994400 0.1997536392
0.3198166294 0.2519121224 0.1925026676
0.3286678201 0.2477248047 0.1852516961
0.3389108969 0.2545132990 0.1883248574
0.3491539738 0.2613017933 0.1913980188
0.3593970507 0.2680902876 0.1944711802
0.3696401275 0.2748787819 0.1975443415
0.3777342991 0.2758178018 0.1866465313
0.3858284706 0.2767568217 0.1757487211
0.3939226422 0.2776958415 0.1648509109
0.4020168138 0.2786348614 0.1539531008
0.4121552126 0.2800647496 0.1630811918
0.4222936114 0.2814946378 0.1722092828
0.4324320102 0.2829245260 0.1813373738
0.4425704090 0.2843544143 0.1904654648
0.4494629680 0.2854842695 0.1898313603
0.4563555269 0.2866141247 0.1891972558
0.4632480859 0.2877439799 0.1885631513
0.4701406448 0.2888738351 0.1879290469
0.4766707063 0.2909811043 0.1942149304
0.4832007678 0.2930883735 0.2005008140
0.4897308293 0.2951956426 0.2067866976
0.4962608909 0.2973029118 0.2130725811
0.4971520255 0.3021038691 0.1898932644
0.4980431601 0.3069048265 0.1667139476
0.4989342947 0.3117057838 0.1435346309
0.4998254293 0.3165067411 0.1203553141
0.2285555596 0.2881304943 0.1922866146
0.2399716497 0.2827259166 0.1973610069
0.2513877397 0.2773213389 0.2024353992
0.2628038297 0.2719167612 0.2075097915
0.2742199197 0.2665121835 0.2125841838
0.2899047586 0.2704750003 0.2113599761
0.3055895976 0.2744378172 0.2101357684
0.3212744365 0.2784006340 0.2089115607
0.3369592754 0.2823634508 0.2076873531
0.3457966436 0.2846851573 0.2043192674
0.3546340119 0.2870068638 0.2009511818
0.3634713802 0.2893285703 0.1975830962
0.3723087484 0.2916502768 0.1942150106
0.3809530463 0.2939098296 0.1816913429
0.3895973442 0.2961693824 0.1691676752
0.3982416420 0.2984289352 0.1566440075
0.4068859399 0.3006884879 0.1441203398
0.4180908615 0.3006309092 0.1575789389
0.4292957832 0.3005733304 0.1710375381
0.4405007049 0.3005157516 0.1844961373
0.4517056266 0.3004581728 0.1979547365
0.4576589801 0.3011698915 0.1972485253
0.4636123336 0.3018816102 0.1965423142
0.4695656872 0.3025933289 0.1958361031
0.4755190407 0.3033050476 0.1951298919
0.4825285238 0.3054046556 0.2046566257
0.4895380068 0.3075042637 0.2141833595
0.4965474899 0.3096038717 0.2237100934
0.5035569730 0.3117034797 0.2332368272
0.5058309686 0.3150642184 0.2147210575
0.5081049643 0.3184249570 0.1962052879
0.5103789599 0.3217856956 0.1776895183
0.5126529556 0.3251464342 0.1591737486
0.2662178473 0.3461709157 0.2150591569
0.2634575810 0.3267657597 0.2140225640
0.2606973147 0.3073606037 0.2129859711
0.2579370484 0.2879554477 0.2119493782
0.2551767821 0.2685502917 0.2109127853
0.2776952693 0.2806632430 0.2157153415
0.3002137564 0.2927761943 0.2205178977
0.3227322435 0.3048891456 0.2253204538
0.3452507307 0.3170020969 0.2301230100
0.3526823903 0.3148570156 0.2203136774
0.3601140500 0.3127119343 0.2105043448
0.3675457097 0.3105668530 0.2006950123
0.3749773694 0.3084217717 0.1908856797
0.3841717935 0.3120018574 0.1767361544
0.3933662177 0.3155819431 0.1625866292
0.4025606418 0.3191620288 0.1484371040
0.4117550660 0.3227421145 0.1342875788
0.4240265105 0.3211970687 0.1520766861
0.4362979550 0.3196520229 0.1698657934
0.4485693996 0.3181069772 0.1876549008
0.4608408441 0.3165619314 0.2054440081
0.4658549922 0.3168555135 0.2046656903
0.4708691404 0.3171490957 0.2038873726
0.4758832885 0.3174426779 0.2031090548
0.4808974366 0.3177362601 0.2023307370
0.4883863412 0.3198282070 0.2150983210
0.4958752459 0.3219201539 0.2278659051
0.5033641505 0.3240121008 0.2406334891
0.5108530551 0.3261040477 0.2534010732
0.5145099118 0.3280245676 0.2395488507
0.5181667685 0.3299450875 0.2256966282
0.5218236252 0.3318656074 0.2118444056
0.5254804819 0.3337861273 0.1979921831
0.2557973495 0.3339632043 0.2111441387
0.2615956355 0.3240805127 0.2112543835
0.2673939215 0.3141978212 0.2113646284
0.2731922074 0.3043151296 0.2114748733
0.2789904934 0.2944324380 0.2115851182
0.2957176628 0.3014448708 0.2165210819
0.3124448322 0.3084573036 0.2214570456
0.3291720016 0.3154697365 0.2263930093
0.3458991710 0.3224821693 0.2313289730
0.3544463913 0.3230375214 0.2241583401
0.3629936116 0.3235928735 0.2169877072
0.3715408318 0.3241482256 0.2098170742
0.3800880521 0.3247035777 0.2026464413
0.3883886145 0.3270597048 0.1894104875
0.3966891769 0.3294158319 0.1761745337
0.4049897393 0.3317719590 0.1629385799
0.4132903017 0.3341280861 0.1497026261
0.4243804139 0.3336647136 0.1650218763
0.4354705260 0.3332013411 0.1803411265
0.4465606382 0.3327379685 0.1956603768
0.4576507504 0.3322745960 0.2109796270
0.4639579216 0.3325046824 0.2089583960
0.4702650928 0.3327347687 0.2069371650
0.4765722640 0.3329648551 0.2049159340
0.4828794353 0.3331949415 0.2028947030
0.4971144747 0.3317935106 0.2012249044
0.5113495142 0.3303920796 0.1995551058
0.5255845537 0.3289906486 0.1978853072
0.5398195931 0.3275892177 0.1962155086
0.5386161426 0.3292853537 0.1942979624
0.5374126921 0.3309814898 0.1923804162
0.5362092416 0.3326776259 0.1904628700
0.5350057911 0.3343737620 0.1885453238
0.2453768518 0.3217554930 0.2072291204
0.2597336900 0.3213952658 0.2084862031
0.2740905282 0.3210350386 0.2097432858
0.2884473664 0.3206748114 0.2110003684
0.3028042047 0.3203145842 0.2122574511
0.3137400563 0.3222264986 0.2173268224
0.3246759080 0.3241384129 0.2223961936
0.3356117597 0.3260503273 0.2274655648
0.3465476114 0.3279622416 0.2325349361
0.3562103923 0.3312180272 0.2280030028
0.3658731731 0.3344738127 0.2234710695
0.3755359540 0.3377295982 0.2189391362
0.3851987349 0.3409853837 0.2144072030
0.3926054355 0.3421175522 0.2020848206
0.4000121362 0.3432497207 0.1897624382
0.4074188368 0.3443818892 0.1774400558
0.4148255375 0.3455140578 0.1651176734
0.4247343173 0.3461323585 0.1779670665
0.4346430971 0.3467506592 0.1908164596
0.4445518769 0.3473689599 0.2036658527
0.4544606567 0.3479872606 0.2165152458
0.4620608510 0.3481538512 0.2132511016
0.4696610453 0.3483204418 0.2099869574
0.4772612396 0.3484870323 0.2067228132
0.4848614339 0.3486536229 0.2034586690
0.5058426082 0.3437588141 0.1873514878
0.5268237825 0.3388640053 0.1712443065
0.5478049569 0.3339691965 0.1551371253
0.5687861312 0.3290743877 0.1390299440
0.5627223735 0.3305461399 0.1490470741
0.5566586158 0.3320178921 0.1590642042
0.5505948581 0.3334896444 0.1690813343
0.5445311004 0.3349613966 0.1790984644
0.2349563540 0.3095477816 0.2033141021
0.2578717445 0.3187100188 0.2057180226
0.2807871350 0.3278722560 0.2081219431
0.3037025255 0.3370344933 0.2105258636
0.3266179159 0.3461967305 0.2129297841
0.3317624499 0.3430081264 0.2181325628
0.3369069839 0.3398195222 0.2233353416
0.3420515178 0.3366309181 0.2285381203
0.3471960518 0.3334423140 0.2337408991
0.3579743932 0.3393985329 0.2318476654
0.3687527347 0.3453547519 0.2299544318
0.3795310762 0.3513109708 0.2280611982
0.3903094176 0.3572671897 0.2261679646
0.3968222565 0.3571753996 0.2147591536
0.4033350954 0.3570836095 0.2033503427
0.4098479343 0.3569918195 0.1919415317
0.4163607732 0.3569000294 0.1805327208
0.4250882206 0.3586000033 0.1909122568
0.4338156681 0.3602999773 0.2012917927
0.4425431155 0.3619999512 0.2116713287
0.4512705629 0.3636999252 0.2220508647
0.4601637803 0.3638030200 0.2175438073
0.4690569977 0.3639061148 0.2130367499
0.4779502151 0.3640092096 0.2085296924
0.4868434325 0.3641123044 0.2040226350
0.5145707417 0.3557241177 0.1734780711
0.5422980509 0.3473359310 0.1429335072
0.5700253601 0.3389477443 0.1123889433
0.5977526692 0.3305595577 0.0818443794
0.5868286043 0.3318069261 0.1037961858
0.5759045394 0.3330542945 0.1257479922
0.5649804745 0.3343016629 0.1476997986
0.5540564096 0.3355490313 0.1696516050
0.2245358563 0.2973400702 0.1993990838
0.2560097990 0.3160247719 0.2029498421
0.2874837417 0.3347094735 0.2065006004
0.3189576845 0.3533941751 0.2100513587
0.3504316272 0.3720788767 0.2136021170
0.3497848434 0.3637897541 0.2189383033
0.3491380597 0.3555006316 0.2242744895
0.3484912759 0.3472115090 0.2296106758
0.3478444921 0.3389223864 0.2349468621
0.3597383942 0.3475790387 0.2356923281
0.3716322963 0.3562356910 0.2364377942
0.3835261983 0.3648923434 0.2371832602
0.3954201004 0.3735489957 0.2379287262
0.4010390775 0.3722332470 0.2274334867
0.4066580547 0.3709174983 0.2169382472
0.4122770318 0.3696017497 0.2064430077
0.4178960089 0.3682860010 0.1959477681
0.4254421240 0.3710676482 0.2038574470
0.4329882391 0.3738492954 0.2117671258
0.4405343542 0.3766309426 0.2196768047
0.4480804692 0.3794125898 0.2275864836
0.4582667097 0.3794521888 0.2218365129
0.4684529502 0.3794917878 0.2160865423
0.4786391907 0.3795313868 0.2103365717
0.4888254312 0.3795709858 0.2045866010
0.5232988752 0.3676894212 0.1596046545
0.5577723192 0.3558078567 0.1146227079
0.5922457633 0.3439262922 0.0696407614
0.6267192073 0.3320447277 0.0246588149
0.6109348352 0.3330677122 0.0585452976
0.5951504630 0.3340906968 0.0924317803
0.5793660909 0.3351136814 0.1263182630
0.5635817188 0.3361366659 0.1602047457
0.1962117513 0.3137029240 0.2109193864
0.2339361653 0.3277479490 0.2185764234
0.2716605792 0.3417929740 0.2262334603
0.3093849932 0.3558379991 0.2338904973
0.3471094071 0.3698830241 0.2415475343
0.3491892730 0.3680349223 0.2376545303
0.3512691389 0.3661868205 0.2337615264
0.3533490048 0.3643387187 0.2298685224
0.3554288707 0.3624906170 0.2259755185
0.3652400749 0.3664920796 0.2322943606
0.3750512790 0.3704935423 0.2386132026
0.3848624832 0.3744950049 0.2449320447
0.3946736873 0.3784964676 0.2512508868
0.4018634767 0.3794118047 0.2385270614
0.4090532661 0.3803271418 0.2258032360
0.4162430555 0.3812424790 0.2130794106
0.4234328448 0.3821578161 0.2003555852
0.4307748352 0.3842560859 0.2088172844
0.4381168256 0.3863543557 0.2172789836
0.4454588160 0.3884526255 0.2257406828
0.4528008064 0.3905508953 0.2342023820
0.4618276550 0.3903923882 0.2290468969
0.4708545036 0.3902338810 0.2238914117
0.4798813521 0.3900753738 0.2187359265
0.4889082007 0.3899168666 0.2135804413
0.5192501820 0.3818974638 0.1779559314
0.5495921632 0.3738780610 0.1423314214
0.5799341445 0.3658586581 0.1067069115
0.6102761258 0.3578392553 0.0710824016
0.6004279276 0.3537768753 0.0869914910
0.5905797294 0.3497144953 0.1029005804
0.5807315312 0.3456521153 0.1188096698
0.5708833330 0.3415897353 0.1347187592
0.1678876464 0.3300657778 0.2224396889
0.2118625315 0.3394711262 0.2342030046
0.2558374167 0.3488764746 0.2459663202
0.2998123019 0.3582818230 0.2577296359
0.3437871871 0.3676871714 0.2694929516
0.3485937026 0.3722800904 0.2563707574
0.3534002182 0.3768730095 0.2432485632
0.3582067337 0.3814659285 0.2301263690
0.3630132493 0.3860588475 0.2170041749
0.3707417555 0.3854051205 0.2288963930
0.3784702618 0.3847513935 0.2407886111
0.3861987680 0.3840976665 0.2526808292
0.3939272743 0.3834439395 0.2645730473
0.4026878759 0.3865903624 0.2496206361
0.4114484775 0.3897367853 0.2346682248
0.4202090791 0.3928832082 0.2197158136
0.4289696807 0.3960296312 0.2047634023
0.4361075465 0.3974445236 0.2137771219
0.4432454122 0.3988594160 0.2227908414
0.4503832779 0.4002743085 0.2318045610
0.4575211436 0.4016892009 0.2408182805
0.4653886003 0.4013325875 0.2362572808
0.4732560569 0.4009759742 0.2316962811
0.4811235136 0.4006193608 0.2271352813
0.4889909702 0.4002627475 0.2225742816
0.5152014887 0.3961055063 0.1963072083
0.5414120073 0.3919482652 0.1700401349
0.5676225258 0.3877910241 0.1437730616
0.5938330443 0.3836337830 0.1175059883
0.5899210200 0.3744860384 0.1154376844
0.5860089957 0.3653382938 0.1133693805
0.5820969714 0.3561905492 0.1113010767
0.5781849471 0.3470428046 0.1092327728
0.1395635414 0.3464286316 0.2339599915
0.1897888978 0.3511943034 0.2498295858
0.2400142542 0.3559599752 0.2656991802
0.2902396106 0.3607256470 0.2815687745
0.3404649670 0.3654913188 0.2974383689
0.3479981322 0.3765252586 0.2750869845
0.3555312974 0.3875591984 0.2527356001
0.3630644626 0.3985931383 0.2303842157
0.3705976279 0.4096270781 0.2080328313
0.3762434362 0.4043181614 0.2254984254
0.3818892446 0.3990092447 0.2429640196
0.3875350529 0.3937003280 0.2604296137
0.3931808613 0.3883914113 0.2778952079
0.4035122751 0.3937689201 0.2607142108
0.4138436889 0.3991464288 0.2435332137
0.4241751028 0.4045239375 0.2263522166
0.4345065166 0.4099014463 0.2091712194
0.4414402577 0.4106329613 0.2187369593
0.4483739987 0.4113644763 0.2283026992
0.4553077398 0.4120959914 0.2378684391
0.4622414808 0.4128275064 0.2474341790
0.4689495456 0.4122727869 0.2434676647
0.4756576103 0.4117180674 0.2395011505
0.4823656750 0.4111633478 0.2355346362
0.4890737397 0.4106086283 0.2315681219
0.5111527955 0.4103135489 0.2146584852
0.5332318513 0.4100184695 0.1977488484
0.5553109071 0.4097233900 0.1808392117
0.5773899629 0.4094283106 0.1639295750
0.5794141125 0.3951952015 0.1438838778
0.5814382620 0.3809620923 0.1238381807
0.5834624116 0.3667289831 0.1037924835
0.5854865612 0.3524958739 0.0837467864
0.1112394365 0.3627914854 0.2454802940
0.1677152641 0.3629174806 0.2654561670
0.2241910917 0.3630434757 0.2854320401
0.2806669193 0.3631694709 0.3054079131
0.3371427469 0.3632954661 0.3253837862
0.3474025618 0.3807704267 0.2938032115
0.3576623767 0.3982453874 0.2622226369
0.3679221916 0.4157203480 0.2306420623
0.3781820064 0.4331953087 0.1990614876
0.3817451169 0.4232312023 0.2221004579
0.3853082273 0.4132670959 0.2451394281
0.3888713378 0.4033029896 0.2681783983
0.3924344482 0.3933388832 0.2912173685
0.4043366743 0.4009474778 0.2718077855
0.4162389004 0.4085560723 0.2523982025
0.4281411264 0.4161646668 0.2329886195
0.4400433525 0.4237732613 0.2135790365
0.4467729689 0.4238213990 0.2236967968
0.4535025853 0.4238695367 0.2338145570
0.4602322017 0.4239176743 0.2439323173
0.4669618181 0.4239658120 0.2540500775
0.4725104908 0.4232129863 0.2506780487
0.4780591636 0.4224601605 0.2473060198
0.4836078364 0.4217073348 0.2439339910
0.4891565092 0.4209545091 0.2405619622
0.5071041023 0.4245215914 0.2330097620
0.5250516953 0.4280886737 0.2254575619
0.5429992883 0.4316557560 0.2179053618
0.5609468814 0.4352228383 0.2103531617
0.5689072049 0.4159043645 0.1723300713
0.5768675284 0.3965858908 0.1343069808
0.5848278519 0.3772674170 0.0962838904
0.5927881754 0.3579489433 0.0582608000
0.0867169111 0.3802506581 0.2284912937
0.1461626456 0.3783144347 0.2494847746
0.2056083800 0.3763782113 0.2704782554
0.2650541144 0.3744419879 0.2914717363
0.3244998489 0.3725057646 0.3124652172
0.3347550808 0.3839360903 0.2871633244
0.3450103126 0.3953664160 0.2618614315
0.3552655445 0.4067967417 0.2365595387
0.3655207764 0.4182270674 0.2112576458
0.3685075928 0.4074027506 0.2308416138
0.3714944092 0.3965784339 0.2504255817
0.3744812256 0.3857541171 0.2700095497
0.3774680420 0.3749298003 0.2895935176
0.3949345896 0.3909000411 0.2759178402
0.4124011371 0.4068702818 0.2622421628
0.4298676847 0.4228405225 0.2485664853
0.4473342322 0.4388107632 0.2348908079
0.4536002837 0.4372155359 0.2434508985
0.4598663351 0.4356203086 0.2520109890
0.4661323866 0.4340250813 0.2605710795
0.4723984380 0.4324298539 0.2691311701
0.4779498769 0.4328096718 0.2610575696
0.4835013157 0.4331894897 0.2529839690
0.4890527545 0.4335693076 0.2449103685
0.4946041933 0.4339491255 0.2368367680
0.5105726412 0.4372673847 0.2368306167
0.5265410891 0.4405856438 0.2368244654
0.5425095371 0.4439039029 0.2368183140
0.5584779850 0.4472221620 0.2368121627
0.5644712492 0.4292494076 0.2039986415
0.5704645135 0.4112766532 0.1711851203
0.5764577777 0.3933038988 0.1383715990
0.5824510420 0.3753311444 0.1055580778
0.0621943858 0.3977098308 0.2115022934
0.1246100270 0.3937113888 0.2335133821
0.1870256683 0.3897129469 0.2555244708
0.2494413096 0.3857145050 0.2775355595
0.3118569509 0.3817160630 0.2995466482
0.3221075998 0.3871017538 0.2805234372
0.3323582486 0.3924874446 0.2615002261
0.3426088975 0.3978731353 0.2424770150
0.3528595463 0.4032588261 0.2234538040
0.3552700687 0.3915742989 0.2395827697
0.3576805911 0.3798897718 0.2557117353
0.3600911134 0.3682052446 0.2718407010
0.3625016358 0.3565207175 0.2879696667
0.3855325048 0.3808526044 0.2800278949
0.4085633739 0.4051844912 0.2720861230
0.4315942429 0.4295163781 0.2641443512
0.4546251119 0.4538482650 0.2562025793
0.4604275984 0.4506096727 0.2632050001
0.4662300850 0.4473710805 0.2702074210
0.4720325715 0.4441324882 0.2772098418
0.4778350580 0.4408938959 0.2842122626
0.4833892629 0.4424063574 0.2714370904
0.4889434677 0.4439188189 0.2586619182
0.4944976725 0.4454312805 0.2458867461
0.5000518773 0.4469437420 0.2331115739
0.5140411802 0.4500131779 0.2406514713
0.5280304830 0.4530826138 0.2481913688
0.5420197858 0.4561520498 0.2557312662
0.5560090886 0.4592214857 0.2632711637
0.5600352936 0.4425944507 0.2356672117
0.5640614986 0.4259674156 0.2080632597
0.5680877036 0.4093403805 0.1804593077
0.5721139086 0.3927133455 0.1528553557
0.0376718604 0.4151690035 0.1945132931
0.1030574085 0.4091083430 0.2175419896
0.1684429567 0.4030476825 0.2405706861
0.2338285048 0.3969870220 0.2635993827
0.2992140529 0.3909263615 0.2866280792
0.3094601187 0.3902674173 0.2738835500
0.3197061846 0.3896084732 0.2611390207
0.3299522504 0.3889495290 0.2483944914
0.3401983163 0.3882905848 0.2356499621
0.3420325446 0.3757458472 0.2483239256
0.3438667729 0.3632011097 0.2609978890
0.3457010013 0.3506563721 0.2736718524
0.3475352296 0.3381116346 0.2863458159
0.3761304201 0.3708051677 0.2841379496
0.4047256106 0.4034987007 0.2819300833
0.4333208011 0.4361922338 0.2797222170
0.4619159916 0.4688857668 0.2775143507
0.4672549132 0.4640038096 0.2829591018
0.4725938348 0.4591218524 0.2884038529
0.4779327564 0.4542398951 0.2938486040
0.4832716780 0.4493579379 0.2992933552
0.4888286489 0.4520030430 0.2818166113
0.4943856197 0.4546481481 0.2643398675
0.4999425906 0.4572932533 0.2468631236
0.5054995614 0.4599383584 0.2293863797
0.5175097191 0.4627589712 0.2444723260
0.5295198768 0.4655795839 0.2595582722
0.5415300345 0.4684001967 0.2746442184
0.5535401922 0.4712208094 0.2897301647
0.5555993380 0.4559394937 0.2673357819
0.5576584837 0.4406581780 0.2449413991
0.5597176294 0.4253768623 0.2225470163
0.5617767752 0.4100955466 0.2001526336
0.0131493351 0.4326281762 0.1775242927
0.0815047900 0.4245052971 0.2015705971
0.1498602450 0.4163824181 0.2256169015
0.2182156999 0.4082595390 0.2496632059
0.2865711549 0.4001366600 0.2737095103
0.2968126377 0.3934330809 0.2672436628
0.3070541206 0.3867295017 0.2607778153
0.3172956034 0.3800259226 0.2543119678
0.3275370862 0.3733223435 0.2478461203
0.3287950205 0.3599173955 0.2570650815
0.3300529548 0.3465124476 0.2662840426
0.3313108891 0.3331074997 0.2755030038
0.3325688234 0.3197025517 0.2847219650
0.3667283354 0.3607577310 0.2882480043
0.4008878473 0.4018129102 0.2917740435
0.4350473593 0.4428680894 0.2953000828
0.4692068713 0.4839232687 0.2988261221
0.4740822280 0.4773979465 0.3027132035
0.4789575847 0.4708726243 0.3066002849
0.4838329413 0.4643473021 0.3104873663
0.4887082980 0.4578219799 0.3143744477
0.4942680349 0.4615997286 0.2921961322
0.4998277717 0.4653774773 0.2700178167
0.5053875086 0.4691552261 0.2478395011
0.5109472455 0.4729329748 0.2256611856
0.5209782580 0.4755047644 0.2482931806
0.5310092706 0.4780765540 0.2709251756
0.5410402832 0.4806483436 0.2935571707
0.5510712958 0.4832201332 0.3161891657
0.5511633823 0.4692845368 0.2990043521
0.5512554688 0.4553489404 0.2818195386
0.5513475553 0.4414133441 0.2646347250
0.5514396418 0.4274777477 0.2474499114
0.0107324989 0.4461570202 0.1940621179
0.0789130949 0.4365907877 0.2106124521
0.1470936909 0.4270245551 0.2271627864
0.2152742869 0.4174583226 0.2437131206
0.2834548829 0.4078920901 0.2602634548
0.2946998250 0.4026233992 0.2576003716
0.3059447672 0.3973547084 0.2549372885
0.3171897093 0.3920860175 0.2522742053
0.3284346514 0.3868173267 0.2496111222
0.3315463915 0.3752883678 0.2549005122
0.3346581317 0.3637594089 0.2601899023
0.3377698718 0.3522304500 0.2654792924
0.3408816119 0.3407014911 0.2707686824
0.3722605085 0.3765842873 0.2784902542
0.4036394052 0.4124670835 0.2862118260
0.4350183018 0.4483498797 0.2939333978
0.4663971985 0.4842326759 0.3016549696
0.4702300630 0.4799785140 0.3028722282
0.4740629275 0.4757243522 0.3040894867
0.4778957921 0.4714701903 0.3053067452
0.4817286566 0.4672160285 0.3065240038
0.4903097002 0.4706857355 0.2915944896
0.4988907438 0.4741554426 0.2766649754
0.5074717874 0.4776251496 0.2617354612
0.5160528310 0.4810948566 0.2468059469
0.5260092573 0.4842870174 0.2650691422
0.5359656836 0.4874791782 0.2833323375
0.5459221098 0.4906713389 0.3015955327
0.5558785361 0.4938634997 0.3198587280
0.5567642779 0.4826869775 0.3063769082
0.5576500198 0.4715104553 0.2928950885
0.5585357616 0.4603339330 0.2794132687
0.5594215035 0.4491574108 0.2659314489
0.0083156627 0.4596858642 0.2105999431
0.0763213997 0.4486762782 0.2196543072
0.1443271368 0.4376666922 0.2287086712
0.2123328738 0.4266571062 0.2377630352
0.2803386109 0.4156475201 0.2468173993
0.2925870123 0.4118137176 0.2479570805
0.3048354138 0.4079799150 0.2490967617
0.3170838152 0.4041461125 0.2502364429
0.3293322166 0.4003123099 0.2513761241
0.3342977626 0.3906593401 0.2527359430
0.3392633085 0.3810063702 0.2540957620
0.3442288545 0.3713534004 0.2554555809
0.3491944004 0.3617004305 0.2568153998
0.3777926817 0.3924108436 0.2687325042
