Luts/Panasonic-Standard/Conversion/S1RIIS2V.cube
TITLE "S1RII Standard to V-Log"
#LUMIXPHOTOSTYLE STD
# Globally fitted from paired decoded Standard/V-Log forward maps.
# No pointwise Standard inverse or empirical output colour patch is used.
# Samples=300000, smoothness=0.01, prior_weight=1.
LUT_3D_SIZE 5
0.1250305325 0.1250305325 0.1250305325
0.3120849095 0.1784475125 0.1403803822
0.3922785615 0.2345276082 0.1736186228
0.4593838530 0.2600114101 0.1735273568
0.4741703767 0.2992273549 0.0427184451
0.2245358563 0.2973400702 0.1993990838
0.3478444921 0.3389223864 0.2349468621
0.4178960089 0.3682860010 0.1959477681
0.4888254312 0.3795709858 0.2045866010
0.5635817188 0.3361366659 0.1602047457
0.0131493351 0.4326281762 0.1775242927
0.3275370862 0.3733223435 0.2478461203
0.4692068713 0.4839232687 0.2988261221
0.5109472455 0.4729329748 0.2256611856
0.5514396418 0.4274777477 0.2474499114
0.0029119631 0.5114895520 0.1960425977
0.3212795618 0.4423961810 0.1739193244
0.3936364688 0.4239722576 0.1582253907
0.4611348136 0.4212042436 0.1514561318
0.5981932840 0.5495889413 0.3720373545
0.1482594606 0.5746014010 0.2393097412
0.3239754230 0.5344521539 0.2069228172
0.3883951050 0.5346624618 0.2063584294
0.4806286714 0.5382019168 0.2529023534
0.6196849962 0.5762190348 0.3750176440
0.1135701590 0.1650978962 0.3151095826
0.2323780970 0.1396956140 0.2672832916
0.3872255728 0.2132951523 0.3396995803
0.6964378952 0.1418750264 0.1930037457
0.6607897862 0.1163630561 0.2361571734
0.2221946931 0.3052241091 0.3218548523
0.3454161617 0.3454161617 0.3454161617
0.4136871231 0.3542918275 0.3317871289
0.4719191065 0.3651576911 0.3393558981
0.5267766612 0.3630360644 0.3304730603
0.2513478108 0.4415930693 0.3800587250
0.3332836886 0.4351859650 0.3793033071
0.4369000742 0.4289186767 0.3723126352
0.5038396579 0.4538051225 0.3629675119
0.5979652149 0.4503404451 0.4074866217
0.0109318904 0.5716644995 0.4500289109
0.4531625083 0.5048323065 0.2852756662
0.4361474560 0.5182288308 0.4133052050
0.5325306268 0.5360697613 0.3912735656
0.6879968796 0.5522092664 0.3936865416
0.0815564415 0.7359258865 0.4758858272
0.3448202817 0.6767293389 0.4285611562
0.4286225474 0.6387595940 0.4416712107
0.5061791401 0.6433227133 0.4394175403
0.6864448088 0.6497977318 0.4748213273
0.0170063415 0.1324011649 0.3560040226
0.3046404652 0.0365283157 0.3653019352
0.4105577845 0.1601109494 0.3741199829
0.4783529472 0.0541544085 0.3531771328
0.7810713582 0.1666562771 0.3691349947
0.2725532988 0.3191852041 0.3890219295
0.3516374899 0.3482865914 0.4197500676
0.4123185346 0.3566000384 0.4098852449
0.4761943598 0.3721294428 0.4099827841
0.5675780057 0.3954664667 0.4244240153
0.2866438175 0.4024531350 0.4050899203
0.3731822665 0.4140020482 0.4266168723
0.4415368705 0.4415368705 0.4415368705
0.5047105214 0.4518215259 0.4375975837
0.5908198531 0.4523847554 0.4306329199
0.0337479349 0.5842972035 0.5107107180
0.3733076583 0.5386652574 0.4848768376
0.4354249794 0.5233329172 0.4755744109
0.5393651899 0.5268396461 0.4787227741
0.6074851133 0.5529300424 0.4662908091
0.2227150794 0.6751847212 0.5276197431
0.3812211226 0.6355335015 0.5070118996
0.3894488350 0.6029625469 0.5423230641
0.5254722945 0.6065647617 0.4950504612
0.6813059393 0.6824868545 0.4637681609
0.0691032051 0.1512860269 0.4358321408
0.2924268283 0.0215320678 0.4254186095
0.3956806380 0.1467913454 0.4372064572
0.4827805145 0.0452497343 0.4151387811
0.6761159242 0.1664025968 0.4170647476
0.2326379845 0.2999328601 0.4628736346
0.3510061581 0.3603575506 0.5027548898
0.4119092030 0.3783847010 0.4783918463
0.4720564669 0.3742748255 0.4698613095
0.5397772603 0.3969850915 0.4705628586
0.0199511292 0.4996919625 0.5256287619
0.3738591760 0.4254444883 0.4840076999
0.4304997828 0.4641037905 0.5113739624
0.5058319539 0.4557692334 0.5049460115
0.5848751894 0.4698778469 0.5101709208
0.2096903589 0.4993094129 0.5188068895
0.4106630090 0.5257750345 0.5199367252
0.4727534104 0.5134843745 0.5280876676
0.5384931745 0.5384931745 0.5384931745
0.6224894309 0.5427801009 0.5468689989
0.2325800173 0.7257359748 0.6134642547
0.3970155169 0.6710067358 0.5875542148
0.4500737871 0.6758139488 0.5941870060
0.5383516735 0.6378369561 0.5644752758
0.6730117492 0.6498624610 0.5992648651
0.0897552101 0.0046311847 0.6179411109
0.1142936550 0.0083676016 0.5611754301
0.3950016459 0.1733141491 0.6421303191
0.4703438065 0.0570664132 0.4869900590
0.6990748246 0.3094743408 0.5823564337
0.1808427103 0.3933798459 0.5909971906
0.3806564261 0.3910346409 0.5394850924
0.4065082612 0.3675080833 0.5622470363
0.4693037382 0.3648617128 0.6208888693
0.6377529390 0.4053398806 0.5454201742
0.0678426674 0.4870103700 0.6551541080
0.3650112810 0.4617004319 0.5994868163
0.4382627778 0.4454770390 0.5932972606
0.5169065715 0.4612077735 0.5762577289
0.5862306174 0.4568462369 0.5717776777
0.2876352529 0.5521681272 0.6636401046
0.4146381856 0.5042467933 0.6188181122
0.5034240392 0.4960839475 0.5579291047
0.5687455808 0.5606123696 0.6321652476
0.6431063098 0.5606574777 0.6281274422
0.3224124611 0.6797245581 0.6873377681
0.4050803700 0.6694420588 0.6824033871
0.4883971294 0.6852298232 0.6940802685
0.5824677344 0.6099808535 0.6142760834
0.6778301256 0.6778301256 0.6778301256
