Luts/Panasonic-Standard/Conversion/S5IIS2V.cube
TITLE "S5II Standard to V-Log"
#LUMIXPHOTOSTYLE STD
# PANASONIC_VLOG_OUTPUT_CHROMA_CORRECTION
# Shared measured V-Log endpoint correction; exact neutral RGB is unchanged.
# Calibration: Luts/Panasonic-Standard/Calibration/PanasonicVLogOutput.json
LUT_3D_SIZE 5
0.1250305325 0.1250305325 0.1250305325
0.3560767047 0.1651274637 0.1302602554
0.4734194301 0.1855102636 0.1251287191
0.5686818429 0.1946834505 0.1073326485
0.9898522218 0.1802097123 0.0000000000
0.1845207338 0.2869449268 0.1452696044
0.3256254247 0.3178730457 0.1396018950
0.4010173853 0.3490652137 0.2143310143
0.4643896573 0.3720247584 0.2082747224
0.8263907330 0.4478180100 0.1948063301
0.1623962326 0.3300148710 0.1790127160
0.3422876386 0.3892483394 0.1449507226
0.4056397180 0.4054577910 0.1216809428
0.4634554627 0.4297370409 0.1201801157
0.5337433573 0.4569838484 0.1181898221
0.1807400686 0.3941132798 0.0513225770
0.3654187993 0.4592083211 0.1021552822
0.4243739043 0.4662451399 0.1433204685
0.4840573374 0.4895020695 0.1061236620
0.7128295163 0.5529627851 0.1875994169
0.2195104632 0.4764569610 0.0064715566
0.4025768353 0.5807514369 0.0384840146
0.4512677878 0.5748603085 0.1239611492
0.5076933789 0.6185638209 0.0902071073
0.6157725705 0.6972106812 0.0115445570
0.1250540672 0.1283212020 0.3036087534
0.3307795071 0.2368973979 0.3317575232
0.4638536019 0.1941738805 0.2984116096
0.5663088024 0.2036914828 0.2805605329
0.6555452679 0.1970090717 0.0939808965
0.1498258555 0.2808852187 0.3074246933
0.3443277942 0.3443277942 0.3443277942
0.4147043188 0.3689662004 0.3521251896
0.4830393690 0.3900866655 0.3533206648
0.6828560335 0.4447811571 0.3565556309
0.1816923700 0.3375663101 0.3143993487
0.3666778080 0.4081061139 0.3664641431
0.4265439225 0.4253838983 0.3788866274
0.4903945426 0.4480484957 0.3929355703
0.7265200218 0.5104502773 0.4014772562
0.2388486016 0.4004556396 0.3390528333
0.4009098057 0.4709089185 0.3891439793
0.4522438632 0.4851678023 0.4041037145
0.5126287832 0.5037970061 0.4218225999
0.7209141244 0.5670513981 0.4355775800
0.3921575205 0.5975843212 0.3144360051
0.4789688759 0.6173721580 0.3892005465
0.5072123719 0.6181520100 0.4054319198
0.5581639550 0.6586237057 0.3990392700
0.6660716084 0.6353472083 0.4654450948
0.1149871224 0.1331654588 0.3723586147
0.3350889217 0.1798295729 0.3862095426
0.4321037254 0.2472494043 0.3961921315
0.5614171266 0.2123563815 0.3617825152
0.7225576316 0.2291564369 0.3312081285
0.1883699757 0.3036480029 0.3854309899
0.3496866756 0.3575754237 0.4131875082
0.4131305899 0.3781660742 0.4252110556
0.4859908781 0.4062339845 0.4299878269
0.5800311652 0.4383861777 0.4301487308
0.2134605023 0.3550962646 0.3900784182
0.3865209573 0.4256414619 0.4321910988
0.4419224882 0.4419224882 0.4419224882
0.5020934373 0.4654326147 0.4524597249
0.6040022121 0.5001621790 0.4625195448
0.2287519109 0.3935318178 0.3903628372
0.4163118614 0.4859819886 0.4587464092
0.4663990440 0.5030845544 0.4658582042
0.5232725575 0.5203194496 0.4779894570
0.7191172237 0.5790788450 0.4971153403
0.3844854263 0.5381576622 0.4481466559
0.4744638130 0.5930942871 0.4696623309
0.5119339130 0.6098546767 0.4823169829
0.5589385125 0.6154959740 0.4995304620
0.6522219202 0.6358854972 0.5207713023
0.1281052073 0.1416689364 0.4287190745
0.3270840624 0.1931833701 0.4424483833
0.4440009100 0.2284435166 0.4420170360
0.5612141958 0.2201787048 0.4157611208
0.7681019445 0.3066579332 0.4120116836
0.1751637079 0.3049160270 0.4360681872
0.3495246861 0.3700894147 0.4792225558
0.4187432471 0.3909780934 0.4872349326
0.4848467652 0.4160581393 0.4970252366
0.5832907415 0.4521235242 0.5033738333
0.2081469940 0.3547611504 0.4408114630
0.3954679397 0.4373519318 0.4977359474
0.4495522982 0.4550111071 0.5037917818
0.5062719188 0.4760207751 0.5180474622
0.7045840649 0.5362049386 0.5241124704
0.3661724318 0.4719577690 0.5071419277
0.4361124221 0.5033002189 0.5218163403
0.4843329653 0.5219891136 0.5295828710
0.5386313825 0.5386313825 0.5386313825
0.6780476076 0.5841156657 0.5532956986
0.2962728015 0.4655011026 0.4655798761
0.4910693543 0.6004557387 0.5461093669
0.5194377638 0.6051903984 0.5561460084
0.5737893219 0.6362880651 0.5653671825
0.6674198041 0.6632848949 0.5959589076
0.1161110856 0.1488486670 0.5305785687
0.3513928164 0.3186656335 0.6380106828
0.5001529037 0.2565428396 0.5849545094
0.5185107880 0.2408530468 0.5306870710
0.5982664031 0.3594151102 0.5378651694
0.1735069541 0.3093498782 0.5074061231
0.3715569619 0.4011739957 0.6392387689
0.4304958365 0.4086796718 0.5739207588
0.4893179089 0.4322769652 0.5788928671
0.7597943698 0.5151033879 0.6613673797
0.3365079997 0.4241915787 0.5644582238
0.4036696880 0.4516601611 0.5765981611
0.4532712411 0.4678096077 0.5863732127
0.5125179123 0.4884768944 0.5959918653
0.6533241454 0.5379160578 0.6474455853
0.2766163429 0.4240705607 0.5488936460
0.4533688886 0.5203376518 0.6516271813
0.4933374203 0.5363749306 0.6395955545
0.5467211132 0.5538901813 0.6381200264
0.6938280972 0.6010464179 0.6821598519
0.3093195269 0.4683921619 0.5477832840
0.5207802472 0.6222627897 0.6493166916
0.5476642920 0.6279344750 0.6587436992
0.6011354063 0.6526528733 0.6622774780
0.6775765898 0.6775765898 0.6775765898
