Luts/Panasonic-Standard/Conversion/S5IIS2V.cube
TITLE "S5II Standard to V-Log"
#LUMIXPHOTOSTYLE STD
# PANASONIC_VLOG_OUTPUT_CHROMA_CORRECTION
# Shared measured V-Log endpoint correction; exact neutral RGB is unchanged.
# Calibration: Luts/Panasonic-Standard/Calibration/PanasonicVLogOutput.json
LUT_3D_SIZE 33
0.1250305325 0.1250305325 0.1250305325
0.1782658638 0.1436078115 0.1399355976
0.2060544223 0.1433624549 0.1377716743
0.2392458663 0.1509026884 0.1384952660
0.2654456216 0.1571472301 0.1367084508
0.2921483605 0.1632272293 0.1344811996
0.3131578149 0.1640716146 0.1331418422
0.3352941096 0.1643497497 0.1314392700
0.3560767047 0.1651274637 0.1302602554
0.3725728922 0.1674909293 0.1313049662
0.3902525397 0.1699463960 0.1322310766
0.4054177688 0.1735465508 0.1296135379
0.4219258300 0.1778901339 0.1256446109
0.4374536682 0.1808943792 0.1245388617
0.4514899896 0.1828479714 0.1253317293
0.4630496360 0.1843101451 0.1254393141
0.4734194301 0.1855102636 0.1251287191
0.4849007824 0.1866754794 0.1248193220
0.4961124924 0.1876954491 0.1245172296
0.5096165594 0.1870809600 0.1204375115
0.5247515107 0.1862404788 0.1154751431
0.5382463305 0.1882224318 0.1157613175
0.5492915545 0.1907221748 0.1137257593
0.5578385548 0.1937458329 0.1094447514
0.5686818429 0.1946834505 0.1073326485
0.5478009808 0.2412780721 0.1234931656
0.9898522218 0.1802097123 0.0000000000
0.9898522218 0.1802097123 0.0000000000
0.9898522218 0.1802097123 0.0000000000
0.9898522218 0.1802097123 0.0000000000
0.9898522218 0.1802097123 0.0000000000
0.9898522218 0.1802097123 0.0000000000
0.9898522218 0.1802097123 0.0000000000
0.1280881840 0.1637870365 0.1275348764
0.1890077882 0.1814371859 0.1406669124
0.2157404585 0.1772711399 0.1354942242
0.2393891547 0.1842312517 0.1348892110
0.2633606828 0.1910600170 0.1339195748
0.2835015592 0.1960692330 0.1339006572
0.3028053315 0.2006609154 0.1346092664
0.3220889306 0.2058596598 0.1353118258
0.3355103911 0.2113129373 0.1371116513
0.3507039915 0.2169071249 0.1389248381
0.3609391613 0.2272508547 0.1378812355
0.3731614127 0.2355020222 0.1355776399
0.3853774538 0.2419203554 0.1361365820
0.3973915428 0.2466265823 0.1365381832
0.4085524002 0.2491572059 0.1381767175
0.4201185538 0.2519640752 0.1391477674
0.4283778203 0.2566176618 0.1361584209
0.4372439228 0.2607741995 0.1339433538
0.4461590252 0.2647544887 0.1325212177
0.4563523993 0.2683599457 0.1346981332
0.4668603492 0.2714070112 0.1353169025
0.4774026591 0.2739505700 0.1328509645
0.4868972390 0.2769947949 0.1324009678
0.4973829795 0.2793778297 0.1300552036
0.5077623982 0.2815207361 0.1281096897
0.5160997377 0.2849028950 0.1315749009
0.9898522218 0.1802097123 0.0000000000
0.9898522218 0.1802097123 0.0000000000
0.9898522218 0.1802097123 0.0000000000
0.9898522218 0.1802097123 0.0000000000
0.9898522218 0.1802097123 0.0000000000
0.9898522218 0.1802097123 0.0000000000
0.9898522218 0.1802097123 0.0000000000
0.1083876053 0.1827919649 0.1112790727
0.1843003437 0.2017780533 0.1274039940
0.2180457986 0.2105102599 0.1300341258
0.2406480327 0.2174384261 0.1306483921
0.2615296699 0.2236388948 0.1314711953
0.2790747829 0.2292537578 0.1332404244
0.2973490216 0.2350053150 0.1346079242
0.3117652530 0.2394047285 0.1359971746
0.3264790846 0.2436683664 0.1374135447
0.3397944450 0.2481081254 0.1377505056
0.3518921763 0.2527313612 0.1371316998
0.3651074758 0.2570267495 0.1366650292
0.3766890949 0.2605913649 0.1360485842
0.3876179537 0.2640207118 0.1365090645
0.3983387270 0.2666676410 0.1388898489
0.4090422544 0.2702255996 0.1383393454
0.4191670925 0.2738061054 0.1348836510
0.4280435763 0.2782179085 0.1327252384
0.4368823409 0.2827085166 0.1318211633
0.4467134853 0.2864081069 0.1345911143
0.4556602747 0.2901338537 0.1362521465
0.4636992526 0.2943034513 0.1371369120
0.4729290994 0.2982679745 0.1339364836
0.4846069858 0.2997574724 0.1285067726
0.4930646401 0.3030822008 0.1309617283
0.4996731717 0.3084258991 0.1304768284
0.9898522218 0.1802097123 0.0000000000
0.9898522218 0.1802097123 0.0000000000
0.9898522218 0.1802097123 0.0000000000
0.9898522218 0.1802097123 0.0000000000
0.8788338501 0.3599090672 0.0542454087
0.9898522218 0.1802097123 0.0000000000
0.9898522218 0.1802097123 0.0000000000
0.1067183854 0.2018023466 0.1071296124
0.1999824720 0.2249536883 0.1285080206
0.2230850180 0.2304859580 0.1300843887
0.2470874534 0.2357295702 0.1311451780
0.2644433297 0.2405280025 0.1320257776
0.2809552646 0.2460662206 0.1326358170
0.2964706369 0.2510788079 0.1332008369
0.3098553677 0.2552599550 0.1343582042
0.3235927375 0.2599095889 0.1352610900
0.3346434446 0.2643443964 0.1359030313
0.3472987325 0.2688407198 0.1369173048
0.3583454810 0.2732815976 0.1361899790
0.3682488175 0.2780060025 0.1343214554
0.3783956108 0.2815051746 0.1360629202
0.3888338877 0.2848563554 0.1393084986
0.4004626843 0.2872002825 0.1364628929
0.4115304529 0.2898489725 0.1335697214
0.4202109312 0.2944712862 0.1318222170
0.4299529054 0.2978787868 0.1324916277
0.4403436009 0.3004005261 0.1341956189
0.4491617740 0.3036049156 0.1367364702
0.4578689319 0.3070263023 0.1353004155
0.4674526549 0.3104343994 0.1322046879
0.4771662545 0.3130866101 0.1316247174
0.4849263210 0.3163080478 0.1342154727
0.4912288284 0.3213010731 0.1308502989
0.9898522218 0.1802097123 0.0000000000
0.9898522218 0.1802097123 0.0000000000
0.9898522218 0.1802097123 0.0000000000
0.8656870679 0.3894850220 0.0586557669
0.8639478340 0.3859905401 0.0594133240
0.9898522218 0.1802097123 0.0000000000
0.9898522218 0.1802097123 0.0000000000
0.1068131535 0.2199128488 0.1025041532
0.2045087054 0.2446285726 0.1276571033
0.2296096208 0.2486998684 0.1300118519
0.2519921065 0.2526161448 0.1311541982
0.2667805802 0.2574134204 0.1309050574
0.2815779396 0.2626316337 0.1303142576
0.2949619398 0.2666751894 0.1310365912
0.3080608381 0.2708361002 0.1321101978
0.3202813640 0.2748071048 0.1333999429
0.3310620174 0.2784375967 0.1351545213
0.3445082013 0.2823799738 0.1368993633
0.3538223138 0.2864837379 0.1348207426
0.3640368000 0.2906485136 0.1329100574
0.3745454058 0.2932384920 0.1358294367
0.3852642410 0.2962628104 0.1373153569
0.3954600650 0.2990529916 0.1353724134
0.4047753999 0.3028015853 0.1341415657
0.4133992464 0.3073794536 0.1334264539
0.4240671233 0.3094266644 0.1329280253
0.4345506310 0.3114230770 0.1332916936
0.4440212504 0.3142722985 0.1359763429
0.4579945070 0.3275010257 0.2175302936
0.4660529476 0.3306638195 0.2144834233
0.4750464192 0.3328261802 0.2144603717
0.4774382614 0.3287186218 0.1353113992
0.4842475429 0.3334129455 0.1309465952
0.9898522218 0.1802097123 0.0000000000
0.9898522218 0.1802097123 0.0000000000
0.8802509907 0.3919470877 0.0556447307
0.9005578564 0.3593820447 0.0842041675
0.8703005799 0.3953335258 0.0594214534
0.9898522218 0.1802097123 0.0000000000
0.9898522218 0.1802097123 0.0000000000
0.1112076673 0.2342023617 0.0999059592
0.2088622052 0.2581717152 0.1255030418
0.2353347142 0.2625766696 0.1288981762
0.2538295388 0.2662679240 0.1296350563
0.2687144403 0.2708871723 0.1293786968
0.2831553837 0.2749587004 0.1295515935
0.2957825068 0.2782221001 0.1310335331
0.3081562630 0.2820178417 0.1323929099
0.3193914365 0.2856524884 0.1338974085
0.3317950131 0.2894982354 0.1354700370
0.3432930820 0.2934899679 0.1352291204
0.3525052206 0.2973809463 0.1330535456
0.3620507055 0.3009967253 0.1328954773
0.3713768277 0.3123794928 0.2069660291
0.3838457175 0.3166574223 0.2078750262
0.3904296620 0.3176870544 0.2069035578
0.4034325609 0.3204001872 0.2093645303
0.4069983220 0.3197445575 0.1348119200
0.4187649092 0.3203661847 0.1318899536
0.4290985514 0.3223062023 0.1324975382
0.4384507865 0.3250285642 0.1345392496
0.4472304441 0.3288653989 0.1320206949
0.4561025440 0.3323483161 0.1333135332
0.4646700976 0.3354124103 0.1334999494
0.4728395591 0.3386607043 0.1326230507
0.4803068311 0.3425340228 0.1326872590
0.7499490584 0.4147716573 0.1623375969
0.7500629140 0.4146329820 0.1619172874
0.7502366430 0.4144203782 0.1612585899
0.7505368878 0.4140492526 0.1600573470
0.8705597918 0.3950425561 0.0593446457
0.9898522218 0.1802097123 0.0000000000
0.9898522218 0.1802097123 0.0000000000
0.1153608719 0.2477554235 0.0977427716
0.1410524438 0.2584912788 0.1050793840
0.1675230737 0.2662611612 0.1112119506
0.2541031484 0.2809651755 0.1275011183
0.2697462864 0.2845777697 0.1276051164
0.2833033413 0.2869237650 0.1290778589
0.2957156422 0.2898159453 0.1309422269
0.3079310481 0.2930098097 0.1326221022
0.3194611144 0.2965049170 0.1339169624
0.3331843844 0.3007511769 0.1352182539
0.3495823562 0.3128184500 0.2171828093
0.3589778982 0.3159807818 0.2130288932
0.3674387613 0.3200608903 0.2123618044
0.3740448475 0.3198861149 0.1803649476
0.3778787924 0.3178191590 0.1342017423
0.3863586479 0.3209143477 0.1348104778
0.3947759332 0.3246884936 0.1349566491
0.4037961355 0.3278932061 0.1339186339
0.4140695146 0.3305300129 0.1305360774
0.4230742864 0.3334345300 0.1324116347
0.4322608680 0.3360069537 0.1336825064
0.4425253152 0.3386780853 0.1332895334
0.4557582910 0.3499552300 0.2086369418
0.4638076125 0.3522838953 0.2117756661
0.4726057211 0.3565343363 0.2173285783
0.4818251626 0.3583237268 0.1848755557
0.8493693054 0.4264997738 0.1884518454
0.8493563965 0.4265157626 0.1885213515
0.8493434288 0.4265318697 0.1885918721
0.8493303347 0.4265482296 0.1886645674
0.8493168866 0.4265652968 0.1887433604
0.8493016351 0.4265859656 0.1888532453
0.8504562825 0.4221000853 0.1264731786
0.1756841718 0.2763352841 0.1087280807
0.1411621160 0.2689975190 0.1022971021
0.1648297824 0.2766638047 0.1053886728
0.2574910730 0.2926961709 0.1261731062
0.2728108295 0.2955737395 0.1274355059
0.2852311291 0.2972146305 0.1292156970
0.2979636770 0.2999862142 0.1308623707
0.3100952926 0.3030383581 0.1320975741
0.3226763829 0.3066107891 0.1331069815
0.3342088605 0.3103090860 0.1334890517
0.3430901238 0.3135384984 0.1339409202
0.3521799878 0.3174029499 0.1386116209
0.3601422854 0.3203484775 0.1333897074
0.3691155049 0.3238017694 0.1325994983
0.3820074818 0.3317777725 0.1821895382
0.3935897893 0.3384186107 0.2147630572
0.4017642631 0.3415546357 0.2154631236
0.4110755079 0.3448057338 0.2160587414
0.4197001683 0.3468439367 0.2145858493
0.4282274696 0.3499648233 0.2152591584
0.4369536423 0.3533676195 0.2171632471
0.4456485103 0.3562896924 0.2157562947
0.4533345898 0.3589301850 0.2143254277
0.4544748839 0.3558824366 0.1282107383
0.4627805578 0.3582873602 0.1307283321
0.4791043138 0.3647460859 0.1808204992
0.8373301264 0.4377104430 0.1930498423
0.8373291618 0.4377091931 0.1930136660
0.8373287696 0.4377063724 0.1929598189
0.8373293430 0.4377006318 0.1928715680
0.8372483891 0.4377803670 0.1929594490
0.8372024524 0.4378049453 0.1926588338
0.8394529663 0.4327499093 0.1349598158
0.1845207338 0.2869449268 0.1452696044
0.2208750409 0.2964980664 0.1156152610
0.1747441868 0.2898624374 0.1044295803
0.2617992523 0.3042855787 0.1263275719
0.2757144341 0.3061632413 0.1282778110
0.2882335657 0.3081908621 0.1291469428
0.3040714970 0.3138712642 0.1586372646
0.3130149214 0.3140902201 0.1383680372
0.3256254247 0.3178730457 0.1396018950
0.3348624724 0.3203700186 0.1351567498
0.3443119315 0.3238089792 0.1425203393
0.3531159608 0.3275712209 0.1454416227
0.3608586910 0.3299036780 0.1318642271
0.3690688331 0.3331708768 0.1319734219
0.3767355165 0.3361186123 0.1340762723
0.3922371828 0.3455897604 0.2124140624
0.4010173853 0.3490652137 0.2143310143
0.4098629613 0.3528047918 0.2146370378
0.4172249044 0.3554699665 0.2123307040
0.4245967447 0.3590309956 0.2125147022
0.4293331033 0.3585619793 0.1683723366
0.4371456789 0.3619546147 0.1640124994
0.4412964191 0.3632125299 0.1274129432
0.4493963650 0.3650539460 0.1273369376
0.4643896573 0.3720247584 0.2082747224
0.4763882147 0.3713380657 0.1765573291
0.8205377737 0.4489025383 0.2136124151
0.8205369942 0.4489023738 0.2135918784
0.8198603229 0.4493413548 0.2093615053
0.8198526969 0.4493390848 0.2091369613
0.8198337468 0.4493366174 0.2086548684
0.8264380074 0.4490242240 0.2169685651
0.8263907330 0.4478180100 0.1948063301
0.1339707802 0.2774609135 0.1722479285
0.1281068929 0.2830555498 0.0916042738
0.1281903811 0.2832347590 0.0915369038
0.2654203356 0.3147461504 0.1253421521
0.2780264789 0.3165771471 0.1264575635
0.2908648886 0.3187790348 0.1270273620
0.3049814455 0.3221584960 0.1494246312
0.3170488740 0.3250681142 0.1589021963
0.3275636628 0.3275103874 0.1479106739
0.3376332566 0.3305350324 0.1546717352
0.3469602420 0.3339834958 0.1581230511
0.3558479956 0.3378287145 0.1655444117
0.3648847995 0.3419240235 0.1745288107
0.3736924521 0.3454624708 0.1830863563
0.3823632012 0.3489135283 0.1902775601
0.3909612618 0.3521844543 0.1997946314
0.4004624824 0.3564766510 0.2081411343
0.4041425193 0.3573656606 0.1669528882
0.4132551950 0.3609300805 0.1785512777
0.4169680087 0.3625246661 0.1355030328
0.4260180682 0.3661723864 0.1488429104
0.4361182522 0.3696310140 0.1675529457
0.4469728693 0.3747570276 0.1990072004
0.4528478339 0.3769096883 0.1970687691
0.4629988544 0.3795912950 0.2121338565
0.4752594644 0.3798474224 0.1836724396
0.4833361787 0.3827611381 0.1839108886
0.7991382426 0.4540915207 0.2323219470
0.7991338874 0.4540826733 0.2320986200
0.7991307321 0.4540614382 0.2316830515
0.7991306219 0.4540093605 0.2307869554
0.7323096965 0.4456411057 0.2211961936
0.7687252756 0.4414555238 0.0837470558
0.2242018579 0.3173652619 0.1929074311
0.1316775838 0.2912490898 0.0888488013
0.1316360811 0.2911526063 0.0888838779
0.1728225369 0.3130933742 0.0998703590
0.2822095966 0.3273646857 0.1319920851
0.2946540732 0.3284565264 0.1261634705
0.3064005036 0.3305560508 0.1387490055
0.3245414755 0.3393923674 0.2067193680
0.3339453853 0.3410674933 0.2025304110
0.3438836472 0.3438712268 0.2053312445
0.3511689718 0.3458224793 0.1995141967
0.3593302086 0.3483020039 0.1987470003
0.3678820905 0.3512096591 0.2013364801
0.3761383263 0.3541196266 0.2004324378
0.3844644218 0.3571827601 0.2097225286
0.3931702951 0.3607445764 0.2162225547
0.4020849895 0.3641156319 0.2152046421
0.4348758511 0.3932247181 0.2547843405
0.4398739161 0.3947153724 0.2489240826
0.4424747921 0.3955315296 0.2411738699
0.4293938491 0.3741912076 0.1858782441
0.4393965707 0.3791368883 0.2138807874
0.4456443224 0.3820210121 0.2095310520
0.4518124239 0.3840135396 0.2065563420
0.4659149025 0.3848389396 0.1812896266
0.4736103998 0.3879790422 0.1830483209
0.4816224062 0.3910590987 0.1834094077
0.4863002972 0.3917843536 0.1520857017
0.7973260453 0.4608065856 0.2154646601
0.7973260453 0.4608065856 0.2154646601
0.7973260453 0.4608065856 0.2154646601
0.7973260453 0.4608065856 0.2154646601
0.7699944322 0.4528698211 0.1588348847
0.1462361495 0.3018792301 0.1762768683
0.1349861933 0.2988619844 0.0862843674
0.1751213112 0.3046226948 0.1036132680
0.2768189864 0.3374613541 0.1567392996
0.2857943053 0.3371891387 0.1252059965
0.2972592151 0.3383813910 0.1232499157
0.3079301628 0.3400768474 0.1277295644
0.3257730028 0.3462804324 0.2026120847
0.3362434846 0.3480791539 0.2066182346
0.3458961865 0.3508584572 0.2131692149
0.3537907957 0.3525983596 0.2138521740
0.3619463878 0.3554841022 0.2123663823
0.3698407904 0.3588634262 0.2094686460
0.3776634379 0.3619458001 0.2100283447
0.3855892952 0.3647403250 0.2114371758
0.3944961970 0.3675127873 0.2101496927
0.4026930398 0.3704457382 0.2101203266
0.4092392610 0.3728751043 0.2043081311
0.4305499312 0.3900504292 0.2647288344
0.4248080303 0.3792282256 0.2136551181
0.4316085835 0.3820260885 0.2058814605
0.4369101998 0.3847233924 0.1833947212
0.4437700125 0.3878814813 0.2008580359
0.4515263669 0.3911772672 0.2136693423
0.4639777435 0.3934178256 0.1819747047
0.4700512505 0.3955451522 0.1684537583
0.4762193983 0.3977747209 0.1531493059
0.4871817329 0.4037229936 0.1830404858
0.4948773875 0.4070024137 0.1822713204
0.5106445983 0.4137479668 0.2368576884
0.7157358980 0.4528391327 0.0980867403
0.7157358980 0.4528391327 0.0980867403
0.6955769101 0.4511629184 0.1052974642
0.1501929276 0.3090637682 0.1757542787
0.2378787148 0.3370962779 0.1095606959
0.1753307222 0.3091549901 0.1023804072
0.2797912945 0.3464356209 0.1387590231
0.2902473110 0.3473779956 0.1278847697
0.1667614949 0.3222667537 0.0930056167
0.1669858511 0.3228402351 0.0928021623
0.3281095757 0.3548819729 0.2081700482
0.3384189488 0.3568940241 0.2101963756
0.3467571406 0.3580717062 0.2109165546
0.3556859064 0.3598804333 0.2123720220
0.3637420577 0.3628538307 0.2118101959
0.3719170411 0.3657995263 0.2123700087
0.3800896367 0.3686664487 0.2126149030
0.3885395821 0.3716908899 0.2129859226
0.3972813592 0.3750795424 0.2156097829
0.4041814608 0.3779147047 0.2166105201
0.4048726832 0.3784671563 0.1360700299
0.4219646988 0.3882994094 0.2657956366
0.4301172316 0.3907859786 0.2647584125
0.4381216482 0.3943751434 0.2675649312
0.4363924187 0.3912802942 0.1583746784
0.4447637948 0.3948689006 0.2088654210
0.4553356616 0.3986942000 0.1804473734
0.4608493729 0.4013390512 0.1697043820
0.4668676299 0.4038920199 0.1545666257
0.4731183021 0.4065527487 0.1391186153
0.4798007569 0.4097306365 0.1259297633
0.5009922190 0.4167918960 0.2340054754
0.5104569047 0.4197653453 0.2373400207
0.5119831963 0.4201225621 0.1845540258
0.5236051922 0.4173563212 0.1215210324
0.5581399072 0.4345677417 0.1184286433
0.1549557995 0.3147258439 0.1899067301
0.2371120270 0.3448498525 0.1073549793
0.1599908827 0.3187530559 0.0914608924
0.1708913733 0.3186971201 0.0966616069
0.1642991798 0.3241865335 0.0904847857
0.1670787526 0.3230684267 0.0927232447
0.1671995428 0.3234817522 0.0925548603
0.3291208361 0.3634799102 0.2070586314
0.3385328957 0.3646711485 0.2067607110
0.3480440725 0.3654151312 0.2086055997
0.3575572077 0.3675476630 0.2107707121
0.3659018610 0.3695794759 0.2138713637
0.3740806478 0.3727199433 0.2138509221
0.3824579726 0.3760395723 0.2126765179
0.3910371735 0.3793453996 0.2153234779
0.3968483902 0.3812855801 0.1906325898
0.4032874844 0.3838917096 0.1813296931
0.4095860730 0.3864225925 0.1687797172
0.4240408873 0.3945069000 0.2672925983
0.4292788088 0.3958026929 0.2489681213
0.4371061268 0.3982420854 0.2385537175
0.4415809644 0.3997708237 0.2245932843
0.4463069875 0.4015287739 0.2111303640
0.4537068602 0.4060397721 0.1634314164
0.4592861717 0.4087590062 0.1508553349
0.4651496125 0.4116210092 0.1361686243
0.4717542468 0.4146846734 0.1244324883
0.4798648159 0.4177041736 0.1239822678
0.5019697146 0.4237695888 0.2363254606
0.5078829559 0.4252754356 0.2156767798
0.5111255111 0.4263249102 0.1745816919
0.5158488197 0.4295709127 0.1199406252
0.5505835497 0.4393740053 0.1212363360
0.1606446632 0.3261394229 0.1827446213
0.1518601397 0.3194134593 0.0858502810
0.1599070551 0.3259862237 0.0863928572
0.1597196305 0.3280262510 0.0847064258
0.1644200983 0.3251958176 0.0899176602
0.1673083063 0.3238620301 0.0923984011
0.1673825746 0.3241262886 0.0922888000
0.3328916716 0.3717272249 0.2050195299
0.3413505588 0.3726743947 0.2060815508
0.3506785915 0.3740244325 0.2073166226
0.3584220012 0.3750185054 0.2022384570
0.3667265810 0.3770030920 0.1980420932
0.3748343343 0.3799253185 0.1871205488
0.3826668553 0.3825634371 0.1791654340
0.3902889743 0.3850169926 0.1736016784
0.3970021564 0.3875818393 0.1643413959
0.4034153689 0.3903212321 0.1539334588
0.4097659265 0.3936152591 0.1392320898
0.4240252193 0.3990688453 0.2442479011
0.4306198083 0.4012909131 0.2334475037
0.4365512003 0.4030458720 0.2210525028
0.4417091103 0.4050581063 0.2102841672
0.4483793164 0.4094994530 0.1578800112
0.4536753915 0.4122515873 0.1457884000
0.4592100050 0.4151137517 0.1316672823
0.4657280240 0.4181054020 0.1229130185
0.4741511099 0.4213913509 0.1233566189
0.4819956573 0.4242826234 0.1221376627
0.5011468597 0.4297953291 0.2216930105
0.5039058370 0.4304930640 0.1788173320
0.5098444638 0.4336085029 0.1478776001
0.5172385969 0.4376107178 0.1190119152
0.5380714145 0.4433918378 0.1209779034
0.1615197329 0.3280802025 0.1808657312
0.1526875705 0.3306172999 0.0777715269
0.1549606835 0.3310536577 0.0790784508
0.1489961239 0.3285108766 0.0764829816
0.1489961239 0.3285108766 0.0764829816
0.1489961239 0.3285108766 0.0764829816
0.1489961239 0.3285108766 0.0764829816
0.3339312718 0.3795989531 0.1768787987
0.3420537987 0.3806870853 0.1762892299
0.3507591293 0.3820450551 0.1760248339
0.3592380635 0.3830949148 0.1768632953
0.3676838394 0.3853765142 0.1698989008
0.3759417767 0.3878867020 0.1601656559
0.3831630159 0.3898618921 0.1537580571
0.3900121278 0.3920003192 0.1437458508
0.3970281399 0.3947211996 0.1375980387
0.4034233555 0.3978875897 0.1259031801
0.4108922142 0.4010408535 0.1231126480
0.4254424192 0.4049202300 0.2274087294
0.4317905669 0.4067373683 0.2156225523
0.4374533119 0.4087606965 0.2069806303
0.4419498909 0.4117412858 0.1784246042
0.4483568562 0.4159657571 0.1390065136
0.4537008655 0.4188821200 0.1246973186
0.4605397984 0.4220787376 0.1213584233
0.4686019960 0.4254393527 0.1218543067
0.4764205518 0.4283508728 0.1213728928
0.4841275888 0.4311989825 0.1204832138
0.4992839422 0.4351984533 0.1944858148
0.5038085377 0.4376756965 0.1601538786
0.5086191672 0.4415048153 0.1185203594
0.5182080926 0.4453277533 0.1189083518
0.5373698273 0.4511566012 0.1191026875
0.1623962326 0.3300148710 0.1790127160
0.1522930653 0.3352223390 0.0745836970
0.1522930653 0.3352223390 0.0745836970
0.1522930653 0.3352223390 0.0745836970
0.1522930653 0.3352223390 0.0745836970
0.1522930653 0.3352223390 0.0745836970
0.1522930653 0.3352223390 0.0745836970
0.3336622747 0.3880026368 0.1452236479
0.3422876386 0.3892483394 0.1449507226
0.3510203637 0.3902947471 0.1463972498
0.3597306874 0.3915623265 0.1459011373
0.3676021866 0.3932304353 0.1400306681
0.3755826582 0.3953690557 0.1331766136
0.3838186566 0.3979945625 0.1274589331
0.3911902961 0.4003687568 0.1241896897
0.3983850381 0.4025942542 0.1239016455
0.4056397180 0.4054577910 0.1216809428
0.4136761156 0.4084852427 0.1222827443
0.4261971754 0.4111856890 0.2054348528
0.4320956089 0.4135193299 0.1908195005
0.4373803243 0.4164181922 0.1691748133
0.4428752741 0.4201253129 0.1316788216
0.4484393057 0.4229805781 0.1193003074
0.4557025220 0.4263194978 0.1197452508
0.4634554627 0.4297370409 0.1201801157
0.4711961898 0.4327311734 0.1202725787
0.4787547366 0.4354264715 0.1196522039
0.4867857150 0.4384878375 0.1190441591
0.4974890939 0.4415478098 0.1597908658
0.5040448827 0.4453706794 0.1434391172
0.5103494221 0.4494830107 0.1173640350
0.5193570516 0.4529017228 0.1185140637
0.5337433573 0.4569838484 0.1181898221
0.1632741421 0.3319432439 0.1771857802
0.1568376495 0.3413121487 0.0714030710
0.1522930653 0.3352223390 0.0745836970
0.1522930653 0.3352223390 0.0745836970
0.1522930653 0.3352223390 0.0745836970
0.1522930653 0.3352223390 0.0745836970
0.3257582878 0.3970850620 0.1129319181
0.3339522164 0.3983138195 0.1138165809
0.3424874277 0.3991987104 0.1143989055
0.3512519266 0.3999000609 0.1158004308
0.3596470980 0.4007386161 0.1153425414
0.3677583094 0.4015429465 0.1141577573
0.3772613042 0.4042229326 0.1185811466
0.3857067294 0.4065083824 0.1214903223
0.3926113103 0.4083292132 0.1225070719
0.4002828738 0.4107463129 0.1224962706
0.4080528655 0.4135807529 0.1222066644
0.4149035713 0.4169046926 0.1211325358
0.4265168648 0.4183095972 0.1762579952
0.4322724948 0.4211452437 0.1590740087
0.4371724756 0.4246654347 0.1329712400
0.4434820189 0.4274586388 0.1175557594
0.4506451350 0.4307236492 0.1179997683
0.4583706934 0.4340622141 0.1184479885
0.4666140724 0.4372911920 0.1189046889
0.4737787906 0.4399742425 0.1185109872
0.4813487208 0.4430910893 0.1181291806
0.4895077301 0.4457213442 0.1179533775
0.7541805610 0.5252297577 0.2672950697
0.7542668791 0.5252300687 0.2686470290
0.7542891402 0.5252091449 0.2687137360
0.7565922226 0.5263785892 0.3190218109
0.7666474853 0.5095229163 0.2689763705
0.1706474315 0.3352610763 0.2215800110
0.1583753798 0.3473928729 0.0683391606
0.1522930653 0.3352223390 0.0745836970
0.1522930653 0.3352223390 0.0745836970
0.1522930653 0.3352223390 0.0745836970
0.1522930653 0.3352223390 0.0745836970
0.3295026722 0.4060400413 0.1098031646
0.3381577009 0.4075993204 0.1107137509
0.3463343968 0.4086013700 0.1120442145
0.3545286112 0.4094053074 0.1125461444
0.3622369687 0.4099200019 0.1111956774
0.3704459234 0.4114087678 0.1120715885
0.3791760926 0.4134535183 0.1151747550
0.3860421247 0.4145724635 0.1185174715
