Luts/Panasonic-Standard/Conversion/S9S2V.cube
TITLE "S9 Standard to V-Log"
#LUMIXPHOTOSTYLE STD
# Globally fitted from paired decoded Standard/V-Log forward maps.
# No pointwise Standard inverse or empirical output colour patch is used.
# Samples=300000, smoothness=0.01, prior_weight=1.
LUT_3D_SIZE 5
0.1250305325 0.1250305325 0.1250305325
0.3121018052 0.1784289942 0.1403502276
0.3922814522 0.2345341753 0.1736398455
0.4594312085 0.2600401156 0.1735550653
0.3840432135 0.2991468571 0.0363968221
0.2261758059 0.2993357208 0.2010144843
0.3474271531 0.3384024343 0.2359511514
0.4177831599 0.3682652189 0.1959232638
0.4891756797 0.3795340297 0.2054137899
0.8724597362 0.3568957662 0.2295540318
0.0102892572 0.4364002155 0.2376633173
0.3368656594 0.4030630118 0.2214707424
0.4692125789 0.4846520242 0.2988724201
0.5108628799 0.4730010429 0.2261244664
0.5554620835 0.4309623920 0.2596630217
0.0106370037 0.5031480175 0.1282633440
0.3292664737 0.4817817394 0.1190822046
0.4148355877 0.4725666800 0.1541912694
0.4955797360 0.4799702877 0.1247521530
0.5944115466 0.5422453975 0.3792931348
0.0084971292 0.5944198047 0.1063671360
0.3355625626 0.6083238057 0.0747044177
0.4078154359 0.5929175888 0.1444507049
0.4828804896 0.6153378132 0.1232404372
0.6170649463 0.6587337008 0.0565000954
0.1145622664 0.1655590340 0.3158287371
0.2386869348 0.1389164116 0.2721740985
0.3952941789 0.2160970114 0.3447244576
0.6174148259 0.0935712705 0.3163983686
0.7227150397 0.0886148999 0.1497698070
0.2220930418 0.3056247328 0.3223257172
0.3443277942 0.3443277942 0.3443277942
0.4130217763 0.3542360470 0.3312646646
0.4706387145 0.3649365367 0.3392617167
0.5260373766 0.3629505582 0.3305964844
0.2387759963 0.4342657761 0.3729484703
0.3258279139 0.4392407607 0.3755266174
0.4376367799 0.4338306798 0.3764673681
0.5039039234 0.4539666622 0.3628799051
0.6840242924 0.4607547293 0.4042372732
0.0525607686 0.5206721373 0.4049426979
0.4624957829 0.5064383650 0.2879780393
0.4443107248 0.5260557821 0.4054018179
0.5354562240 0.5379345914 0.3938272465
0.6824065107 0.5506412388 0.3891917541
0.1997970415 0.7135074123 0.3899627869
0.3826206387 0.6875657135 0.4083584297
0.4382267740 0.6656782451 0.4229614794
0.5071667560 0.6915808361 0.4129545430
0.6850362892 0.6565708281 0.4786898852
0.0191776276 0.1336966103 0.3575848761
0.4112378932 0.0799566238 0.4169300076
0.5108311069 0.1716241238 0.4267724102
0.6537154992 0.0574075671 0.4275595953
0.8214476261 0.0423427718 0.4329150289
0.2717253051 0.3191601694 0.3889600630
0.3507512165 0.3477010544 0.4193778600
0.4468654192 0.3626989031 0.4330955089
0.4889353650 0.3674974400 0.4120124406
0.6286108730 0.3616760732 0.4278663998
0.2765383258 0.3978751265 0.3988836273
0.3741542696 0.4136258617 0.4275912191
0.4419224882 0.4419224882 0.4419224882
0.5055486757 0.4525025549 0.4363627596
0.5282077717 0.4425650209 0.4110678886
0.0075862786 0.5373081344 0.4744062959
0.3566810795 0.5360388187 0.4769767366
0.4329032073 0.5264875918 0.4754655326
0.5403399386 0.5295225652 0.4823240767
0.6016665990 0.5517784378 0.4639472731
0.2302720454 0.6436413220 0.4972261582
0.3834059449 0.6399056475 0.4930434223
0.3893951451 0.6101946146 0.5282119535
0.5291897882 0.6067500055 0.5019411903
0.6637739247 0.6623985223 0.4664566755
0.1516184680 0.0916500454 0.4677281579
0.4055404545 0.0865340108 0.4866442099
0.5354168179 0.0913125220 0.4895629986
0.6586556168 0.0440292301 0.4954595947
0.8633559068 0.1256906684 0.5033792891
0.2376076298 0.2986183221 0.4654733159
0.3518933157 0.3602135689 0.5047450201
0.4284410750 0.3565372412 0.4820273500
0.5160901391 0.3741936377 0.4962199195
0.6551250569 0.4006989401 0.5074240230
0.0325641653 0.4682000742 0.5101112966
0.3742100885 0.4255493979 0.4832890208
0.4384628183 0.4679554476 0.5097071504
0.5225634665 0.4609621878 0.5196293365
0.6330416503 0.4703638534 0.5273421119
0.2086695079 0.4780365153 0.5030829372
0.4120374574 0.5156916106 0.5142673196
0.4724371261 0.5125075102 0.5277885030
0.5386313825 0.5386313825 0.5386313825
0.6384310790 0.5500385867 0.5466320163
0.0418390379 0.6357944576 0.5684318533
0.4027781922 0.6650278212 0.5680720175
0.4332886520 0.6707125634 0.5851887861
0.5344891846 0.6439004193 0.5669775947
0.6799990446 0.6628544422 0.6040060733
0.1533802005 0.0374814372 0.6042171617
0.4042544211 0.2175119177 0.6835657221
0.6240527816 0.0062616925 0.7125750125
0.6394684338 0.0141787765 0.6410350572
0.6882092074 0.2236272314 0.5805848708
0.1688156088 0.3943481347 0.6210177488
0.3821427752 0.3796740328 0.5672453435
0.4542300608 0.3671210294 0.5919908043
0.5216941991 0.3888519328 0.5934189149
0.8365617712 0.3921026200 0.6954695164
0.2531568900 0.4696358233 0.5951443993
0.3719406598 0.4685205647 0.5923304907
0.4614901634 0.4485793362 0.6127664098
0.5214191552 0.4647339543 0.5861021429
0.5185491900 0.4547293142 0.5328439347
0.0689297263 0.5549649515 0.6342443869
0.4307512134 0.5108451725 0.6337293961
0.4815181843 0.5073063214 0.5676192127
0.5502689558 0.5576672880 0.6221936050
0.6739359157 0.5589551076 0.6530988582
0.0359757098 0.6423101811 0.6601418632
0.4315090491 0.6874052720 0.6727463494
0.4869918556 0.6601985489 0.6581092087
0.5666438658 0.6459618730 0.6442429622
0.6775765898 0.6775765898 0.6775765898
