Luts/Panasonic-Standard/Conversion/S9S2V.cube
TITLE "S9 Standard to V-Log"
#LUMIXPHOTOSTYLE STD
# Globally fitted from paired decoded Standard/V-Log forward maps.
# No pointwise Standard inverse or empirical output colour patch is used.
# Samples=300000, smoothness=0.01, prior_weight=1.
LUT_3D_SIZE 33
0.1250305325 0.1250305325 0.1250305325
0.1620457624 0.1446187375 0.1393489472
0.2239677102 0.1874872740 0.1713542249
0.2774869586 0.2233686654 0.1937742986
0.3310062070 0.2592500567 0.2161943722
0.3262801066 0.2390447911 0.1972333361
0.3215540061 0.2188395255 0.1782722999
0.3168279056 0.1986342599 0.1593112638
0.3121018052 0.1784289942 0.1403502276
0.3252621122 0.1941509970 0.1563453981
0.3384224192 0.2098729997 0.1723405686
0.3515827261 0.2255950024 0.1883357390
0.3647430331 0.2413170051 0.2043309095
0.3716276379 0.2396212977 0.1966581435
0.3785122427 0.2379255902 0.1889853775
0.3853968474 0.2362298828 0.1813126115
0.3922814522 0.2345341753 0.1736398455
0.4002848792 0.2389297408 0.1740881655
0.4082883062 0.2433253064 0.1745364855
0.4162917331 0.2477208719 0.1749848055
0.4242951601 0.2521164375 0.1754331255
0.4330791722 0.2540973570 0.1749636105
0.4418631843 0.2560782765 0.1744940954
0.4506471964 0.2580591961 0.1740245803
0.4594312085 0.2600401156 0.1735550653
0.4651370002 0.2622070379 0.1730018247
0.4708427919 0.2643739602 0.1724485841
0.4765485835 0.2665408825 0.1718953435
0.4822543752 0.2687078048 0.1713421029
0.4577015848 0.2763175679 0.1376057827
0.4331487943 0.2839273310 0.1038694625
0.4085960039 0.2915370941 0.0701331423
0.3840432135 0.2991468571 0.0363968221
0.1449674014 0.1659133403 0.1384384727
0.1789778181 0.1825437240 0.1538344594
0.2325510514 0.2173316772 0.1815087706
0.2721415268 0.2395472731 0.1982513176
0.3117320021 0.2617628690 0.2149938645
0.3138700038 0.2495941320 0.2019477524
0.3160080055 0.2374253950 0.1889016404
0.3181460072 0.2252566579 0.1758555283
0.3202840089 0.2130879209 0.1628094162
0.3320433419 0.2243418541 0.1723518088
0.3438026748 0.2355957873 0.1818942014
0.3555620078 0.2468497205 0.1914365940
0.3673213408 0.2581036537 0.2009789866
0.3747661246 0.2577195433 0.1916786779
0.3822109085 0.2573354329 0.1823783691
0.3896556924 0.2569513225 0.1730780604
0.3971004762 0.2565672121 0.1637777517
0.4061812285 0.2594764750 0.1685784701
0.4152619808 0.2623857380 0.1733791886
0.4243427331 0.2652950010 0.1781799071
0.4334234854 0.2682042639 0.1829806255
0.4412476563 0.2697550115 0.1824334336
0.4490718272 0.2713057592 0.1818862417
0.4568959981 0.2728565068 0.1813390499
0.4647201690 0.2744072545 0.1807918580
0.4708458082 0.2765438931 0.1837179085
0.4769714474 0.2786805317 0.1866439590
0.4830970866 0.2808171704 0.1895700096
0.4892227258 0.2829538090 0.1924960601
0.4781241436 0.2893529753 0.1651062424
0.4670255614 0.2957521415 0.1377164246
0.4559269792 0.3021513078 0.1103266069
0.4448283970 0.3085504741 0.0829367891
0.1898109881 0.2300764795 0.1695332759
0.2154726904 0.2386262800 0.1805982962
0.2411343927 0.2471760804 0.1916633164
0.2667960950 0.2557258808 0.2027283366
0.2924577973 0.2642756813 0.2137933568
0.3014599011 0.2601434728 0.2066621688
0.3104620049 0.2560112644 0.1995309808
0.3194641088 0.2518790560 0.1923997928
0.3284662126 0.2477468476 0.1852686048
0.3388245716 0.2545327112 0.1883582195
0.3491829305 0.2613185749 0.1914478343
0.3595412895 0.2681044386 0.1945374490
0.3698996484 0.2748903023 0.1976270638
0.3779046114 0.2758177889 0.1866992123
0.3859095743 0.2767452756 0.1757713608
0.3939145373 0.2776727622 0.1648435093
0.4019195002 0.2786002488 0.1539156578
0.4120775779 0.2800232092 0.1630687748
0.4222356555 0.2814461696 0.1722218917
0.4323937331 0.2828691300 0.1813750086
0.4425518108 0.2842920904 0.1905281255
0.4494161404 0.2854126661 0.1899032568
0.4562804701 0.2865332418 0.1892783881
0.4631447998 0.2876538176 0.1886535194
0.4700091295 0.2887743933 0.1880286506
0.4765546163 0.2908807483 0.1944339923
0.4831001030 0.2929871032 0.2008393340
0.4896455897 0.2950934582 0.2072446757
0.4961910765 0.2971998132 0.2136500174
0.4985467025 0.3023883826 0.1926067021
0.5009023285 0.3075769521 0.1715633868
0.5032579545 0.3127655216 0.1505200714
0.5056135805 0.3179540910 0.1294767561
0.2262518754 0.2872524737 0.1910428751
0.2379848046 0.2821364786 0.1964303686
0.2497177339 0.2770204836 0.2018178621
0.2614506631 0.2719044886 0.2072053556
0.2731835924 0.2667884935 0.2125928491
0.2890497984 0.2706928137 0.2113765852
0.3049160044 0.2745971339 0.2101603212
0.3207822103 0.2785014541 0.2089440573
0.3366484163 0.2824057742 0.2077277934
0.3456058013 0.2847235684 0.2043646303
0.3545631862 0.2870413625 0.2010014671
0.3635205711 0.2893591567 0.1976383040
0.3724779560 0.2916769508 0.1942751409
0.3810430981 0.2939160345 0.1817197467
0.3896082402 0.2961551182 0.1691643524
0.3981733822 0.2983942019 0.1566089582
0.4067385243 0.3006332856 0.1440535640
0.4179739272 0.3005699434 0.1575590794
0.4292093302 0.3005066012 0.1710645948
0.4404447331 0.3004432590 0.1845701102
0.4516801361 0.3003799168 0.1980756256
0.4575846246 0.3010703206 0.1973730800
0.4634891130 0.3017607245 0.1966705344
0.4693936015 0.3024511283 0.1959679889
0.4752980900 0.3031415321 0.1952654433
0.4822634243 0.3052176034 0.2051500762
0.4892287586 0.3072936747 0.2150347090
0.4961940928 0.3093697460 0.2249193418
0.5031594271 0.3114458173 0.2348039746
0.5189692613 0.3154237900 0.2201071618
0.5347790956 0.3194017627 0.2054103489
0.5505889298 0.3233797353 0.1907135360
0.5663987640 0.3273577080 0.1760167232
0.2626927627 0.3444284678 0.2125524743
0.2604969189 0.3256466773 0.2122624411
0.2583010751 0.3068648868 0.2119724078
0.2561052313 0.2880830963 0.2116823746
0.2539093875 0.2693013058 0.2113923414
0.2766396956 0.2812421546 0.2160910015
0.2993700038 0.2931830033 0.2207896617
0.3221003119 0.3051238521 0.2254883218
0.3448306201 0.3170647009 0.2301869820
0.3523870310 0.3149144255 0.2203710410
0.3599434419 0.3127641502 0.2105551000
0.3674998528 0.3106138748 0.2007391590
0.3750562637 0.3084635994 0.1909232180
0.3841815848 0.3120142802 0.1767402811
0.3933069060 0.3155649609 0.1625573441
0.4024322271 0.3191156416 0.1483744071
0.4115575483 0.3226663224 0.1341914702
0.4238702766 0.3211166776 0.1520493840
0.4361830048 0.3195670328 0.1699072979
0.4484957331 0.3180173880 0.1877652117
0.4608084614 0.3164677432 0.2056231256
0.4657531087 0.3167279752 0.2048429032
0.4706977559 0.3169882071 0.2040626808
0.4756424032 0.3172484390 0.2032824584
0.4805870505 0.3175086710 0.2025022360
0.4879722323 0.3195544586 0.2158661600
0.4953574141 0.3216002463 0.2292300840
0.5027425959 0.3236460339 0.2425940079
0.5101277777 0.3256918215 0.2559579319
0.5393918202 0.3284591974 0.2476076215
0.5686558626 0.3312265732 0.2392573111
0.5979199051 0.3339939491 0.2309070006
0.6271839475 0.3367613250 0.2225566902
0.2535635235 0.3331552811 0.2096679768
0.2599443948 0.3235452489 0.2102806852
0.2663252662 0.3139352168 0.2108933936
0.2727061375 0.3043251846 0.2115061020
0.2790870088 0.2947151524 0.2121188104
0.2956851949 0.3016361479 0.2169961139
0.3122833811 0.3085571433 0.2218734174
0.3288815672 0.3154781388 0.2267507208
0.3454797533 0.3223991343 0.2316280243
0.3541562596 0.3229854491 0.2243893623
0.3628327659 0.3235717640 0.2171507002
0.3715092722 0.3241580788 0.2099120382
0.3801857785 0.3247443937 0.2026733762
0.3884178217 0.3270748069 0.1894111368
0.3966498648 0.3294052201 0.1761488974
0.4048819080 0.3317356333 0.1628866580
0.4131139512 0.3340660465 0.1496244186
0.4242268041 0.3336027814 0.1649584730
0.4353396570 0.3331395163 0.1802925275
0.4464525099 0.3326762512 0.1956265819
0.4575653628 0.3322129861 0.2109606364
0.4638575740 0.3324134922 0.2090280084
0.4701497853 0.3326139984 0.2070953804
0.4764419965 0.3328145045 0.2051627524
0.4827342078 0.3330150107 0.2032301245
0.5105696848 0.3333097171 0.2155630744
0.5384051618 0.3336044235 0.2278960243
0.5662406389 0.3338991299 0.2402289742
0.5940761159 0.3341938363 0.2525619240
0.6176828106 0.3360941111 0.2454979494
0.6412895053 0.3379943858 0.2384339748
0.6648962000 0.3398946605 0.2313700002
0.6885028947 0.3417949353 0.2243060256
0.2444342843 0.3218820943 0.2067834793
0.2593918708 0.3214438205 0.2082989293
0.2743494572 0.3210055467 0.2098143794
0.2893070437 0.3205672729 0.2113298294
0.3042646301 0.3201289991 0.2128452794
0.3147306942 0.3220301412 0.2179012262
0.3251967583 0.3239312834 0.2229571731
0.3356628224 0.3258324255 0.2280131199
0.3461288866 0.3277335676 0.2330690667
0.3559254882 0.3310564727 0.2284076836
0.3657220899 0.3343793778 0.2237463005
0.3755186916 0.3377022829 0.2190849174
0.3853152933 0.3410251880 0.2144235343
0.3926540585 0.3421353336 0.2020819925
0.3999928237 0.3432454793 0.1897404506
0.4073315889 0.3443556250 0.1773989088
0.4146703541 0.3454657706 0.1650573670
0.4245833316 0.3460888852 0.1778675620
0.4344963091 0.3467119998 0.1906777571
0.4444092866 0.3473351143 0.2034879521
0.4543222642 0.3479582289 0.2162981472
0.4619620394 0.3480990093 0.2132131136
0.4696018146 0.3482397896 0.2101280800
0.4772415899 0.3483805700 0.2070430465
0.4848813651 0.3485213504 0.2039580129
0.5331671373 0.3470649756 0.2152599887
0.5814529096 0.3456086008 0.2265619646
0.6297386818 0.3441522260 0.2378639404
0.6780244540 0.3426958512 0.2491659162
0.6959738010 0.3437290248 0.2433882774
0.7139231480 0.3447621984 0.2376106386
0.7318724949 0.3457953720 0.2318329998
0.7498218419 0.3468285456 0.2260553610
0.2353050451 0.3106089075 0.2038989818
0.2588393467 0.3193423921 0.2063171734
0.2823736483 0.3280758766 0.2087353651
0.3059079498 0.3368093612 0.2111535568
0.3294422514 0.3455428458 0.2135717485
0.3337761935 0.3424241346 0.2188063386
0.3381101356 0.3393054234 0.2240409287
0.3424440777 0.3361867122 0.2292755189
0.3467780198 0.3330680010 0.2345101090
0.3576947169 0.3391274963 0.2324260049
0.3686114140 0.3451869916 0.2303419007
0.3795281111 0.3512464869 0.2282577966
0.3904448081 0.3573059822 0.2261736925
0.3968902954 0.3571958604 0.2147528482
0.4033357826 0.3570857385 0.2033320039
0.4097812698 0.3569756166 0.1919111596
0.4162267570 0.3568654948 0.1804903154
0.4249398591 0.3585749890 0.1907766510
0.4336529613 0.3602844832 0.2010629867
0.4423660634 0.3619939775 0.2113493223
0.4510791656 0.3637034717 0.2216356579
0.4600665048 0.3637845263 0.2173982188
0.4690538440 0.3638655809 0.2131607797
0.4780411832 0.3639466355 0.2089233405
0.4870285224 0.3640276900 0.2046859014
0.5557645898 0.3608202340 0.2149569031
0.6245006573 0.3576127780 0.2252279049
0.6932367247 0.3544053220 0.2354989066
0.7619727922 0.3511978660 0.2457699083
0.7742647914 0.3513639385 0.2412786053
0.7865567906 0.3515300109 0.2367873024
0.7988487898 0.3516960834 0.2322959994
0.8111407890 0.3518621559 0.2278046964
0.2261758059 0.2993357208 0.2010144843
0.2582868226 0.3172409637 0.2043354176
0.2903978393 0.3351462066 0.2076563509
0.3225088560 0.3530514495 0.2109772842
0.3546198727 0.3709566924 0.2142982175
0.3528216928 0.3628181279 0.2197114510
0.3510235129 0.3546795634 0.2251246844
0.3492253330 0.3465409988 0.2305379179
0.3474271531 0.3384024343 0.2359511514
0.3594639455 0.3471985199 0.2364443262
0.3715007380 0.3559946054 0.2369375010
0.3835375305 0.3647906910 0.2374306758
0.3955743230 0.3735867765 0.2379238506
0.4011265322 0.3722563871 0.2274237039
0.4066787414 0.3709259977 0.2169235572
0.4122309507 0.3695956083 0.2064234105
0.4177831599 0.3682652189 0.1959232638
0.4252963867 0.3710610928 0.2036857400
0.4328096134 0.3738569667 0.2114482163
0.4403228402 0.3766528406 0.2192106925
0.4478360669 0.3794487145 0.2269731687
0.4581709701 0.3794700433 0.2215833240
0.4685058733 0.3794913721 0.2161934793
0.4788407765 0.3795127009 0.2108036346
0.4891756797 0.3795340297 0.2054137899
0.5783620423 0.3745754925 0.2146538175
0.6675484050 0.3696169553 0.2238938452
0.7567347677 0.3646584180 0.2331338728
0.8459211304 0.3596998808 0.2423739005
0.8525557818 0.3589988521 0.2391689333
0.8591904333 0.3582978235 0.2359639661
0.8658250847 0.3575967948 0.2327589990
0.8724597362 0.3568957662 0.2295540318
0.1810117357 0.3220611642 0.2104664924
0.2238598689 0.3339860716 0.2188388434
0.2667080021 0.3459109790 0.2272111944
0.3095561353 0.3578358865 0.2355835454
0.3524042685 0.3697607939 0.2439558964
0.3531432478 0.3678489993 0.2396085632
0.3538822272 0.3659372047 0.2352612300
0.3546212066 0.3640254101 0.2309138969
0.3553601860 0.3621136154 0.2265665637
0.3651234676 0.3662419321 0.2327599341
0.3748867492 0.3703702488 0.2389533044
0.3846500307 0.3744985655 0.2451466748
0.3944133123 0.3786268822 0.2513400451
0.4016568855 0.3795035294 0.2385869466
0.4089004587 0.3803801766 0.2258338481
0.4161440320 0.3812568238 0.2130807496
0.4233876052 0.3821334710 0.2003276510
0.4306972891 0.3842402620 0.2086968461
0.4380069731 0.3863470529 0.2170660412
0.4453166570 0.3884538438 0.2254352362
0.4526263410 0.3905606348 0.2338044313
0.4617407642 0.3903977132 0.2288559602
0.4708551874 0.3902347917 0.2239074890
0.4799696106 0.3900718702 0.2189590178
0.4890840338 0.3899089486 0.2140105467
0.5627815298 0.3874522467 0.2216237879
0.6364790257 0.3849955448 0.2292370292
0.7101765217 0.3825388429 0.2368502705
0.7838740176 0.3800821410 0.2444635117
0.7907800760 0.3769158621 0.2359482432
0.7976861343 0.3737495833 0.2274329748
0.8045921926 0.3705833044 0.2189177063
0.8114982510 0.3674170256 0.2104024378
0.1358476654 0.3447866077 0.2199185006
0.1894329151 0.3507311796 0.2333422693
0.2430181648 0.3566757515 0.2467660379
0.2966034145 0.3626203234 0.2601898066
0.3501886642 0.3685648953 0.2736135752
0.3534648029 0.3728798707 0.2595056754
0.3567409416 0.3771948460 0.2453977756
0.3600170803 0.3815098213 0.2312898758
0.3632932190 0.3858247966 0.2171819761
0.3707829897 0.3852853444 0.2290755420
0.3782727603 0.3847458922 0.2409691079
0.3857625310 0.3842064400 0.2528626738
0.3932523017 0.3836669878 0.2647562397
0.4021872389 0.3867506717 0.2497501893
0.4111221761 0.3898343555 0.2347441390
0.4200571132 0.3929180393 0.2197380886
0.4289920504 0.3960017232 0.2047320383
0.4360981916 0.3974194311 0.2137079522
0.4432043327 0.3988371391 0.2226838661
0.4503104739 0.4002548470 0.2316597800
0.4574166150 0.4016725550 0.2406356939
0.4653105583 0.4013253831 0.2361285963
0.4732045015 0.4009782113 0.2316214987
0.4810984447 0.4006310394 0.2271144011
0.4889923880 0.4002838675 0.2226073035
0.5472010172 0.4003290009 0.2285937584
0.6054096464 0.4003741344 0.2345802133
0.6636182756 0.4004192678 0.2405666681
0.7218269049 0.4004644012 0.2465531230
0.7290043701 0.3948328721 0.2327275532
0.7361818353 0.3892013431 0.2189019834
0.7433593005 0.3835698141 0.2050764136
0.7505367658 0.3779382850 0.1912508437
0.0906835952 0.3675120512 0.2293705088
0.1550059614 0.3674762876 0.2478456951
0.2193283276 0.3674405240 0.2663208814
0.2836506937 0.3674047604 0.2847960677
0.3479730599 0.3673689968 0.3032712541
0.3537863579 0.3779107420 0.2794027876
0.3595996559 0.3884524873 0.2555343212
0.3654129539 0.3989942325 0.2316658548
0.3712262519 0.4095359777 0.2077973884
0.3764425117 0.4043287567 0.2253911498
0.3816587715 0.3991215356 0.2429849113
0.3868750313 0.3939143145 0.2605786728
0.3920912910 0.3887070935 0.2781724342
0.4027175922 0.3939978139 0.2609134320
0.4133438934 0.3992885344 0.2436544299
0.4239701945 0.4045792549 0.2263954277
0.4345964957 0.4098699753 0.2091364255
0.4414990940 0.4105986003 0.2187190583
0.4484016924 0.4113272253 0.2283016910
0.4553042907 0.4120558502 0.2378843237
0.4622068891 0.4127844752 0.2474669564
0.4688803523 0.4122530530 0.2434012324
0.4755538156 0.4117216308 0.2393355084
0.4822272789 0.4111902086 0.2352697843
0.4889007421 0.4106587864 0.2312040603
0.5316205046 0.4132057552 0.2355637288
0.5743402671 0.4157527239 0.2399233973
0.6170600296 0.4182996926 0.2442830658
0.6597797921 0.4208466614 0.2486427343
0.6672286642 0.4127498821 0.2295068631
0.6746775363 0.4046531029 0.2103709920
0.6821264084 0.3965563237 0.1912351208
0.6895752806 0.3884595444 0.1720992497
0.0455195250 0.3902374946 0.2388225170
0.1205790077 0.3842213955 0.2623491210
0.1956384903 0.3782052964 0.2858757249
0.2706979730 0.3721891974 0.3094023289
0.3457574556 0.3661730983 0.3329289329
0.3541079129 0.3829416134 0.2992998999
0.3624583703 0.3997101286 0.2656708668
0.3708088276 0.4164786437 0.2320418338
0.3791592849 0.4332471589 0.1984128007
0.3821020338 0.4233721689 0.2217067577
0.3850447826 0.4134971790 0.2450007147
0.3879875315 0.4036221891 0.2682946717
0.3909302804 0.3937471991 0.2915886287
0.4032479455 0.4012449562 0.2720766748
0.4155656107 0.4087427133 0.2525647208
0.4278832758 0.4162404704 0.2330527668
0.4402009410 0.4237382275 0.2135408128
0.4468999965 0.4237777695 0.2237301644
0.4535990520 0.4238173114 0.2339195159
0.4602981076 0.4238568534 0.2441088675
0.4669971631 0.4238963954 0.2542982190
0.4724501464 0.4231807229 0.2506738685
0.4779031297 0.4224650504 0.2470495181
0.4833561130 0.4217493779 0.2434251676
0.4888090963 0.4210337053 0.2398008171
0.5160399920 0.4260825094 0.2425336992
0.5432708878 0.4311313134 0.2452665813
0.5705017836 0.4361801175 0.2479994635
0.5977326793 0.4412289216 0.2507323456
0.6054529583 0.4306668921 0.2262861731
0.6131732373 0.4201048627 0.2018400006
0.6208935163 0.4095428333 0.1773938281
0.6286137954 0.3989808038 0.1529476557
0.0367119581 0.4017781748 0.2385327171
0.1096531520 0.3954491963 0.2587516565
0.1825943459 0.3891202177 0.2789705958
0.2555355398 0.3827912392 0.2991895352
0.3284767338 0.3764622606 0.3194084746
0.3385040200 0.3887719760 0.2906006775
0.3485313061 0.4010816913 0.2617928804
0.3585585923 0.4133914067 0.2329850833
0.3685858785 0.4257011221 0.2041772862
0.3729379865 0.4171189966 0.2264801559
0.3772900944 0.4085368711 0.2487830256
0.3816422024 0.3999547457 0.2710858954
0.3859943104 0.3913726202 0.2933887651
0.4013591954 0.4032711343 0.2787600025
0.4167240804 0.4151696484 0.2641312399
0.4320889654 0.4270681625 0.2495024772
0.4474538505 0.4389666766 0.2348737146
0.4537305369 0.4373087400 0.2434909836
0.4600072234 0.4356508034 0.2521082526
0.4662839099 0.4339928668 0.2607255216
0.4725605963 0.4323349302 0.2693427905
0.4780010828 0.4327575826 0.2611025253
0.4834415693 0.4331802349 0.2528622600
0.4888820557 0.4336028873 0.2446219947
0.4943225422 0.4340255397 0.2363817294
0.5170751711 0.4383299847 0.2436458628
0.5398277999 0.4426344296 0.2509099962
0.5625804288 0.4469388746 0.2581741296
0.5853330577 0.4512433195 0.2654382630
0.5915812601 0.4401765399 0.2439853216
0.5978294625 0.4291097602 0.2225323801
0.6040776650 0.4180429805 0.2010794386
0.6103258674 0.4069762009 0.1796264972
0.0279043911 0.4133188551 0.2382429172
0.0987272963 0.4066769970 0.2551541919
0.1695502015 0.4000351390 0.2720654667
0.2403731067 0.3933932810 0.2889767415
0.3111960119 0.3867514229 0.3058880163
0.3229001270 0.3946023385 0.2819014551
0.3346042420 0.4024532541 0.2579148939
0.3463083571 0.4103041697 0.2339283328
0.3580124722 0.4181550853 0.2099417716
0.3637739392 0.4108658243 0.2312535541
0.3695354063 0.4035765633 0.2525653366
0.3752968733 0.3962873022 0.2738771191
0.3810583403 0.3889980412 0.2951889015
0.3994704452 0.4052973124 0.2854433303
0.4178825501 0.4215965835 0.2756977590
0.4362946551 0.4378958547 0.2659521877
0.4547067600 0.4541951258 0.2562066164
0.4605610773 0.4508397106 0.2632518028
0.4664153947 0.4474842954 0.2702969893
0.4722697121 0.4441288801 0.2773421757
0.4781240295 0.4407734649 0.2843873621
0.4835520192 0.4423344422 0.2715311820
0.4889800088 0.4438954195 0.2586750019
0.4944079985 0.4454563968 0.2458188218
0.4998359881 0.4470173741 0.2329626417
0.5181103501 0.4505774600 0.2447580264
0.5363847121 0.4541375458 0.2565534111
0.5546590740 0.4576976316 0.2683487958
0.5729334360 0.4612577175 0.2801441805
0.5777095619 0.4496861876 0.2616844700
0.5824856877 0.4381146577 0.2432247596
0.5872618136 0.4265431278 0.2247650491
0.5920379394 0.4149715979 0.2063053387
0.0190968242 0.4248595353 0.2379531173
0.0878014406 0.4179047978 0.2515567274
0.1565060571 0.4109500603 0.2651603376
0.2252106736 0.4039953228 0.2787639478
0.2939152900 0.3970405853 0.2923675580
0.3072962340 0.4004327011 0.2732022328
0.3206771779 0.4038248169 0.2540369075
0.3340581219 0.4072169327 0.2348715822
0.3474390658 0.4106090486 0.2157062570
0.3546098919 0.4046126520 0.2360269522
0.3617807181 0.3986162554 0.2563476475
0.3689515442 0.3926198588 0.2766683427
0.3761223703 0.3866234622 0.2969890380
0.3975816951 0.4073234904 0.2921266580
0.4190410199 0.4280235186 0.2872642781
0.4405003447 0.4487235468 0.2824018982
0.4619596694 0.4694235750 0.2775395182
0.4673916178 0.4643706812 0.2830126221
0.4728235661 0.4593177873 0.2884857259
0.4782555144 0.4542648935 0.2939588298
0.4836874627 0.4492119996 0.2994319336
0.4891029555 0.4519113019 0.2819598387
0.4945184484 0.4546106041 0.2644877438
0.4999339412 0.4573099063 0.2470156489
0.5053494340 0.4600092085 0.2295435541
0.5191455291 0.4628249352 0.2458701900
0.5329416242 0.4656406620 0.2621968260
0.5467377193 0.4684563887 0.2785234620
0.5605338144 0.4712721154 0.2948500980
0.5638378637 0.4591958353 0.2793836185
0.5671419129 0.4471195552 0.2639171391
0.5704459622 0.4350432751 0.2484506596
0.5737500115 0.4229669950 0.2329841802
0.0102892572 0.4364002155 0.2376633173
0.0768755850 0.4291325985 0.2479592629
0.1434619127 0.4218649816 0.2582552085
0.2100482404 0.4145973646 0.2685511541
0.2766345682 0.4073297476 0.2788470997
0.2916923410 0.4062630636 0.2645030104
0.3067501138 0.4051963797 0.2501589211
0.3218078866 0.4041296957 0.2358148317
0.3368656594 0.4030630118 0.2214707424
0.3454458447 0.3983594797 0.2408003504
0.3540260299 0.3936559475 0.2601299584
0.3626062151 0.3889524154 0.2794595664
0.3711864003 0.3842488833 0.2987891744
0.3956929450 0.4093496685 0.2988099858
0.4201994896 0.4344504537 0.2988307972
0.4447060343 0.4595512390 0.2988516086
0.4692125789 0.4846520242 0.2988724201
0.4742221582 0.4779016517 0.3027734413
0.4792317374 0.4711512793 0.3066744626
0.4842413167 0.4644009068 0.3105754839
0.4892508959 0.4576505344 0.3144765051
0.4946538919 0.4614881615 0.2923884954
0.5000568879 0.4653257886 0.2703004858
0.5054598839 0.4691634158 0.2482124761
0.5108628799 0.4730010429 0.2261244664
0.5201807081 0.4750724105 0.2469823536
0.5294985363 0.4771437781 0.2678402409
0.5388163645 0.4792151458 0.2886981282
0.5481341927 0.4812865134 0.3095560154
0.5499661654 0.4687054830 0.2970827670
0.5517981381 0.4561244527 0.2846095186
0.5536301108 0.4435434223 0.2721362701
0.5554620835 0.4309623920 0.2596630217
0.0496582543 0.4430146110 0.2392584626
0.1066953578 0.4368578062 0.2432815083
0.1637324614 0.4307010014 0.2473045540
0.2207695649 0.4245441967 0.2513275996
0.2778066685 0.4183873919 0.2553506453
0.2916900547 0.4171770630 0.2406184619
0.3055734408 0.4159667342 0.2258862786
0.3194568270 0.4147564053 0.2111540952
0.3333402131 0.4135460765 0.1964219118
0.3432378654 0.4096598939 0.2145744074
0.3531355177 0.4057737113 0.2327269030
0.3630331700 0.4018875287 0.2508793985
0.3729308223 0.3980013461 0.2690318941
0.3962758052 0.4195669089 0.2770890802
0.4196207881 0.4411324718 0.2851462663
0.4429657710 0.4626980346 0.2932034525
0.4663107539 0.4842635974 0.3012606386
0.4706591188 0.4804337004 0.3020954883
0.4750074837 0.4766038035 0.3029303381
0.4793558486 0.4727739065 0.3037651879
0.4837042135 0.4689440096 0.3046000376
0.4916878335 0.4718910239 0.2903385137
0.4996714536 0.4748380382 0.2760769897
0.5076550736 0.4777850526 0.2618154658
0.5156386936 0.4807320669 0.2475539418
0.5249786138 0.4833931669 0.2644310007
0.5343185340 0.4860542669 0.2813080596
0.5436584541 0.4887153668 0.2981851185
0.5529983743 0.4913764668 0.3150621773
0.5555509772 0.4818089637 0.3046090854
0.5581035802 0.4722414606 0.2941559935
0.5606561831 0.4626739575 0.2837029015
0.5632087861 0.4531064544 0.2732498096
0.0890272513 0.4496290064 0.2408536079
0.1365151307 0.4445830139 0.2386037536
0.1840030101 0.4395370213 0.2363538994
0.2314908894 0.4344910288 0.2341040451
0.2789787688 0.4294450362 0.2318541909
0.2916877683 0.4280910624 0.2167339135
0.3043967678 0.4267370887 0.2016136361
0.3171057673 0.4253831149 0.1864933587
0.3298147668 0.4240291411 0.1713730813
0.3410298862 0.4209603081 0.1883484644
0.3522450056 0.4178914751 0.2053238476
0.3634601249 0.4148226420 0.2222992307
0.3746752443 0.4117538090 0.2392746139
0.3968586655 0.4297841494 0.2553681747
