Luts/DJI/DJI_DLogM_to_Leica_Classic.cube
TITLE "DJI D-Log M to Leica Classic (via V-Log)"
LUT_3D_SIZE 33
0.00347906 0.00161746 0.00302129
0.00347906 0.00161746 0.00302129
0.00411255239 0.00213759494 0.00359810718
0.0131691844 0.00893104071 0.0105853105
0.053906135 0.0291403846 0.0254111563
0.103959913 0.0434794395 0.0287089589
0.159663492 0.05413872 0.0255526463
0.221274148 0.0586114483 0.0174098125
0.292478391 0.0502270755 0.00485837875
0.350245078 0.0331724446 0.000256398645
0.406652706 0.0137405335 0
0.460815427 0.00251210213 0
0.508674839 0 0
0.553218947 0 0
0.590960469 0 0
0.626389671 0 0
0.661870973 0 0
0.694362272 0 0
0.725388232 0 0
0.748490801 0 0
0.767405221 0 0.000340037025
0.776913334 0 0.00299108157
0.783537063 0 0.0173429433
0.788047211 0 0.0387859106
0.790965344 0 0.062029788
0.793496852 0 0.0813384974
0.795520274 0 0.0929439299
0.797026489 0 0.099470472
0.798099534 0 0.102804811
0.798665483 0 0.103792965
0.798894967 0 0.104259734
0.798987696 0 0.104468759
0.806892868 0 0.219524348
0.00347906 0.00161746 0.00302129
0.00347906 0.00161746 0.00302129
0.00412037828 0.00215128262 0.00360885962
0.0134985867 0.00913914274 0.0107693295
0.0548341946 0.0294127562 0.0254943456
0.104793904 0.0436576142 0.0286499893
0.160368175 0.0542519476 0.0255082862
0.221930036 0.058621098 0.0172994502
0.293053272 0.0501098479 0.00476552578
0.350715637 0.0329948806 0.000253270973
0.407096462 0.0136351296 0
0.461121019 0.00243849367 0
0.508856027 0 0
0.553340158 0 0
0.591059327 0 0
0.62649536 0 0
0.661975754 0 0
0.694455562 0 0
0.725472639 0 0
0.748532966 0 0
0.767419667 0 0.000343981006
0.776924978 0 0.00299432821
0.783541999 0 0.0173664123
0.788051334 0 0.0388055123
0.790967534 0 0.0620476396
0.793498032 0 0.0813452603
0.795521242 0 0.0929508163
0.797026944 0 0.0994721453
0.798081448 0 0.102750303
0.798645263 0 0.103761986
0.798887921 0 0.104248646
0.798987697 0 0.104467131
0.806886065 0 0.219408906
0.00417607825 0.00223454353 0.00373033872
0.00414839719 0.00220610277 0.00370275088
0.00467023543 0.00263098176 0.00416541607
0.0141495662 0.00958827179 0.0111871998
0.0561633284 0.0297867627 0.0255619156
0.105338332 0.0437630022 0.0285725454
0.160112196 0.0542958405 0.02550136
0.220576083 0.0587822008 0.0176647639
0.289929004 0.0511420193 0.00494572362
0.34645578 0.0342062052 0.000243929471
0.401694425 0.0148500422 0
0.454971743 0.00266115094 0
0.504715412 6.75149848e-05 0
0.549343856 0 0
0.589456791 0 0
0.625627973 0 0
0.659869499 0 0
0.692951021 0 0
0.724294927 0 0
0.747370363 0 0
0.766487869 0 0.000355803322
0.776455671 0 0.00300406121
0.783352899 0 0.0172583619
0.787860031 0 0.0372629695
0.790715146 0 0.059723267
0.793266942 0 0.0797444026
0.795285078 0 0.0915595616
0.796792137 0 0.098321466
0.797936726 0 0.102315148
0.798583549 0 0.103669544
0.7988851 0 0.104231121
0.798987699 0 0.104464197
0.80686553 0 0.219060022
0.00990216783 0.00783136512 0.00962205035
0.00989562208 0.00782424777 0.0096148288
0.00993602006 0.00782679065 0.00963202496
0.014123234 0.0106647287 0.0123677159
0.0484454085 0.027544608 0.0247123039
0.0947239559 0.0415587317 0.0291648808
0.14482521 0.0524691847 0.0264707928
0.200133755 0.0589253745 0.0208608308
0.264589198 0.0565859245 0.00725245283
0.319012961 0.0424574833 0.00155535004
0.37333249 0.0236483535 0
0.427400523 0.0067155767 0
0.476959 0.00128771288 0
0.524322162 0 0
0.564921807 0 0
0.602860762 0 0
0.640356509 0 0
0.675602989 0 0
0.710975984 0 0
0.738125687 0 0
0.761063693 0 0.00012312623
0.773255033 0 0.00125152331
0.781259463 0 0.012211151
0.78647983 0 0.0248136685
0.789725965 0 0.0517459569
0.792580952 0 0.0751695311
0.794809701 0 0.0889891565
0.796554813 0 0.0975572656
0.797811288 0 0.102040332
0.798529177 0 0.103583613
0.798881443 0 0.104208378
0.798987703 0 0.104460576
0.806836735 0 0.218569793
0.0156342875 0.0469502961 0.0336640014
0.0155849915 0.0468874965 0.0336103292
0.0161748515 0.0455085303 0.0331018611
0.0189771515 0.0398975416 0.0308752536
0.038247783 0.0423168023 0.0327879146
0.0825987763 0.0484645854 0.0331790593
0.136153575 0.056620127 0.030662631
0.192914617 0.0610578405 0.0255413974
0.258221121 0.0601459478 0.0133249668
0.312261195 0.0517751632 0.00552681331
0.365918678 0.038918027 0.00100658821
0.418888935 0.0218018914 0.00012753846
0.46697602 0.00943253679 0
0.511629951 0.00161584158 0
0.549617065 0.00029133935 0
0.583955301 1.35567642e-05 0
0.61710243 0 0
0.654326712 0 0
0.694082576 0 0
0.727068832 0 0
0.755910242 0 4.84064298e-05
0.771239071 0 0.00037619711
0.780107268 0 0.00724791674
0.785600424 0 0.0171125136
0.788993449 0 0.0462241421
0.791948244 0 0.0708946804
0.794358658 0 0.0865730854
0.796216957 0 0.0959207653
0.797629479 0 0.101448449
0.798477877 0 0.103495899
0.798876926 0 0.104184903
0.798987706 0 0.104456788
0.806804602 0 0.218021394
0.00267803607 0.0880913617 0.0469207825
0.00268036031 0.0879992861 0.0469074375
0.00299593041 0.0857819871 0.0465118938
0.00500288937 0.0773655522 0.0447798847
0.0206043615 0.0745300372 0.0438134877
0.0669084953 0.0752012549 0.0417274483
0.12660835 0.0775773301 0.0380343242
0.186770108 0.0781241028 0.0308759603
0.254009501 0.0754799699 0.016964404
0.309365936 0.0695252435 0.00721533386
0.364463878 0.0605116098 0.00102797961
0.418831415 0.0459792219 0.000111966948
0.46876315 0.0262676648 0
0.514766894 0.0109255826 0
0.553073188 0.00310597959 0
0.586404469 0.00101120225 0
0.618131012 1.0528584e-05 0
0.650370689 0 0
0.684227007 0 0
0.718530366 0 0
0.75055865 0 1.36734083e-05
0.767561529 0 0.000183203901
0.778314859 0 0.00574433005
0.785102857 0 0.0141079777
0.78868954 0 0.0437901584
0.791690582 0 0.0688569054
0.794123011 0 0.0851013841
0.796062229 0 0.0953981616
0.797522656 0 0.101124695
0.798435514 0 0.10342276
0.798865744 0 0.104165287
0.798987709 0 0.104453606
0.80677939 0 0.217590184
0 0.133236606 0.0517014676
0 0.133141527 0.0516848217
0 0.129095883 0.0515593479
0 0.118381439 0.0508518665
0.00510766335 0.115295072 0.0503883249
0.044820473 0.116629433 0.0487658687
0.110609918 0.117866062 0.0445718892
0.176025305 0.117305483 0.0371938368
0.246668066 0.1144384 0.0246037026
0.304281638 0.110581672 0.0123374663
0.360973435 0.10477303 0.0034964392
0.416667189 0.0941846416 0.00029223235
0.469190555 0.0750528316 0
0.518127328 0.0487900523 0
0.559728203 0.0276994232 0
0.595356747 0.0135384467 0
0.62856829 0.00285446275 0
0.659607506 0.00143970982 0
0.692328482 0 0
0.721228021 0 0
0.747491002 0 0.000227169654
0.766148874 0 0.0007307914
0.776958309 0 0.00478755399
0.783799738 0 0.0120950896
0.787800043 0 0.0417502992
0.791417739 0 0.0666131864
0.793964582 0 0.0841272276
0.795917695 0 0.0945366721
0.797457923 0 0.101000508
0.798400279 0 0.103361654
0.798855074 0 0.104150975
0.798986399 0 0.10445063
0.806745311 0 0.217006088
0 0.184306397 0.0472254078
0 0.18423112 0.0472015809
0 0.177542235 0.0483972041
0 0.163137446 0.050230394
0.000161450219 0.158787198 0.0504755987
0.0214868855 0.160386741 0.0492968365
0.0858492903 0.162510792 0.0447145283
0.158367216 0.16275487 0.0356590332
0.234103453 0.161457337 0.0223962564
0.294998007 0.158979078 0.0116588282
0.354362951 0.154853775 0.00358849063
0.411565541 0.14734033 0.000185544164
0.46613718 0.133885574 0
0.517918588 0.115879568 0
0.562537094 0.090475706 0
0.602488596 0.0628545081 0
0.638382877 0.0432815514 0
0.67198451 0.0228051778 0
0.706436808 0.0061814835 0
0.733203065 0.00264516416 3.55006624e-05
0.757651197 0 0.000297978586
0.771613827 0.000304242701 0.0028949328
0.780694464 0.000322707147 0.0168046415
0.787999839 0.00059083909 0.0312644111
0.787414337 1.3870126e-05 0.0368668333
0.790956352 0 0.0614419268
0.793866842 0 0.0823443974
0.795855914 0 0.0942865305
0.797403695 0 0.100788205
0.798378874 0 0.103329574
0.798847238 0 0.104147347
0.798983833 0 0.104448269
0.806704058 0 0.216297229
0 0.241804542 0.0254732486
0 0.241801584 0.0255058621
0 0.232549326 0.0302000402
0 0.215766952 0.0375600709
0 0.209097392 0.039602866
0.00447790038 0.209811793 0.0389479383
0.0512235969 0.213222512 0.033982176
0.1307067 0.214830252 0.0230759561
0.214623997 0.215168037 0.00967806135
0.280533933 0.213871885 0.00451528407
0.343602062 0.211127333 0.0012139173
0.403444933 0.205967168 7.24273351e-06
0.460277657 0.196762202 0
0.514547063 0.18592616 0
0.561541865 0.16832016 0
0.604314755 0.151834093 0
0.643244818 0.125710994 0
0.682180026 0.0977212918 0
0.719644109 0.0714458537 0
0.753595519 0.0318214382 0.000592928475
0.779395673 0.0175623962 0.00355821316
0.790036817 0.00628983174 0.0187149642
0.795852869 0.00403879228 0.038058704
0.798344322 0.00871831442 0.0645259115
0.796996414 0.00430919804 0.0691937129
0.795830198 0.0035658216 0.0723610975
0.794415612 0 0.0826610897
0.796218316 0 0.0944275176
0.797375415 0 0.100706447
0.79835514 0 0.103297956
0.798837898 0 0.10414302
0.798982097 0 0.104447831
0.806649525 0 0.21535737
0 0.288537106 0.00858355544
0 0.288495618 0.0085764852
0 0.27867573 0.0119366663
0 0.260452901 0.0181873991
0 0.251980596 0.0207150469
0.00251073259 0.2518905 0.0202061845
0.0291272658 0.255272279 0.0158293542
0.0980226403 0.25875738 0.00862849235
0.193104093 0.260580116 0.00182306116
0.264622114 0.2601534 0.00114392179
0.330920475 0.258072835 0.000137761867
0.394848898 0.254706613 0
0.453546031 0.247370183 0
0.509472695 0.237936141 0
0.5588943 0.227134737 1.52368556e-05
0.602672378 0.213551655 1.01437274e-05
0.643954767 0.197789011 1.64883772e-05
0.684344786 0.176975332 0
0.726161238 0.146804845 0
0.764366937 0.11345671 0.000546529465
0.797170107 0.0751170012 0.0046327459
0.812957006 0.0658646754 0.0211463389
0.815379771 0.0513257764 0.0515922376
0.816302237 0.0497984528 0.0811460949
0.80981402 0.0238346204 0.0913877183
0.80545056 0.0107940799 0.0967531093
0.801907441 0.0102518573 0.0934165496
0.797587129 7.63621695e-05 0.0959068869
0.798443145 0 0.101873133
0.79836453 0 0.103296113
0.798851677 0 0.104148228
0.79898211 0 0.104445892
0.806624898 0 0.214765878
0 0.333866394 0.00210848058
0 0.333712895 0.002140342
0 0.323818409 0.00384265939
0 0.305009532 0.00681292586
0 0.295238463 0.0083858904
0 0.294773116 0.00832168111
0.011754326 0.298413045 0.00635506262
0.0673745977 0.303245922 0.00293765098
0.160799067 0.306956651 0.000318346009
0.241988687 0.308053894 0.000190966162
0.3140527 0.307297812 0
0.381072229 0.304849791 2.94929207e-06
0.444519099 0.300577283 2.9868476e-05
0.502133049 0.293248615 0.000198480188
0.554194935 0.285307562 0.000436987416
0.599350291 0.275205233 0.000301067223
0.642703552 0.264441349 0.000137756011
0.684000493 0.248745993 8.15744339e-05
0.728177437 0.230606309 0
0.769912359 0.203065923 0.000503025361
0.808494558 0.174645791 0.00471846181
0.831895791 0.150854474 0.0219865668
0.839438135 0.129485956 0.0490545552
0.836954735 0.110192641 0.0816366977
0.830690036 0.0884423499 0.0939798694
0.823630921 0.0623872024 0.100483774
0.815480064 0.0346691792 0.104148999
0.806375908 0.0148242939 0.10306646
0.8008306 0.00164864201 0.103824552
0.800123072 0.00159055577 0.104545492
0.798959578 0 0.104247867
0.798982124 0 0.104443804
0.806621042 0 0.214348126
0 0.377647881 0
0 0.376125133 4.45356565e-06
0 0.368061987 0.000169071062
0 0.349159703 0.000966694755
0 0.338182548 0.00127643585
0 0.337608777 0.00114118479
0.00532572696 0.341045715 0.000609231009
0.0335918129 0.34735245 0
0.124301439 0.353122839 0
0.207684326 0.355187255 0
0.291703153 0.35585939 0
0.364304987 0.354809059 1.65022206e-06
0.430327778 0.351542357 2.3161423e-05
0.493072518 0.347375323 0.000118265651
0.546014721 0.340570885 0.000420456716
0.59448195 0.334068639 0.000436352398
0.638194316 0.324389292 0.000223421563
0.681960401 0.314708422 0.000113174411
0.726729919 0.298951265 1.67612456e-05
0.771400135 0.282826392 7.68708196e-06
0.813541383 0.255905465 0.00118801999
0.846714533 0.233548737 0.00785602293
0.858960035 0.214660196 0.0311348813
0.861488145 0.197846916 0.0595943783
0.854163477 0.170845489 0.0805200799
0.846129952 0.13963433 0.0958435015
0.835972253 0.0966466153 0.102566235
0.824502109 0.0616048822 0.10773829
0.811535067 0.0269941492 0.10666441
0.803508969 0.00468924707 0.106949246
0.799096059 0 0.104374476
0.799054748 0 0.104510905
0.806613496 0 0.213798984
0 0.417059099 0
0 0.415322594 0
0 0.409205957 7.22705407e-06
0 0.3910005 0.000144020613
0 0.378786789 0.000175588557
0 0.378424692 0.000183491821
0.00129696136 0.382170705 0.000110547543
0.0221077981 0.388754069 0
0.0843569208 0.396096762 0
0.169195352 0.400821505 0
0.258539509 0.402116411 0
0.342920248 0.40234628 2.40822269e-06
0.414049525 0.400779446 1.16266353e-05
0.479226119 0.397303822 0.000107981883
0.536623112 0.393300188 0.000247353791
0.585670769 0.387116054 0.000214360652
0.632454657 0.380696435 0.000138069855
0.677014754 0.371887834 7.61690831e-05
0.724084602 0.361397479 9.20987564e-06
0.769246775 0.34651118 6.14313529e-06
0.815185715 0.329696122 0.000138473377
0.851944572 0.307210841 0.0031914424
0.875069938 0.288391689 0.0135212304
0.881704425 0.271950951 0.0378776677
0.880020092 0.251358857 0.0539441872
0.872653837 0.224720472 0.0730871792
0.863005779 0.191338223 0.0881774993
0.847324195 0.134507261 0.101982099
0.831009099 0.0822547109 0.108168743
0.81134563 0.0208377876 0.110133219
0.803438811 0.0086404609 0.106228481
0.799380543 0 0.104821755
0.808920773 0.00757342383 0.213125737
0 0.453405294 0
0 0.451669366 0
0 0.446577732 0
0 0.430022418 0
0 0.417559556 0
0 0.416542585 0
0.000506395668 0.42099765 0
0.00447454125 0.42863817 0
0.0497080348 0.43787713 0
0.121079598 0.443686521 0
0.224204792 0.448021801 0
0.313265884 0.448980949 0
0.392994368 0.448811589 3.5943915e-06
0.463114742 0.446633187 6.30419614e-06
0.522767099 0.44324299 9.09942667e-05
0.575089658 0.439306584 0.000105806944
0.623424432 0.433893906 6.01803519e-05
0.670009663 0.427351267 4.26902698e-05
0.718677305 0.418430113 6.92077739e-06
0.765566229 0.407589088 0
0.812138553 0.392012105 0.000140291641
0.854941573 0.375381042 0.000712941209
0.881552759 0.355791095 0.0063863409
0.899484094 0.339019033 0.0164033619
0.900193549 0.321218842 0.0308290815
0.89833975 0.301736526 0.0453409183
0.888982268 0.273153954 0.0645491191
0.87647288 0.229609528 0.0802961626
0.858379638 0.170373605 0.0984037629
0.835411526 0.0981227222 0.10542508
0.815220504 0.0390444581 0.107944513
0.800151701 0 0.105556926
0.811767302 0.016930792 0.212253521
0 0.485396197 0
0 0.484059537 0
0 0.479732351 0
0 0.464241322 0
0 0.452033942 0
0 0.450952115 0
0 0.455485074 0
0.00331535651 0.463630673 0
0.0331731369 0.473636531 0
0.081663093 0.482116734 0
0.182228474 0.486969664 0
0.282985534 0.490497208 0
0.367951988 0.491207965 0
0.444575781 0.49019526 0
0.508393069 0.487946717 0
0.56303594 0.484775157 0
0.613627339 0.480939069 0
0.662182437 0.475671871 0
0.712573285 0.468594124 0
0.760704359 0.459166179 0
0.809033335 0.4475946 0
0.852263034 0.431358918 0.000409135861
0.886585065 0.414925421 0.00140586174
0.907699551 0.397214168 0.00724566554
0.91670126 0.380675325 0.0121494808
0.91674273 0.362736649 0.023848335
0.912273591 0.339533758 0.0361585089
0.90275344 0.309736402 0.0548182336
0.885605153 0.256467232 0.0757390978
0.862674221 0.1853512 0.09557432
0.828246639 0.0738881722 0.109216751
0.801035539 0 0.10640046
0.814741458 0.0267289031 0.211213861
0 0.513318742 0
0 0.511958651 0
0 0.508447429 0
0 0.494398984 0
0 0.481372618 0
0 0.481463077 0
3.33147498e-05 0.485581744 0
0.00133161631 0.493842884 0
0.0140416099 0.504827318 0
0.0624236243 0.513461228 0
0.140650566 0.522226096 0
0.24648367 0.526620678 0
0.341945449 0.529215669 0
0.424921918 0.529735685 0
0.492355322 0.528371657 0
0.550544428 0.52648731 0
0.603454922 0.52345276 0
0.65358048 0.519241707 0
0.705977435 0.513346679 0
0.755526437 0.50569667 0
0.804590366 0.494905998 0
0.849766482 0.482849995 1.82618181e-05
0.885148137 0.4662786 0.000194357174
0.913108984 0.450423827 0.00156923833
0.925170903 0.433966383 0.00286245515
0.931772067 0.417048253 0.0069480401
0.930136525 0.397054502 0.0162811514
0.923023162 0.369545913 0.031570191
0.912369832 0.334425483 0.0501273772
0.890392714 0.270083798 0.076471446
0.85193985 0.147999172 0.099542644
0.807555633 0.0175387369 0.105982961
0.817841662 0.0369665292 0.209983182
0 0.539527611 0.000126388928
0 0.538725315 9.76637285e-05
0 0.535693036 7.72668252e-05
0 0.523016152 6.61661988e-05
0 0.510583299 4.63245457e-05
0 0.510336598 6.7436908e-06
5.66538049e-05 0.514353758 0
0.000283811815 0.522225937 0
0.0121711158 0.5331958 0
0.0413092769 0.543368855 0
0.112044077 0.552911717 0
0.207476883 0.560354518 0
0.311792058 0.564576372 0
0.400347489 0.566235632 0
0.475285575 0.566678201 0
0.535397444 0.56529409 0
0.591729206 0.563452663 0
0.644008503 0.560124629 0
0.698424401 0.555511688 0
0.749485999 0.549013059 0
0.8008212 0.540829145 0
0.846259799 0.528897517 0
0.884115303 0.515870725 2.2016589e-05
0.914584313 0.500387584 9.79664414e-05
0.931343266 0.485100365 0.000872587754
0.941206258 0.468963319 0.00200518736
0.942929461 0.449601783 0.0078029561
0.941686858 0.427602416 0.0121022159
0.932170918 0.394303592 0.0294644963
0.915703394 0.343005981 0.0518641339
0.882829861 0.241880312 0.0801099453
0.825823957 0.071627806 0.102477786
0.821217482 0.0481440878 0.20846275
0 0.564912458 0.000599864678
0 0.564113716 0.000595530285
0 0.561266831 0.000452529293
0 0.550496321 0.000332393365
0 0.539583935 0.000177486699
0 0.536959101 3.82767577e-05
0 0.541246508 8.60486195e-06
0.000370289483 0.548528197 0
0.00508395558 0.558646427 0
0.0282596355 0.57036088 0
0.0776875962 0.581570354 0
0.172643013 0.592276715 0
0.273083614 0.598262177 0
0.375183118 0.602731506 0
0.451559008 0.603620171 0
0.518813915 0.604042858 0
0.576836267 0.602705742 0
0.632569719 0.600848247 0
0.688959077 0.597180176 0
0.743088807 0.593007801 0
0.795059356 0.585356371 0
0.843199195 0.576438279 0
0.881702413 0.564280239 0
0.914065538 0.551252692 2.43541127e-05
0.934409863 0.53684931 1.80419187e-05
0.947578994 0.521398673 0.000393872373
0.954696243 0.503788577 0.000592290308
0.954511498 0.481297763 0.0043467137
0.950319986 0.453829372 0.0126612093
0.940461328 0.415594692 0.0293211049
0.916504357 0.343627006 0.0581695783
0.856320638 0.163625883 0.0909138136
0.834856811 0.0929566834 0.207431702
0 0.590326555 0.00510992421
0 0.589681417 0.0050390773
0 0.587345979 0.00465672683
0 0.57806295 0.00423114579
0 0.568850154 0.00307927038
0 0.565065399 0.00140310611
0 0.569134185 0.000700118002
0.000266765838 0.575492263 5.94369894e-05
0.00147709751 0.584797324 6.03787833e-05
0.0213182274 0.596405026 0
0.0531525288 0.60931212 0
0.141489948 0.621012916 0
0.238740861 0.631445607 0
0.339947454 0.636706043 0
0.427870442 0.641440519 0
0.4950916 0.642520757 0
0.559319266 0.643108092 0
0.617077395 0.642482591 0
0.677076615 0.640532328 0
0.732988108 0.637242898 0
0.788862801 0.632443564 0
0.837579608 0.623946406 0
0.878649032 0.614660128 0
0.912552871 0.603144026 0
0.936513945 0.590849716 0
0.953678263 0.57719523 0
0.963204589 0.56038608 0.000254166554
0.967610914 0.541599411 0.000661147453
0.965873831 0.516027016 0.00409546649
0.959057666 0.480530441 0.0151638855
0.941916633 0.420358166 0.0362961718
0.891699197 0.270222426 0.076834435
0.856618009 0.160195339 0.200033783
0 0.613048891 0.0184662624
0 0.612757538 0.017990585
0 0.610625012 0.0170289392
0 0.60334551 0.0149946503
0 0.595140559 0.0121400074
0 0.593740586 0.00655563479
0 0.594711214 0.00274719144
0 0.601139546 0.000950358742
0.00358735455 0.610244092 0.000187316638
0.0120962989 0.620097714 3.5506911e-05
0.0499801072 0.632433373 0
0.117449552 0.64665488 0
0.210459025 0.657538849 0
0.315494811 0.668098186 0
0.399860167 0.673831231 0
0.471877151 0.679604134 0
0.536483929 0.682019506 0
0.598277955 0.683822299 0
0.660985195 0.683881792 0
0.720667085 0.682635313 0
0.777985513 0.678723883 0
0.831393199 0.673470912 0
0.872992184 0.665113491 0
0.90932519 0.65653615 0
0.93622623 0.646248447 0
0.956623593 0.634792293 0
0.970865291 0.620430911 0
0.976967406 0.602077587 6.97313405e-05
0.979000265 0.579830567 0.000952266751
0.976468055 0.550208905 0.0043286089
0.965836533 0.500540782 0.017656032
0.927559676 0.377982625 0.0506045263
0.8832518 0.242099709 0.189683424
0 0.634794841 0.0547080368
0 0.634466046 0.054170419
0 0.632544416 0.0525501574
0 0.627105001 0.0483324257
0 0.620772598 0.0348646864
0 0.619525572 0.0299892886
0 0.619033217 0.0163517508
0 0.623962462 0.012502777
0.00324914878 0.631443452 0.0012183876
0.0110460107 0.640525579 0.000724903549
0.0507177778 0.651798582 0.000107528182
0.112779726 0.665076756 0
0.203306994 0.678855638 0
0.304451472 0.689606734 0
0.385430045 0.700168582 0
0.45602462 0.707052017 0
0.520231376 0.713911838 0
0.581524767 0.719631539 0
0.645492159 0.722317304 0
0.706935569 0.724418308 0
0.767137488 0.723577729 0
0.821780898 0.719727664 0
0.86715766 0.715261304 0
0.904173356 0.707504902 0
0.934662893 0.700038978 0
0.9573242 0.690083595 0
0.975001435 0.677882736 0
0.985395634 0.664113994 0
0.989516139 0.644284439 5.70178091e-05
0.989687865 0.617943453 0.0012042693
0.984085792 0.576628792 0.00617061183
0.962539823 0.49050787 0.0244200979
0.915375855 0.345454142 0.18195531
0 0.654517359 0.101120865
0 0.65405318 0.0998418588
0 0.652797289 0.0963815974
0 0.649265355 0.0860096785
0 0.64419525 0.0708309047
0 0.642836482 0.0587105344
0 0.642660097 0.044337444
0.00101001656 0.644348005 0.0271668086
0.00482618948 0.651433243 0.0143938418
0.0180120106 0.65819316 0.00446109586
0.0625955252 0.669134635 0.00382989863
0.115330185 0.680738469 0.00172865141
0.20920925 0.693885314 0.000776519552
0.304518443 0.707289559 0.000702975311
0.379181468 0.718235871 1.92319634e-05
0.448488301 0.728161445 1.98647035e-05
0.509256788 0.737488168 0
0.569571165 0.745833197 0
0.632203466 0.754161096 0
0.694521371 0.758524667 0
0.755609725 0.761821012 0
0.813383293 0.761249904 0
0.858618439 0.758679347 0
0.898746841 0.755142071 0
0.930220945 0.748538614 0
0.956185159 0.742252496 0
0.976568571 0.731453576 0
0.988629315 0.719648033 0
0.995155491 0.704434297 5.17195752e-06
0.996697141 0.683152881 3.22322707e-05
0.994785457 0.649265822 0.00120681838
0.985626626 0.580873156 0.0080389695
0.952866568 0.464785071 0.158783985
0 0.669245137 0.14387833
0 0.668908602 0.142991285
0 0.668029768 0.14074819
0 0.665214113 0.132551855
0 0.661595662 0.116104842
0 0.659321427 0.104692149
0.000346115747 0.659738172 0.0876448682
0.00134706809 0.661234678 0.0615962046
0.00465012261 0.665828498 0.0427783157
0.0312016529 0.672574427 0.032146164
0.0621022916 0.680348556 0.0232857871
0.131653571 0.691828441 0.0166268999
0.21863857 0.703931443 0.006013469
0.305665413 0.716655706 0.00417170367
0.381725328 0.728682282 0.00116716793
0.450290254 0.738937977 0.000124642834
0.506968705 0.749586861 5.67754607e-05
0.566572138 0.760187277 0
0.626810832 0.769895952 0
0.689997542 0.779793946 0
0.749823151 0.786304848 0
0.807438923 0.790487728 0
0.853132184 0.792796173 0
0.892926435 0.791618622 0
0.926530061 0.790518286 0
0.95264483 0.785548815 0
0.976440557 0.779551316 0
0.989889301 0.770332124 0
0.99768071 0.757444603 0
0.999985 0.739358586 2.08532397e-06
0.999417768 0.71045817 8.1682141e-05
0.994866295 0.656890567 0.00241246968
0.974876601 0.559737302 0.127517469
0 0.682395556 0.182626737
0 0.682138183 0.181969718
0 0.681414604 0.18001286
0 0.679432272 0.171579662
0 0.676365925 0.157309183
0 0.674409397 0.146627583
0.000509554482 0.67428005 0.128195388
0.00140142867 0.675607579 0.104943519
0.0110886912 0.677974524 0.0807644397
0.0349652182 0.684027117 0.0707649184
0.0683132286 0.690841212 0.0580408893
0.140708098 0.700206187 0.0391646271
0.22248173 0.711573659 0.029223689
0.309127804 0.724000346 0.012877601
0.381884763 0.735465319 0.0097765736
0.448491322 0.746063797 0.00536435451
0.507034384 0.75616756 0.0012737062
0.564998411 0.767015593 0.00121562221
0.626985284 0.778030682 0
0.689160854 0.78870292 0
0.749655828 0.799217319 0
0.806046279 0.806569325 0
0.851420937 0.812476643 0
0.890512984 0.816437516 0
0.92370393 0.817809895 0
0.951264316 0.818898173 0
0.975941898 0.81435249 0
0.990846507 0.809977575 0
0.997927342 0.80134392 0
0.999985 0.786257549 2.07666738e-05
0.999978478 0.763796248 0.000317301663
0.999582182 0.721213997 8.03138183e-06
