Luts/DJI/DJI_DLogM_to_Leica_Classic_65.cube
TITLE "DJI D-Log M to Leica Classic (via V-Log)"
LUT_3D_SIZE 65
0.00347906 0.00161746 0.00302129
0.00347906 0.00161746 0.00302129
0.00347906 0.00161746 0.00302129
0.00352799199 0.00165800394 0.00306602842
0.00411255239 0.00213759494 0.00359810718
0.00708654418 0.00452736817 0.0061920695
0.0131691844 0.00893104071 0.0105853105
0.0262485886 0.0164936105 0.0168849986
0.053906135 0.0291403846 0.0254111563
0.0759956607 0.0359826399 0.0277842104
0.103959913 0.0434794395 0.0287089589
0.129815264 0.0492620243 0.0274835449
0.159663492 0.05413872 0.0255526463
0.188655801 0.0576633504 0.0227804124
0.221274148 0.0586114483 0.0174098125
0.256609115 0.0568060192 0.0113166636
0.292478391 0.0502270755 0.00485837875
0.32186083 0.0438912653 0.000416756912
0.350245078 0.0331724446 0.000256398645
0.378782197 0.022398012 9.50002951e-05
0.406652706 0.0137405335 0
0.434118428 0.0080061982 0
0.460815427 0.00251210213 0
0.485518466 0 0
0.508674839 0 0
0.531692295 0 0
0.553218947 0 0
0.572568225 0 0
0.590960469 0 0
0.608438034 0 0
0.626389671 0 0
0.644143794 0 0
0.661870973 0 0
0.679847466 0 0
0.694362272 0 0
0.709563465 0 0
0.725388232 0 0
0.738813138 0 0
0.748490801 0 0
0.758554084 0 0
0.767405221 0 0.000340037025
0.772170756 0 0.00166871779
0.776913334 0 0.00299108157
0.781181532 0 0.00614384928
0.783537063 0 0.0173429433
0.7858079 0 0.0281393716
0.788047211 0 0.0387859106
0.789537082 0 0.0503910653
0.790965344 0 0.062029788
0.792365964 0 0.0734432677
0.793496852 0 0.0813384974
0.794482933 0 0.0869933093
0.795520274 0 0.0929439299
0.79635532 0 0.0970033526
0.797026489 0 0.099470472
0.797737445 0 0.102083842
0.798099534 0 0.102804811
0.79846066 0 0.10342686
0.798665483 0 0.103792965
0.798842761 0 0.104112183
0.798894967 0 0.104259734
0.798957737 0 0.104380029
0.798987696 0 0.104468759
0.799041459 0 0.104748977
0.806892868 0 0.219524348
0.00347906 0.00161746 0.00302129
0.00347906 0.00161746 0.00302129
0.00347906 0.00161746 0.00302129
0.00353455699 0.00166344355 0.00307203079
0.0041159763 0.00214358344 0.00360281148
0.00714523162 0.0045747605 0.0062439668
0.0133132146 0.00902204121 0.0106657918
0.0265842261 0.0166486251 0.0169935796
0.0543121706 0.02925955 0.0254475525
0.0764198817 0.0361142711 0.0278285789
0.10432562 0.0435575784 0.0286831211
0.130115849 0.0493317471 0.0274717063
0.159964488 0.0541909512 0.0255358287
0.188984284 0.0576718707 0.0227253206
0.221577852 0.0586198185 0.0173628435
0.256918205 0.056746249 0.0112639503
0.292729245 0.0501810809 0.00481326971
0.322094544 0.0438033875 0.000415231689
0.35045139 0.0330950042 0.000255029446
0.378996813 0.0223170773 9.3772025e-05
0.406860994 0.0136943988 0
0.434298674 0.00797048895 0
0.460967874 0.00247988518 0
0.485609003 0 0
0.508753334 0 0
0.531760884 0 0
0.553272837 0 0
0.572615739 0 0
0.590997959 0 0
0.6084697 0 0
0.626420422 0 0
0.644167023 0 0
0.661890158 0 0
0.679878301 0 0
0.694395507 0 0
0.709606996 0 0
0.725426305 0 0
0.738833147 0 0
0.74850925 0 0
0.758569328 0 0
0.767411711 0 0.000341762698
0.77217637 0 0.00167028311
0.776918428 0 0.00299250211
0.781183905 0 0.00615513034
0.783539223 0 0.0173532118
0.785809873 0 0.0281487501
0.788049015 0 0.038794487
0.78953813 0 0.0503996086
0.790966302 0 0.0620375985
0.792366842 0 0.0734504207
0.793497368 0 0.0813414564
0.794483402 0 0.0869959967
0.795520698 0 0.0929469428
0.796355543 0 0.0970041715
0.797026688 0 0.0994712041
0.797737622 0 0.102084492
0.798099602 0 0.102804928
0.798441919 0 0.103369795
0.798656561 0 0.103779295
0.798838845 0 0.104106038
0.798891847 0 0.10425484
0.798957403 0 0.104377979
0.798987696 0 0.104468044
0.799042168 0 0.1047538
0.806889895 0 0.219473895
0.00347906 0.00161746 0.00302129
0.00347906 0.00161746 0.00302129
0.00347906 0.00161746 0.00302129
0.00354299735 0.00167043703 0.00307974779
0.00412037828 0.00215128262 0.00360885962
0.00721771464 0.00463569096 0.00630772
0.0134985867 0.00913914274 0.0107693295
0.027015742 0.0168479212 0.0171331779
0.0548341946 0.0294127562 0.0254943456
0.0769478023 0.0362660348 0.0278703291
0.104793904 0.0436576142 0.0286499893
0.130576543 0.0494157637 0.0274470343
0.160368175 0.0542519476 0.0255082862
0.189405567 0.0576827913 0.0226546593
0.221930036 0.058621098 0.0172994502
0.257314937 0.0566695223 0.0111962985
0.293053272 0.0501098479 0.00476552578
0.322394449 0.0436903911 0.000413273069
0.350715637 0.0329948806 0.000253270973
0.379228455 0.0222284712 9.21943775e-05
0.407096462 0.0136351296 0
0.434486364 0.00792461405 0
0.461121019 0.00243849367 0
0.485726945 0 0
0.508856027 0 0
0.531849581 0 0
0.553340158 0 0
0.572675416 0 0
0.591059327 0 0
0.608534436 0 0
0.62649536 0 0
0.644247509 0 0
0.661975754 0 0
0.679958223 0 0
0.694455562 0 0
0.709662951 0 0
0.725472639 0 0
0.738858868 0 0
0.748532966 0 0
0.758591068 0 0
0.767419667 0 0.000343981006
0.772183586 0 0.00167229533
0.776924978 0 0.00299432821
0.781186955 0 0.00616963239
0.783541999 0 0.0173664123
0.785812409 0 0.0281608065
0.788051334 0 0.0388055123
0.789539478 0 0.0504105917
0.790967534 0 0.0620476396
0.792367971 0 0.0734596165
0.793498032 0 0.0813452603
0.794484004 0 0.0869994516
0.795521242 0 0.0929508163
0.796355829 0 0.0970052243
0.797026944 0 0.0994721453
0.797737849 0 0.102085328
0.798081448 0 0.102750303
0.798416883 0 0.103294261
0.798645263 0 0.103761986
0.798833874 0 0.104098236
0.798887921 0 0.104248646
0.798956977 0 0.104375362
0.798987697 0 0.104467131
0.799043076 0 0.104759984
0.806886065 0 0.219408906
0.0035626971 0.00168963897 0.00310503098
0.00356531931 0.00169193042 0.00310769398
0.00356869058 0.00169487643 0.00311111768
0.00362818558 0.00174633473 0.00316600233
0.00422252559 0.00224351336 0.00371183451
0.00737615769 0.00477059496 0.00645238526
0.0137755556 0.00932623926 0.010940772
0.0278351231 0.0172423599 0.0174105139
0.055867088 0.0297199252 0.0255844749
0.0779916554 0.0365839209 0.0279789792
0.105707353 0.0438625605 0.0286001211
0.131519444 0.0495640599 0.0273882069
0.161160732 0.054394063 0.0254630351
0.190292074 0.0577093126 0.0225027009
0.222745713 0.0586555373 0.0171692223
0.258142682 0.0565276129 0.0110415712
0.293765025 0.0499976284 0.00462574517
0.3230597 0.043438983 0.000412320682
0.351299767 0.0327700754 0.000249365925
0.379741933 0.0220308622 8.86902037e-05
0.407544753 0.0135531898 0
0.434902447 0.00784243772 0
0.461547973 0.00234651496 0
0.486089495 0 0
0.509167742 0 0
0.532066598 0 0
0.553489723 0 0
0.57278468 0 0
0.591149925 0 0
0.608626756 0 0
0.626693413 0 0
0.644448961 0 0
0.662166111 0 0
0.680135965 0 0
0.694589129 0 0
0.709778746 0 0
0.725560042 0 0
0.738916079 0 0
0.748585719 0 0
0.758639601 0 0
0.767437364 0 0.000348915318
0.772199639 0 0.00167677132
0.776939546 0 0.00299839032
0.78119374 0 0.00620189226
0.783548176 0 0.0173957774
0.78581805 0 0.028187627
0.788056493 0 0.0388300395
0.789542476 0 0.0504350249
0.790970276 0 0.0620699775
0.792370481 0 0.0734800742
0.793499507 0 0.0813537231
0.794485345 0 0.0870076381
0.795522453 0 0.0929594339
0.79632637 0 0.0968602904
0.796962325 0 0.0991552414
0.797670843 0 0.101854582
0.798018955 0 0.102562406
0.798384174 0 0.103239779
0.798619506 0 0.103723126
0.798823056 0 0.104081262
0.798886724 0 0.104241211
0.798956043 0 0.104369619
0.798987698 0 0.104465773
0.799045087 0 0.104773674
0.80687752 0 0.219263809
0.00417607825 0.00223454353 0.00373033872
0.0041639675 0.00222210041 0.00371826876
0.00414839719 0.00220610277 0.00370275088
0.00422904264 0.00227114822 0.00377409885
0.00467023543 0.00263098176 0.00416541607
0.00778161654 0.00512063229 0.00685538036
0.0141495662 0.00958827179 0.0111871998
0.0286138233 0.0175661013 0.0175967971
0.0561633284 0.0297867627 0.0255619156
0.0780977317 0.0366744809 0.0280698766
0.105338332 0.0437630022 0.0285725454
0.131009879 0.0494874384 0.0274117488
0.160112196 0.0542958405 0.02550136
0.188707463 0.057799776 0.0228558986
0.220576083 0.0587822008 0.0176647639
0.255182004 0.0574483303 0.0112575865
0.289929004 0.0511420193 0.00494572362
0.318692991 0.0446056945 0.000775959451
0.34645578 0.0342062052 0.000243929471
0.374039849 0.0237365282 8.38102581e-05
0.401694425 0.0148500422 0
0.429148945 0.00811315562 0
0.454971743 0.00266115094 0
0.48004618 0.000314184104 0
0.504715412 6.75149848e-05 0
0.527628871 0 0
0.549343856 0 0
0.569861278 0 0
0.589456791 0 0
0.607653623 0 0
0.625627973 0 0
0.642661009 0 0
0.659869499 0 0
0.677280294 0 0
0.692951021 0 0
0.708797697 0 0
0.724294927 0 0
0.737554475 0 0
0.747370363 0 0
0.757533094 0 0
0.766487869 0 0.000355803322
0.771525821 0 0.00168301978
0.776455671 0 0.00300406121
0.781031887 0 0.00609728543
0.783352899 0 0.0172583619
0.785570117 0 0.028001239
0.787860031 0 0.0372629695
0.789320239 0 0.0483899739
0.790715146 0 0.059723267
0.792130197 0 0.0715475006
0.793266942 0 0.0797444026
0.794229034 0 0.0852342087
0.795285078 0 0.0915595616
0.796133675 0 0.0959176172
0.796792137 0 0.098321466
0.797576886 0 0.101573365
0.797936726 0 0.102315148
0.798342879 0 0.103178055
0.798583549 0 0.103669544
0.798808482 0 0.104058392
0.7988851 0 0.104231121
0.79895532 0 0.10436347
0.798987699 0 0.104464197
0.799047872 0 0.104792638
0.80686553 0 0.219060022
0.00628035761 0.00411386635 0.00583784761
0.00627599146 0.0041083397 0.00583348146
0.00627037845 0.00410123393 0.00582786845
0.00632202693 0.00414004875 0.00587278483
0.00655214052 0.00432470658 0.00607638046
0.00841611173 0.0058089691 0.00763088086
0.0133583316 0.009348111 0.0110671853
0.0261574468 0.0166511382 0.0170452662
0.0511600029 0.0281095774 0.0248008385
0.0720230209 0.0353737998 0.0282511899
0.098059253 0.0421667914 0.0288760758
0.122820297 0.0477115715 0.027983589
0.149417511 0.0528880839 0.0261072609
0.176781343 0.0565857134 0.023573594
0.206323946 0.0588028031 0.020043059
0.239780696 0.0581372594 0.0143700806
0.273718078 0.0543781478 0.00704607106
0.30196765 0.0492599753 0.002379608
0.330003585 0.0389149275 0.00143515416
0.358165501 0.0285176649 0.000472675275
0.385759691 0.0190819162 0
0.413453394 0.0115458957 0
0.440505123 0.00427918111 0
0.466046752 0.00105298386 0
0.490626141 0.000480490043 0
0.515070153 0.000156767165 0
0.537907133 0 0
0.55859714 0 0
0.578071195 0 0
0.596186445 0 0
0.614221385 0 0
0.631898209 0 0
0.649517434 0 0
0.667685795 0 0
0.683673421 0 0
0.700388043 0 0
0.717617778 0 0
0.73208085 0 0
0.742664703 0 0
0.753589352 0 0
0.763794239 0 0.000229619004
0.769443759 0 0.00106811226
0.774902742 0 0.00197015863
0.779651855 0 0.00493119462
0.782219415 0 0.0139385698
0.784713146 0 0.0224759578
0.787168781 0 0.0308613973
0.788708588 0 0.0429642104
0.790240682 0 0.0560429265
0.791743471 0 0.0688745208
0.792912732 0 0.0772886536
0.79395916 0 0.083674901
0.795067541 0 0.090500258
0.795937036 0 0.0949554285
0.796677548 0 0.0979583679
0.797478736 0 0.101279289
0.797863329 0 0.102122025
0.798299057 0 0.10311257
0.798549876 0 0.103618406
0.798792744 0 0.104031507
0.798883333 0 0.104220135
0.798955327 0 0.104359179
0.798987701 0 0.104462459
0.799050979 0 0.104813799
0.806851936 0 0.218828728
0.00990216783 0.00783136512 0.00962205035
0.00989437944 0.0078220955 0.00961273192
0.00989562208 0.00782424777 0.0096148288
0.00987717014 0.00779412771 0.0095894767
0.00993602006 0.00782679065 0.00963202496
0.0105559923 0.00813949868 0.00996811011
0.014123234 0.0106647287 0.0123677159
0.0252661962 0.0170222995 0.0175662674
0.0484454085 0.027544608 0.0247123039
0.0691482205 0.0349352445 0.0285026525
0.0947239559 0.0415587317 0.0291648808
0.11920386 0.047123386 0.0283792566
0.14482521 0.0524691847 0.0264707928
0.171569394 0.0563058424 0.0240208772
0.200133755 0.0589253745 0.0208608308
0.232497258 0.0589070052 0.0149366816
0.264589198 0.0565859245 0.00725245283
0.291889724 0.0519698166 0.00260090768
0.319012961 0.0424574833 0.00155535004
0.346329128 0.0328937219 0.000502205357
0.37333249 0.0236483535 0
0.40068422 0.0150733744 0
0.427400523 0.0067155767 0
0.452478561 0.00245991294 0
0.476959 0.00128771288 0
0.501420815 0.000406908954 0
0.524322162 0 0
0.545121413 0 0
0.564921807 0 0
0.58374493 0 0
0.602860762 0 0
0.621637228 0 0
0.640356509 0 0
0.659108933 0 0
0.675602989 0 0
0.692943281 0 0
0.710975984 0 0
0.72635635 0 0
0.738125687 0 0
0.750318598 0 0
0.761063693 0 0.00012312623
0.767182207 0 0.000689714669
0.773255033 0 0.00125152331
0.778583458 0 0.00350557033
0.781259463 0 0.012211151
0.783889044 0 0.0186066341
0.78647983 0 0.0248136685
0.788133942 0 0.0381016503
0.789725965 0 0.0517459569
0.791314843 0 0.065618039
0.792580952 0 0.0751695311
0.793668619 0 0.0819151333
0.794809701 0 0.0889891565
0.795769815 0 0.0942500983
0.796554813 0 0.0975572656
0.79737359 0 0.10095928
0.797811288 0 0.102040332
0.798253367 0 0.103043045
0.798529177 0 0.103583613
0.798776045 0 0.104002165
0.798881443 0 0.104208378
0.798955335 0 0.104354549
0.798987703 0 0.104460576
0.799054391 0 0.104837049
0.806836735 0 0.218569793
0.0162371021 0.0210716613 0.0196696689
0.0162567194 0.0210707314 0.0196766792
0.0162663133 0.0211359574 0.0197143431
0.0163404382 0.0208118186 0.0195576593
0.0163956823 0.0205196027 0.0194046587
0.0164883774 0.0184257176 0.0181840866
0.0181983823 0.0189454767 0.0187676026
0.0257354593 0.0226473081 0.0217765075
0.0454694771 0.0299727589 0.0266158044
0.0644837565 0.0356028345 0.0294609553
0.0906967378 0.0416631121 0.0299409838
0.115582118 0.0471506847 0.029293039
0.141344689 0.0525621891 0.0277317008
0.168180063 0.056320148 0.0254340857
0.196694116 0.0589838627 0.022715313
0.228923559 0.0592909287 0.0168684197
0.260871842 0.0578047456 0.0094352587
0.287993718 0.0538754317 0.00484413802
0.314607442 0.0461967546 0.00301847077
0.34147366 0.038624181 0.00114485147
0.368095212 0.030229515 0.000255799151
0.394496776 0.0211866605 0.000144341747
0.420335265 0.0123767094 3.52687137e-05
0.44461869 0.00642986004 0
0.468659477 0.00392216489 0
0.492572758 0.00143016167 0
0.514487784 0.000230218249 0
0.533966121 4.99579648e-06 0
0.553691106 0 0
0.572441913 0 0
0.591289628 0 0
0.609636659 0 0
0.627855208 0 0
0.646409598 0 0
0.664407481 0 0
0.683472366 0 0
0.703371945 0 0
0.720670715 0 0
0.734576529 0 0
0.748282846 0 0
0.759349817 0 0.000126071005
0.76570512 0 0.000531381688
0.772176426 0 0.000815744892
0.777826047 0 0.0023101599
0.780608088 0 0.00827859973
0.783283905 0 0.014031213
0.785916846 0 0.0197381895
0.787640227 0 0.0339932575
0.789306834 0 0.0486218425
0.790936959 0 0.062940849
0.792227482 0 0.0726593334
0.793351201 0 0.0797281639
0.794568719 0 0.0876711841
0.795554645 0 0.0931244856
0.796359592 0 0.0965405392
0.797256234 0 0.100533743
0.797726205 0 0.101777927
0.798188864 0 0.102867216
0.798507372 0 0.103546821
0.798759572 0 0.103973173
0.798879563 0 0.104196683
0.798955343 0 0.104349906
0.798987705 0 0.104458679
0.799057877 0 0.104860806
0.806820912 0 0.218299918
0.0156342875 0.0469502961 0.0336640014
0.01561272 0.0469228206 0.0336405193
0.0155849915 0.0468874965 0.0336103292
0.0158319559 0.0465620023 0.0335431581
0.0161748515 0.0455085303 0.0331018611
0.0176402906 0.0414377645 0.0314476845
0.0189771515 0.0398975416 0.0308752536
0.0231953304 0.0405139695 0.0314858145
0.038247783 0.0423168023 0.0327879146
0.054435651 0.0446190135 0.0338626812
0.0825987763 0.0484645854 0.0331790593
0.108880362 0.0529112278 0.0323486144
0.136153575 0.056620127 0.030662631
0.163815759 0.0595584552 0.0283471038
0.192914617 0.0610578405 0.0255413974
0.225727339 0.0613291451 0.0200478764
0.258221121 0.0601459478 0.0133249668
0.28560967 0.0571423129 0.00859179837
0.312261195 0.0517751632 0.00552681331
0.339144788 0.0463637736 0.00244811484
0.365918678 0.038918027 0.00100658821
0.392687085 0.0302365024 0.000562389626
0.418888935 0.0218018914 0.00012753846
0.443516972 0.0143998735 0
0.46697602 0.00943253679 0
0.490349614 0.00450440541 0
0.511629951 0.00161584158 0
0.530890112 0.000579625055 0
0.549617065 0.00029133935 0
0.567432101 2.24591213e-05 0
0.583955301 1.35567642e-05 0
0.600103316 4.9618176e-06 0
0.61710243 0 0
0.6355575 0 0
0.654326712 0 0
0.673893176 0 0
0.694082576 0 0
0.712280589 0 0
0.727068832 0 0
0.742502279 0 0
0.755910242 0 4.84064298e-05
0.763620439 0 0.000212665697
0.771239071 0 0.00037619711
0.777250503 0 0.00185271671
0.780107268 0 0.00724791674
0.782874911 0 0.0122323962
0.785600424 0 0.0171125136
0.787326185 0 0.0314731604
0.788993449 0 0.0462241421
0.790622163 0 0.0606364921
0.791948244 0 0.0708946804
0.793125326 0 0.0785478621
0.794358658 0 0.0865730854
0.795358816 0 0.0920962874
0.796216957 0 0.0959207653
0.797149954 0 0.100173865
0.797629479 0 0.101448449
0.798145997 0 0.102766376
0.798477877 0 0.103495899
0.798745851 0 0.103948771
0.798876926 0 0.104184903
0.798955351 0 0.104345295
0.798987706 0 0.104456788
0.799058718 0 0.104866585
0.806804602 0 0.218021394
0.0105130089 0.0663756364 0.0413608838
0.010546138 0.0663537672 0.0413480347
0.0105825698 0.0663179911 0.0413324022
0.0106962913 0.0659978919 0.0412334531
0.0111384581 0.0644516311 0.0408579055
0.0131539349 0.0595148175 0.0391110091
0.0145102669 0.0572780467 0.0384240126
0.0177229853 0.0566456314 0.0383509051
0.0312863361 0.0563278075 0.0381750495
0.0458999553 0.0562577819 0.0379250859
0.0755452256 0.0590679164 0.0368663364
0.104056454 0.0616271384 0.0355330713
0.131692643 0.0649950315 0.0338318874
0.160969574 0.0661600411 0.0307092848
0.190074419 0.0676697928 0.0278155301
0.223757762 0.0669826064 0.0216042404
0.256344527 0.0658390088 0.0146890618
0.284141995 0.0633945381 0.00968872478
0.311229626 0.059138536 0.00569267398
0.338085172 0.0540910467 0.0024585765
0.365339583 0.0470376781 0.00101709118
0.392840483 0.0388918348 0.000555049064
0.419094147 0.030447887 0.000118629285
0.443783094 0.0221524382 0
0.467706924 0.0140283493 0
0.491364679 0.00705762272 0
0.512559144 0.00416533599 0
0.531549566 0.00264972619 0
0.549659084 0.00122185841 0
0.566969207 4.43544377e-05 0
0.583586316 3.36741136e-05 0
0.59994633 2.21852574e-05 0
0.616297804 1.07078014e-05 0
0.632795649 0 0
0.648710106 0 0
0.66832868 0 0
0.688658143 0 0
0.707118568 0 0
0.723256956 0 0
0.739676405 0 0
0.753130948 0 4.91514223e-05
0.760929969 0 0.000213341706
0.769158703 0 0.000327521985
0.776323679 0 0.00139312108
0.779779813 0 0.00585446631
0.782696878 0 0.0107065044
0.785430381 0 0.0156574539
0.787161455 0 0.0301143192
0.788844013 0 0.0450031465
0.790500143 0 0.0596756322
0.791832505 0 0.0699793315
0.793004872 0 0.0777702219
0.794233997 0 0.0859190631
0.795258357 0 0.0916199546
0.796148127 0 0.0956899187
0.797086842 0 0.0999621638
0.797569632 0 0.101244981
0.798125091 0 0.102729949
0.798459237 0 0.103463717
0.798740071 0 0.103938056
0.798872035 0 0.104176322
0.798955357 0 0.104342327
0.798987708 0 0.104455456
0.799058079 0 0.104862274
0.806793777 0 0.217836356
0.00267803607 0.0880913617 0.0469207825
0.00265215655 0.0880827773 0.0469271827
0.00268036031 0.0879992861 0.0469074375
0.00265353377 0.0877020477 0.0468764301
0.00299593041 0.0857819871 0.0465118938
0.00414989815 0.0801146702 0.0453849531
0.00500288937 0.0773655522 0.0447798847
0.00717442143 0.0759116046 0.044467442
0.0206043615 0.0745300372 0.0438134877
0.0359155206 0.0737790246 0.0431081058
0.0669084953 0.0752012549 0.0417274483
0.0968746905 0.0764900903 0.0400445524
0.12660835 0.0775773301 0.0380343242
0.156820477 0.0779746195 0.03467888
0.186770108 0.0781241028 0.0308759603
0.221038331 0.0769924195 0.0243086276
0.254009501 0.0754799699 0.016964404
0.282361485 0.0732593811 0.0112102052
0.309365936 0.0695252435 0.00721533386
0.336632258 0.0658368802 0.00318799174
0.364463878 0.0605116098 0.00102797961
0.391932461 0.0531112698 0.000565227177
0.418831415 0.0459792219 0.000111966948
0.44462373 0.0347574166 0
0.46876315 0.0262676648 0
0.49265613 0.0184616732 0
0.514766894 0.0109255826 0
0.534796435 0.00465434801 0
0.553073188 0.00310597959 0
0.570448693 0.00168226953 0
0.586404469 0.00101120225 0
0.602106639 0.000338008557 0
0.618131012 1.0528584e-05 0
0.634585966 0 0
0.650370689 0 0
0.666953957 0 0
0.684227007 0 0
0.701716445 0 0
0.718530366 0 0
0.735744237 0 0
0.75055865 0 1.36734083e-05
0.759264782 0 6.43026318e-05
0.767561529 0 0.000183203901
0.774794717 0 0.00127295436
0.778314859 0 0.00574433005
0.781677209 0 0.0100426334
0.785102857 0 0.0141079777
0.786988001 0 0.0287260556
0.78868954 0 0.0437901584
0.790352545 0 0.058516498
0.791690582 0 0.0688569054
0.792872497 0 0.0767155792
0.794123011 0 0.0851013841
0.795174551 0 0.0912480578
0.796062229 0 0.0953981616
0.797007708 0 0.0996967812
0.797522656 0 0.101124695
0.798098383 0 0.102684063
0.798435514 0 0.10342276
0.798732681 0 0.10392432
0.798865744 0 0.104165287
0.798953022 0 0.104340737
0.798987709 0 0.104453606
0.799057232 0 0.104856569
0.80677939 0 0.217590184
0.000588100033 0.110672161 0.0498889567
0.000592795016 0.110662156 0.0498808893
0.000592422194 0.110578545 0.049876922
0.000601945993 0.110302462 0.0498577145
0.000648276719 0.107329351 0.0496404811
0.0014445259 0.101077908 0.0487474057
0.00176814362 0.0979102477 0.0483418305
0.00239606206 0.0959795026 0.0480413592
0.00907235282 0.0952493634 0.0477564246
0.0256003075 0.0946280251 0.0469772695
0.0560521773 0.0958450242 0.0457345104
0.0882889603 0.0966519576 0.0438506741
0.119514587 0.0974440404 0.0417530857
0.151410062 0.0972715877 0.038417279
0.18218857 0.097070714 0.0347155745
0.217429822 0.0955875603 0.0286464159
0.251133143 0.0938225336 0.0219551173
0.279695611 0.0917199226 0.0157565569
0.307405813 0.0891598055 0.00988700321
0.334967909 0.0859675667 0.00495587214
0.362905487 0.0807065775 0.00271581796
0.391112964 0.0749326495 0.0011817497
0.418423047 0.0686760133 9.83714713e-05
0.44414484 0.0570965455 0
0.469256075 0.0445549435 0
0.494281452 0.0321649642 0
0.516361133 0.0243076607 0
0.53651068 0.0170750661 0
0.555740698 0.0102727645 0
0.574188342 0.0040201694 0
0.590424019 0.00265229142 0
0.606315015 0.00195910029 0
0.622223941 0.00127496613 0
0.638248352 0.000591480205 0
0.653606793 0 0
0.670472164 0 0
0.688062054 0 0
0.703711963 0 0
0.717220077 0 0
0.733471648 0 0
0.748309203 0 1.39706006e-05
0.757132561 0 5.86973385e-05
0.765867568 0 0.000102964103
0.773318699 0 0.00106522109
0.777163852 0 0.00522104749
0.780848785 0 0.00920322314
0.784459837 0 0.0131056933
0.786474248 0 0.0277229634
0.788415966 0 0.0426590976
0.790205948 0 0.0573542289
0.791548528 0 0.0677232297
0.792764835 0 0.0759365964
0.794045069 0 0.0846182177
0.795100433 0 0.0907828574
0.795989864 0 0.0949849606
0.796931497 0 0.0994192637
0.79748912 0 0.101074975
0.798066999 0 0.102638943
0.798410371 0 0.10337935
0.798724807 0 0.10390964
0.798858999 0 0.104153454
0.798950225 0 0.104339497
0.798987575 0 0.104451724
0.799056292 0 0.104850241
0.806763355 0 0.217315536
0 0.133236606 0.0517014676
0 0.133230083 0.051693434
0 0.133141527 0.0516848217
0 0.132900278 0.0516412961
0 0.129095883 0.0515593479
0 0.121894258 0.051189846
0 0.118381439 0.0508518665
0 0.116170264 0.0506331826
0.00510766335 0.115295072 0.0503883249
0.0149727826 0.115508064 0.0499767735
0.044820473 0.116629433 0.0487658687
0.0777964864 0.117416024 0.046804107
0.110609918 0.117866062 0.0445718892
0.144479871 0.117692213 0.040856595
0.176025305 0.117305483 0.0371938368
0.212739348 0.116119036 0.0310189354
0.246668066 0.1144384 0.0246037026
0.276657043 0.112894373 0.018362441
0.304281638 0.110581672 0.0123374663
0.332121192 0.108284576 0.00626561032
0.360973435 0.10477303 0.0034964392
0.389151981 0.0994450745 0.0018731589
0.416667189 0.0941846416 0.00029223235
0.443645845 0.0859679347 0
0.469190555 0.0750528316 0
0.494184757 0.063200744 0
0.518127328 0.0487900523 0
0.540392932 0.0343392728 0
0.559728203 0.0276994232 0
0.578104126 0.0212724262 0
0.595356747 0.0135384467 0
0.612331959 0.00600428067 0
0.62856829 0.00285446275 0
0.644470142 0.00215204123 0
0.659607506 0.00143970982 0
0.675580588 0.000694163881 0
0.692328482 0 0
0.707825735 0 0
0.721228021 0 0
0.735357604 0 3.05912383e-06
0.747491002 0 0.000227169654
0.756764153 0 0.000492954032
0.766148874 0 0.0007307914
0.773923538 0 0.00165480424
0.776958309 0 0.00478755399
0.780163459 0 0.00815588908
0.783799738 0 0.0120950896
0.785832469 0 0.0267873614
0.787800043 0 0.0417502992
0.789852802 0 0.0557067768
0.791417739 0 0.0666131864
0.792679301 0 0.0754158536
0.793964582 0 0.0841272276
