Luts/DJI/DJI_DLogM_to_VLog_65.cube
TITLE "DJI D-Log M / D-Gamut to Panasonic V-Log / V-Gamut"
LUT_3D_SIZE 65
0.00757651318 0.00757651318 0.00757651318
0.0127330932 0.00770409313 0.00762057311
0.019362705 0.00786811764 0.00767721923
0.0341132078 0.00823306269 0.00780325356
0.0547129615 0.0087427252 0.00797926629
0.0779315684 0.00931718126 0.00817765557
0.103726428 0.00995537688 0.00839805741
0.130394689 0.0106151815 0.00862592195
0.157693036 0.0112905752 0.0088591702
0.175706183 0.011736242 0.00901308189
0.198057137 0.0123254921 0.00921658033
0.218374554 0.0129781068 0.00944196183
0.237219851 0.0137075209 0.00969386608
0.254269622 0.0144904029 0.00996423559
0.270365993 0.0153559194 0.0102631431
0.286837326 0.016390395 0.0106204008
0.301984259 0.0174962695 0.0110023162
0.314318813 0.0185225632 0.0113567483
0.325643242 0.019577207 0.0117209712
0.337041122 0.0207601332 0.0121294966
0.348212103 0.0220511749 0.0125753598
0.359264449 0.0234712371 0.0130657805
0.370062661 0.0250109236 0.0135975136
0.380470289 0.0266527243 0.0141645119
0.390632651 0.0284209616 0.0147751754
0.400742519 0.0303585374 0.0154443202
0.410505757 0.0324155574 0.0161547152
0.419667828 0.0345280741 0.0168842761
0.428394448 0.0367192349 0.0176409968
0.436700126 0.0389810284 0.0184221107
0.444753844 0.0413520524 0.0192409475
0.45266975 0.0438668209 0.0201094266
0.460572506 0.0465740472 0.0210443714
0.468585337 0.0495353616 0.0220670658
0.476826563 0.0528265045 0.0232036671
0.485503837 0.0565829432 0.024500959
0.494530182 0.0608346806 0.025969303
0.503883088 0.0656437497 0.0276301224
0.51356217 0.0710932949 0.0295121312
0.523626254 0.0773189713 0.0316621781
0.533867989 0.0842985693 0.0340725929
0.544097676 0.0919845661 0.0367269637
0.554278727 0.100415674 0.0396386599
0.564336522 0.109588237 0.0428064185
0.574201215 0.11948083 0.0462228407
0.583711221 0.129940235 0.0498350123
0.593089198 0.141226091 0.0537326
0.602522931 0.153644218 0.0580212191
0.611929291 0.167189791 0.0626992035
0.621153611 0.181704053 0.0677126518
0.630599323 0.19671704 0.0733243689
0.64069599 0.211965572 0.0799087971
0.651317519 0.22727244 0.0875548501
0.662435573 0.242628163 0.0964326154
0.67418573 0.258242473 0.106896327
0.686632434 0.274210555 0.119336268
0.700037479 0.290862273 0.134492566
0.714576207 0.308393155 0.153275119
0.730819038 0.327444472 0.1775805
0.749262204 0.348522119 0.206721448
0.771159376 0.372938661 0.238187124
0.797082227 0.401183614 0.272399347
0.83269939 0.439133144 0.31589796
0.900405469 0.509517837 0.392174761
0.984095697 0.594798956 0.480738339
0.00796065753 0.0132959413 0.00718213848
0.0131172375 0.0134235213 0.00722619841
0.0197468494 0.0135875458 0.00728284453
0.0344973522 0.0139524908 0.00740887887
0.0550971059 0.0144621533 0.00758489159
0.0783157128 0.0150366094 0.00778328087
0.104110572 0.015674805 0.00800368271
0.130778834 0.0163346097 0.00823154726
0.158077181 0.0170100034 0.00846479551
0.176090327 0.0174556701 0.0086187072
0.198383118 0.0180449202 0.00882220563
0.218643204 0.018697535 0.00904758713
0.237444367 0.019426949 0.00929949139
0.254460485 0.020209831 0.00956986089
0.270529724 0.0210753475 0.00986876836
0.286977279 0.0221098232 0.0102260261
0.302105403 0.0232156976 0.0106079415
0.314426523 0.0242419913 0.0109623736
0.325739934 0.0252966351 0.0113265965
0.337127861 0.0264795614 0.0117351219
0.348290083 0.027770603 0.0121809851
0.359334632 0.0291906652 0.0126714058
0.370125981 0.0307303518 0.0132031389
0.380527629 0.0323721524 0.0137701373
0.390684697 0.0341403898 0.0143808007
0.400789784 0.0360779655 0.0150499455
0.410548822 0.0381349855 0.0157603405
0.419707291 0.0402475022 0.0164899014
0.428430762 0.042438663 0.0172466221
0.436733675 0.0447004565 0.018027736
0.444784914 0.0470714805 0.0188465728
0.452698562 0.049586249 0.0197150519
0.460599227 0.0522934753 0.0206499967
0.468610093 0.0552547897 0.0216726911
0.476849448 0.0585459326 0.0228092924
0.485524905 0.0623023714 0.0241065843
0.494549513 0.0665541087 0.0255749283
0.50390077 0.0713631778 0.0272357477
0.513578294 0.076812723 0.0291177565
0.523640903 0.0830383995 0.0312678034
0.533881276 0.0900179974 0.0336782182
0.544109727 0.0977039942 0.036332589
0.554289664 0.106135103 0.0392442852
0.564346459 0.115307665 0.0424120439
0.57421026 0.125200258 0.045828466
0.583719482 0.135659663 0.0494406376
0.593096752 0.14694552 0.0533382253
0.602529836 0.159363646 0.0576268444
0.611935604 0.172909219 0.0623048288
0.621159392 0.187236695 0.0673182771
0.630604607 0.201528489 0.0729299943
0.640700789 0.216138775 0.0795144224
0.651321856 0.230888627 0.0871604754
0.662439473 0.245759139 0.0960382407
0.674189217 0.260945916 0.106501953
0.686635531 0.276536425 0.118941893
0.700040204 0.292849927 0.134098191
0.71457858 0.310077316 0.152880744
0.73082107 0.32885077 0.177186125
0.749263909 0.349673801 0.206412385
0.771160759 0.373852203 0.23795825
0.797083308 0.401882208 0.272234224
0.83270016 0.439620146 0.315788921
0.900405872 0.509767063 0.392122082
0.984095879 0.59490956 0.480715699
0.00845453679 0.0206491848 0.00667510647
0.0136111168 0.0207767647 0.00671916641
0.0202407286 0.0209407892 0.00677581252
0.0349912314 0.0213057343 0.00690184686
0.0555909852 0.0218153968 0.00707785958
0.078809592 0.0223898529 0.00727624887
0.104604451 0.0230280485 0.0074966507
0.131272713 0.0236878531 0.00772451525
0.15857106 0.0243632468 0.0079577635
0.176584206 0.0248089136 0.00811167519
0.198800737 0.0253981637 0.00831517362
0.218987588 0.0260507784 0.00854055512
0.237732315 0.0267801925 0.00879245938
0.254705361 0.0275630745 0.00906282888
0.270739852 0.028428591 0.00936173635
0.287156936 0.0294630666 0.0097189941
0.302260948 0.0305689411 0.0101009095
0.31456484 0.0315952348 0.0104553416
0.325864117 0.0326498786 0.0108195645
0.337239274 0.0338328048 0.0112280899
0.348390254 0.0351238465 0.0116739531
0.359424796 0.0365439087 0.0121643738
0.370207333 0.0380835952 0.0126961069
0.380601303 0.0397253959 0.0132631052
0.390751574 0.0414936332 0.0138737687
0.40085052 0.043431209 0.0145429135
0.410604163 0.045488229 0.0152533085
0.419758006 0.0476007457 0.0159828694
0.428477431 0.0497919065 0.0167395901
0.436776793 0.0520537 0.017520704
0.444824847 0.054424724 0.0183395408
0.452735592 0.0569394925 0.0192080199
0.460633571 0.0596467188 0.0201429647
0.468641913 0.0626080332 0.0211656591
0.476878864 0.0658991761 0.0223022604
0.485551986 0.0696556148 0.0235995523
0.494574362 0.0739073522 0.0250678963
0.5039235 0.0787164213 0.0267287157
0.513599021 0.0841659665 0.0286107245
0.523659733 0.0903916429 0.0307607714
0.533898355 0.0973712409 0.0331711862
0.54412522 0.105057238 0.035825557
0.554303723 0.113488346 0.0387372532
0.564359233 0.122660909 0.0419050118
0.574221888 0.132553502 0.045321434
0.583730102 0.143012907 0.0489336056
0.593106464 0.154298763 0.0528311933
0.602538712 0.16671689 0.0571198124
0.611943719 0.180262463 0.0617977968
0.621166824 0.193946202 0.0668112451
0.630611399 0.207406803 0.0724229622
0.640706957 0.221271122 0.0790073904
0.65132743 0.235361831 0.0866534434
0.662444487 0.249651887 0.0955312087
0.6741937 0.264322285 0.105994921
0.686639512 0.279452869 0.118434861
0.700043708 0.295351251 0.133591159
0.71458163 0.312203586 0.152373712
0.730823683 0.330631522 0.176679093
0.7492661 0.351136132 0.206013692
0.771162537 0.375015137 0.23766326
0.797084697 0.402773579 0.272021549
0.832701149 0.440242962 0.315648567
0.900406391 0.510086615 0.392054316
0.984096113 0.595051587 0.480686585
0.00955338957 0.0370097261 0.00554698958
0.0147099696 0.0371373061 0.00559104951
0.0213395814 0.0373013306 0.00564769563
0.0360900842 0.0376662756 0.00577372997
0.0566898379 0.0381759381 0.00594974269
0.0799084448 0.0387503942 0.00614813197
0.105703304 0.0393885898 0.00636853381
0.132371566 0.0400483945 0.00659639836
0.159669913 0.0407237882 0.00682964661
0.177683059 0.0411694549 0.0069835583
0.199723991 0.041758705 0.00718705673
0.219749791 0.0424113198 0.00741243823
0.23837016 0.0431407338 0.00766434249
0.255248154 0.0439236158 0.00793471199
0.271205869 0.0447891323 0.00823361946
0.287555562 0.045823608 0.0085908772
0.302606201 0.0469294824 0.00897279264
0.314871934 0.0479557761 0.00932722474
0.32613989 0.0490104199 0.00969144759
0.337486737 0.0501933462 0.010099973
0.348612785 0.0514843878 0.0105458362
0.359625127 0.0529044501 0.0110362569
0.37038811 0.0544441366 0.01156799
0.380765038 0.0560859372 0.0121349884
0.390900217 0.0578541746 0.0127456518
0.400985527 0.0597917503 0.0134147966
0.410727189 0.0618487703 0.0141251916
0.419870756 0.063961287 0.0148547525
0.428581191 0.0661524478 0.0156114732
0.436872663 0.0684142413 0.0163925871
0.444913639 0.0707852654 0.0172114239
0.452817937 0.0733000338 0.018079903
0.460709945 0.0760072601 0.0190148478
0.468712674 0.0789685745 0.0200375422
0.476944283 0.0822597174 0.0211741435
0.485612215 0.0860161562 0.0224714354
0.494629627 0.0902678935 0.0239397794
0.503974054 0.0950769626 0.0256005988
0.513645121 0.100526508 0.0274826076
0.523701618 0.106752184 0.0296326545
0.533936344 0.113731782 0.0320430693
0.544159681 0.121417779 0.0346974401
0.554334998 0.129848887 0.0376091363
0.564387649 0.13902145 0.040776895
0.574247754 0.148914043 0.0441933171
0.583753727 0.159373448 0.0478054887
0.593128068 0.170659304 0.0517030764
0.602558459 0.183056818 0.0559916955
0.611961772 0.1955632 0.0606696799
0.621183358 0.207493257 0.0656831282
0.630626509 0.219411954 0.0712948454
0.640720681 0.231862238 0.0778792735
0.651339832 0.244678869 0.0855253265
0.662455642 0.257827225 0.0944030918
0.674203673 0.271465998 0.104866804
0.686648369 0.285664772 0.117306744
0.700051502 0.300711393 0.132463042
0.714588415 0.316785245 0.151245595
0.730829495 0.334488363 0.175550976
0.749270975 0.354318393 0.205121147
0.771166494 0.377557251 0.237003933
0.797087787 0.404730064 0.271546808
0.832703349 0.441615565 0.315335611
0.900407545 0.510794126 0.391903382
0.984096632 0.595366902 0.480621778
0.0110879879 0.0598579726 0.0039715226
0.0162445679 0.0599855525 0.00401558253
0.0228741797 0.060149577 0.00407222865
0.0376246825 0.0605145221 0.00419826298
0.0582244363 0.0610241846 0.00437427571
0.0814430431 0.0615986406 0.00457266499
0.107237902 0.0622368363 0.00479306683
0.133906164 0.0628966409 0.00502093137
0.161204511 0.0635720346 0.00525417962
0.179217657 0.0640177013 0.00540809132
0.200999909 0.0646069515 0.00561158975
0.220805059 0.0652595662 0.00583697125
0.239254498 0.0659889802 0.0060888755
0.25600152 0.0667718622 0.00635924501
0.271853238 0.0676373788 0.00665815247
0.288109738 0.0686718544 0.00701541022
0.303086469 0.0697777289 0.00739732566
0.315299307 0.0708040226 0.00775175775
0.32652381 0.0718586663 0.00811598061
0.337831357 0.0730415926 0.00852450601
0.348922772 0.0743326343 0.00897036922
0.359904259 0.0757526965 0.00946078989
0.370640053 0.077292383 0.00999252299
0.380993274 0.0789341837 0.0105595214
0.391107452 0.080702421 0.0111701848
0.401173781 0.0826399967 0.0118393296
0.41089876 0.0846970168 0.0125497246
0.420028015 0.0868095334 0.0132792855
0.428725926 0.0890006943 0.0140360062
0.437006404 0.0912624877 0.0148171201
0.445037516 0.0936335118 0.0156359569
0.452932827 0.0961482802 0.016504436
0.460816512 0.0988555066 0.0174393808
0.468811416 0.101816821 0.0184620753
0.477035575 0.105107964 0.0195986765
0.485696269 0.108864403 0.0208959684
0.49470676 0.11311614 0.0223643124
0.504044614 0.117925209 0.0240251318
0.513709468 0.123374754 0.0259071406
0.523760083 0.129600431 0.0280571875
0.533989376 0.136580029 0.0304676024
0.544207789 0.144266025 0.0331219731
0.554378659 0.152697134 0.0360336693
0.564427321 0.161869697 0.039201428
0.574283867 0.17176229 0.0426178502
0.583786711 0.182214326 0.0462300217
0.593158233 0.192815962 0.0501276094
0.60258603 0.203362593 0.0544162285
0.611986979 0.213773119 0.0590942129
0.621206444 0.223890363 0.0641076613
0.630647607 0.234165742 0.0697193784
0.640739844 0.245064147 0.0763038065
0.65135715 0.256444144 0.0839498595
0.662471219 0.268272999 0.0928276248
0.674217599 0.280692403 0.103291337
0.686660737 0.293766942 0.115731277
0.700062387 0.307766347 0.130887575
0.714597892 0.322866274 0.149670128
0.730837612 0.33964779 0.173975509
0.749277783 0.358606946 0.20386182
0.771172019 0.381007382 0.236076161
0.797092103 0.407402718 0.270880193
0.832706422 0.443502897 0.314896986
0.900409156 0.511774278 0.391692232
0.984097358 0.595805673 0.480531205
0.0128176802 0.0856109237 0.00219576601
0.0179742602 0.0857385036 0.00223982594
0.024603872 0.0859025281 0.00229647206
0.0393543748 0.0862674732 0.00242250639
0.0599541285 0.0867771357 0.00259851912
0.0831727354 0.0873515918 0.0027969084
0.108967595 0.0879897874 0.00301731024
0.135635856 0.088649592 0.00324517478
0.162934203 0.0893249857 0.00347842303
0.18094735 0.0897706525 0.00363233472
0.202419669 0.0903599026 0.00383583316
0.221981892 0.0910125173 0.00406121466
0.240242405 0.0917419314 0.00431311891
0.256844224 0.0925248134 0.00458348842
0.272578149 0.0933903299 0.00488239588
0.288730878 0.0944248055 0.00523965363
0.30362517 0.09553068 0.00562156907
0.315778932 0.0965569737 0.00597600116
0.32695486 0.0976116175 0.00634022402
0.338218436 0.0987945437 0.00674874942
0.349271074 0.100085585 0.00719461263
0.36021799 0.101505648 0.0076850333
0.370923302 0.103045334 0.0082167664
0.381249933 0.104687135 0.00878376478
0.391340543 0.106455372 0.00939442826
0.401385564 0.108392948 0.010063573
0.411091806 0.110449968 0.010773968
0.420204983 0.112562485 0.0115035289
0.428888822 0.114753645 0.0122602497
0.437156944 0.117015439 0.0130413635
0.445176967 0.119386463 0.0138602003
0.453062172 0.121901231 0.0147286794
0.460936497 0.124608458 0.0156636242
0.4689226 0.127569772 0.0166863187
0.477138378 0.130860915 0.0178229199
0.485790928 0.134617354 0.0191202118
0.49479363 0.138869091 0.0205885558
0.504124087 0.14367816 0.0222493752
0.513781948 0.149127705 0.024131384
0.523825943 0.155353382 0.0262814309
0.534049118 0.16233298 0.0286918458
0.544261986 0.170018977 0.0313462165
0.554427848 0.178450085 0.0342579127
0.564472017 0.187421675 0.0374256714
0.574324555 0.196336909 0.0408420936
0.583823876 0.20500521 0.0444542651
0.593192222 0.213618812 0.0483518528
0.602617098 0.222344624 0.0526404719
0.612015384 0.23110156 0.0573184563
0.621232459 0.239739711 0.0623319047
0.630671383 0.248633301 0.0679436218
0.640761439 0.258189459 0.07452805
0.651376666 0.268293228 0.0821741029
0.662488773 0.278920296 0.0910518682
0.674233293 0.290202988 0.10151558
0.686674676 0.302206513 0.113955521
0.700074654 0.31518781 0.129111819
0.714608571 0.329322632 0.147894372
0.73084676 0.345174242 0.172199752
0.749285457 0.363239398 0.202424029
0.771178247 0.384764758 0.235020508
0.797096967 0.4103357 0.270123718
0.832709886 0.445590234 0.314400389
0.900410973 0.512868168 0.391453728
0.984098176 0.596298035 0.480429024
0.0147392928 0.114221329 0.000222977895
0.0198958728 0.114348909 0.000267037825
0.0265254847 0.114512933 0.000323683943
0.0412759874 0.114877879 0.000449718276
0.0618757412 0.115387541 0.000625731004
0.085094348 0.115961997 0.000824120285
0.110889207 0.116600193 0.00104452212
0.137557469 0.117259997 0.00127238667
0.164855816 0.117935391 0.00150563492
0.182852198 0.118381058 0.00165954661
0.20397475 0.118970308 0.00186304504
0.223274004 0.119622923 0.00208842654
0.241329125 0.120352337 0.0023403308
0.257772561 0.121135219 0.0026107003
0.273377662 0.122000735 0.00290960777
0.28941665 0.123035211 0.00326686552
0.304220417 0.124141085 0.00364878095
0.316309216 0.125167379 0.00400321305
0.327431669 0.126222023 0.0043674359
0.338646795 0.127404949 0.0047759613
0.34965667 0.128695991 0.00522182451
0.360565435 0.130116053 0.00571224518
0.371237085 0.131655739 0.00624397828
0.381534335 0.13329754 0.00681097667
0.391598892 0.135065777 0.00742164014
0.401620344 0.137003353 0.00809078489
0.411305857 0.139060373 0.00880117992
0.420401237 0.14117289 0.00953074078
0.429069496 0.143364051 0.0102874615
0.437323933 0.145625844 0.0110685754
0.445331673 0.147996868 0.0118874122
0.453205682 0.150511637 0.0127558913
0.461069634 0.153218863 0.0136908361
0.469045982 0.156180177 0.0147135306
0.47725247 0.15947132 0.0158501318
0.485895991 0.163227759 0.0171474237
0.494890055 0.167479496 0.0186157677
0.504212308 0.172288565 0.0202765871
0.513862412 0.177738111 0.0221585959
0.523899061 0.18392238 0.0243086428
0.534115448 0.190499593 0.0267190576
0.544322164 0.197295098 0.0293734284
0.554482469 0.204275526 0.0322851246
0.564521651 0.211376737 0.0354528833
0.57436974 0.218532163 0.0388693055
0.583865149 0.225601602 0.042481477
0.593229969 0.232730409 0.0463790647
0.602651602 0.240052197 0.0506676838
0.612046931 0.247495865 0.0553456682
0.621261352 0.254927247 0.0603591166
0.63069779 0.262665036 0.0659708337
0.640785424 0.271071222 0.0725552618
0.651398344 0.280055807 0.0802013148
0.662508271 0.289605221 0.0890790801
0.674250726 0.299846724 0.0995427921
0.686690159 0.310849161 0.111982732
0.700088281 0.322860221 0.127139031
0.714620435 0.336058101 0.145921584
0.730856922 0.350990655 0.170226964
0.74929398 0.368156766 0.20080325
0.771185165 0.388787037 0.233835129
0.79710237 0.413500741 0.269276859
0.832713734 0.447861483 0.313845921
0.900412991 0.514070203 0.391188123
0.984099084 0.596842331 0.480315388
0.0167259704 0.14380047 0
0.0218825504 0.14392805 0
0.0285121623 0.144092074 0
0.0432626651 0.144457019 0
0.0638624188 0.144966682 0
0.0870810257 0.145541138 0
0.112875885 0.146179333 0
0.139544147 0.146839138 0
0.166842494 0.147514532 0
0.18478616 0.147960199 0
0.205558606 0.148549449 0
0.224593339 0.149202063 4.88407143e-05
0.242440927 0.149931477 0.000300744969
0.25872377 0.150714359 0.000571114472
0.274197888 0.151579876 0.000870021937
0.29012096 0.152614352 0.00122727969
0.304832288 0.153720226 0.00160919512
0.316854652 0.15474652 0.00196362722
0.327922355 0.155801164 0.00232785007
0.339087826 0.15698409 0.00273637547
0.350053837 0.158275131 0.00318223868
0.360923438 0.159695194 0.00367265935
0.371560508 0.16123488 0.00420439245
0.381827558 0.162876681 0.00477139084
0.39186532 0.164644918 0.00538205431
0.401862523 0.166582494 0.00605119906
0.411526697 0.168639514 0.00676159409
0.420603752 0.170752031 0.00749115495
0.429255961 0.172943191 0.00824787571
0.437496298 0.175204985 0.00902898955
0.445491378 0.177576009 0.00984782634
0.453353845 0.180090777 0.0107163055
0.461207102 0.182782459 0.0116512502
0.46917339 0.185654197 0.0126739447
0.477370295 0.188756167 0.013810546
0.4860045 0.192188084 0.0151078379
0.494989651 0.195941675 0.0165761819
0.504303439 0.20003145 0.0182370012
0.513945535 0.204480987 0.0201190101
0.523974602 0.209343452 0.022269057
0.53418398 0.214539473 0.0246794718
0.544384343 0.219978474 0.0273338426
0.554538909 0.22563727 0.0302455388
0.564572941 0.231465617 0.0334132974
0.574416435 0.237408444 0.0368297196
0.583907803 0.243345822 0.0404418912
0.59326898 0.249396465 0.0443394789
0.602687262 0.255674094 0.048628098
0.612079537 0.262118679 0.0533060824
0.621291216 0.268612288 0.0583195307
0.630725085 0.275433672 0.0639312478
0.640810216 0.282909848 0.070515676
0.65142075 0.29097136 0.0781617289
0.662528426 0.299614733 0.0870394942
0.674268747 0.308964354 0.0975032062
0.686706165 0.319093553 0.109943147
0.700102367 0.330243202 0.125099445
0.714632698 0.342594775 0.143881998
0.730867427 0.356683021 0.168187378
0.749302792 0.373009304 0.199100837
0.771192317 0.392789439 0.232595364
0.797107956 0.416675535 0.268394077
0.832717712 0.450159045 0.31326958
0.900415077 0.515298622 0.390912816
0.984100024 0.597402103 0.480197775
0.0187595868 0.174078471 0
0.0239161669 0.17420605 0
0.0305457787 0.174370075 0
0.0452962815 0.17473502 0
0.0658960352 0.175244683 0
0.0891146421 0.175819139 0
0.114909501 0.176457334 0
0.141577763 0.177117139 0
0.16887611 0.177792533 0
0.18672956 0.178238199 0
0.207155486 0.178827449 0
0.225926875 0.179480064 0
0.243566922 0.180209478 0
0.259688599 0.18099236 0
0.275030903 0.181854078 0
0.290837045 0.182875177 0
0.30545494 0.183955868 0
0.317410051 0.184948927 0
0.328422268 0.185959715 0.000240075386
0.339537365 0.187081981 0.000648600788
0.350458837 0.188293268 0.001094464
0.361288638 0.189609646 0.00158488467
0.371890544 0.191018491 0.00211661777
0.382126862 0.192500213 0.00268361615
0.392137344 0.194072975 0.00329427963
0.402109847 0.1957697 0.00396342437
0.411752274 0.197541481 0.0046738194
0.420810646 0.199330439 0.00540338027
0.429446489 0.201154311 0.00616010102
0.437672443 0.203004291 0.00694121486
0.445654605 0.204909208 0.00776005166
0.453505292 0.206892505 0.00862853079
0.461347631 0.208986486 0.00956347556
0.469303648 0.211230117 0.01058617
0.477490766 0.213668596 0.0117227713
0.486115456 0.216384258 0.0130200632
0.495091503 0.219375478 0.0144884072
0.50439664 0.222659072 0.0161492266
0.514030554 0.226259819 0.0180312354
0.524051871 0.230227579 0.0201812823
0.534254085 0.234504357 0.0225916971
0.544447953 0.239020617 0.0252460679
0.554596652 0.243760817 0.0281577641
0.564625417 0.248685639 0.0313255227
0.574464211 0.25375003 0.0347419449
0.583951447 0.258851294 0.0383541165
0.593308898 0.264090852 0.0422517042
0.602723752 0.269568873 0.0465403233
0.612112902 0.275235049 0.0512183077
0.621321776 0.28098587 0.056231756
0.630753017 0.287069763 0.0618434731
0.640835588 0.293785472 0.0684279013
0.651443681 0.301079928 0.0760739543
0.662549053 0.308958235 0.0849517196
0.674287189 0.317542704 0.0954154316
0.686722545 0.326910899 0.107855372
0.700116784 0.337298102 0.12301167
0.71464525 0.348888969 0.141794223
0.730878179 0.362206561 0.166099604
0.749311811 0.377754374 0.197329102
0.771199637 0.396734108 0.231310946
0.797113674 0.419828773 0.267482676
0.832721784 0.452459899 0.312676323
0.900417212 0.51654134 0.390630254
0.984100985 0.597972023 0.480077246
0.0201014933 0.193306419 0
0.0252580734 0.193419814 0
0.0318876852 0.193565421 0
0.046638188 0.193888664 0
0.0672379417 0.194338428 0
0.0904565486 0.194843069 0
0.116251408 0.195400872 0
0.14291967 0.195974459 0
0.170218017 0.196558367 0
0.187992495 0.196941894 0
0.208196048 0.19744684 0
0.22679763 0.198003263 0
0.244303358 0.198621692 0
0.260320428 0.199281421 0
0.275576976 0.200005989 0
0.2913069 0.200865485 0
0.30586379 0.201776581 0
0.317774935 0.202615089 0
0.328750841 0.203469834 0
0.339832948 0.20442033 0
0.350725227 0.205447962 0
0.361528925 0.206566783 0.000207241165
0.372107754 0.207766518 0.000738974266
0.382323895 0.209030881 0.00130597265
0.392316457 0.21037578 0.00191663612
0.402272727 0.211829941 0.00258578087
0.411900858 0.213351996 0.0032961759
0.420946945 0.21489246 0.00402573676
0.429572022 0.216466723 0.00478245752
0.437788512 0.218067323 0.00556357136
0.445762173 0.219719406 0.00638240815
0.453605107 0.221443669 0.00725088729
0.461440258 0.223268746 0.00818583206
0.469389511 0.225229409 0.00920852653
0.477570185 0.227366293 0.0103451278
0.486188608 0.229753241 0.0116424197
0.495158657 0.232390961 0.0131107637
0.504458095 0.235296619 0.0147715831
0.514086617 0.238494808 0.0166535919
0.524102827 0.242032993 0.0188036388
0.534300319 0.245862715 0.0212140536
0.544489906 0.249924313 0.0238684244
0.554634736 0.254205908 0.0267801206
0.564660029 0.258673724 0.0299478792
0.574495724 0.263288069 0.0333643014
0.583980235 0.267955629 0.036976473
0.59333523 0.272769409 0.0408740607
0.602747824 0.277822724 0.0451626798
0.612134913 0.283070653 0.0498406642
0.621341937 0.288417886 0.0548541125
0.630771444 0.294096671 0.0604658296
0.640852327 0.300389996 0.0670502578
0.65145881 0.307253544 0.0746963108
0.662562662 0.314697122 0.0835740761
0.674299357 0.3228418 0.094037788
0.686733353 0.331767537 0.106477728
0.700126296 0.341706311 0.121634027
0.714653532 0.352844574 0.14041658
0.730885273 0.365698261 0.16472196
0.749317762 0.380771874 0.196143395
0.771204468 0.399258094 0.230454711
0.797117447 0.42185874 0.266876911
0.832724471 0.453950966 0.31228301
0.900418622 0.517353372 0.390443384
0.98410162 0.598346403 0.479997638
0.0218757307 0.214504185 0
0.0270323107 0.214596839 0
0.0336619225 0.21471584 0
0.0484124253 0.214980129 0
0.069012179 0.215348108 0
0.0922307859 0.215761328 0
0.118025645 0.216218495 0
0.144693907 0.216689057 0
0.171992254 0.21716856 0
