Luts/DJI/DJI_DLog_to_VLog.cube
TITLE "DJI D-Log / D-Gamut to Panasonic V-Log / V-Gamut"
LUT_3D_SIZE 33
0.038653112 0.038653112 0.038653112
0.0660404423 0.0393307073 0.0388871206
0.0934277725 0.0400083025 0.0391211292
0.120815103 0.0406858978 0.0393551377
0.148202433 0.041363493 0.0395891463
0.176873774 0.0420728563 0.0398341259
0.209623395 0.0429891821 0.0401505805
0.241546352 0.044202026 0.040569438
0.272814565 0.0458073396 0.0411238355
0.303605772 0.0479321241 0.0418576331
0.334046199 0.0507444773 0.0428288836
0.364226898 0.0544668928 0.0441144255
0.394214308 0.0593938619 0.0458159618
0.424057328 0.0659151716 0.0480681061
0.453792186 0.0745467419 0.0510490322
0.483445845 0.0859714417 0.0549945698
0.513038455 0.101093113 0.060216862
0.542585106 0.121108075 0.0671290598
0.572097131 0.14759977 0.0762780075
0.60158305 0.182650665 0.0883875053
0.631049274 0.220574251 0.104415571
0.660500638 0.255985667 0.125630232
0.689940784 0.289711097 0.153709844
0.71937246 0.322266326 0.190437902
0.748797741 0.353990324 0.22785416
0.778218191 0.385114132 0.262930502
0.807634993 0.415799438 0.296425892
0.83704904 0.446161612 0.328818967
0.866461004 0.476284163 0.360426523
0.895871397 0.506228185 0.391465596
0.925280601 0.53603873 0.422088644
0.954688908 0.565749224 0.45240475
0.984096536 0.595384574 0.482493034
0.0406933573 0.0690298087 0.0365585319
0.0680806876 0.069707404 0.0367925405
0.0954680179 0.0703849992 0.037026549
0.122855348 0.0710625945 0.0372605576
0.150242678 0.0717401897 0.0374945662
0.178914019 0.0724495529 0.0377395458
0.211164989 0.0733658787 0.0380560004
0.242685621 0.0745787226 0.0384748579
0.273661335 0.0761840363 0.0390292554
0.304237773 0.0783088207 0.039763053
0.334519358 0.081121174 0.0407343035
0.364581946 0.0848435895 0.0420198454
0.394481181 0.0897705586 0.0437213817
0.42425818 0.0962918683 0.045973526
0.453943493 0.104923439 0.048954452
0.483559911 0.116348138 0.0528999896
0.513124491 0.131469809 0.0581222819
0.542650027 0.151484771 0.0650344797
0.572146134 0.177976467 0.0741834274
0.601620046 0.20895947 0.0862929252
0.631077211 0.239574196 0.102320991
0.660521736 0.269884141 0.123535652
0.689956719 0.299967838 0.151615263
0.719384497 0.329882846 0.18850588
0.748806833 0.359671661 0.226505559
0.77822506 0.389365846 0.261967
0.807640182 0.418988935 0.295726667
0.83705296 0.448558536 0.328305979
0.866463966 0.478087857 0.360047245
0.895873634 0.507586817 0.391183603
0.925282291 0.537062881 0.421878124
0.954690185 0.56652167 0.452247113
0.984097501 0.595967421 0.482374731
0.0427336026 0.0994065054 0.0344639518
0.0701209329 0.100084101 0.0346979604
0.0975082632 0.100761696 0.0349319689
0.124895593 0.101439291 0.0351659775
0.152282924 0.102116886 0.035399986
0.180954264 0.10282625 0.0356449657
0.212684253 0.103742575 0.0359614202
0.243812648 0.104955419 0.0363802777
0.274501323 0.106560733 0.0369346753
0.304865989 0.108685517 0.0376684728
0.334990392 0.111497871 0.0386397233
0.364935796 0.115220286 0.0399252653
0.394747377 0.120147255 0.0416268016
0.424458648 0.126668565 0.0438789459
0.454094582 0.135300135 0.0468598719
0.483673853 0.146724835 0.0508054095
0.513210457 0.161846506 0.0560277018
0.542714909 0.18185764 0.0629398996
0.572195115 0.205305865 0.0720888473
0.60165703 0.229974919 0.0841983451
0.63110514 0.255654527 0.100226411
0.66054283 0.282154586 0.121441072
0.689972652 0.309310338 0.149520683
0.719396532 0.336983533 0.186537601
0.748815925 0.365061013 0.225139391
0.778231928 0.393451906 0.260994565
0.80764537 0.422084299 0.29502275
0.837056879 0.450901907 0.32779047
0.866466927 0.479861057 0.35966659
0.895875871 0.508928075 0.390900851
0.925283981 0.538077127 0.421667181
0.954691462 0.567288468 0.452089239
0.984098466 0.596547046 0.482256294
0.0447738479 0.129783202 0.0323693717
0.0721611782 0.130460797 0.0326033802
0.0995485085 0.131138393 0.0328373888
0.126935839 0.131815988 0.0330713974
0.154323169 0.132493583 0.0333054059
0.182975476 0.133202946 0.0335503856
0.214181825 0.134119272 0.0338668401
0.244927694 0.135332116 0.0342856976
0.275334637 0.13693743 0.0348400951
0.305490464 0.139062214 0.0355738927
0.33545932 0.141874567 0.0365451432
0.365288457 0.145596983 0.0378306851
0.3950129 0.150523952 0.0395322215
0.424658734 0.157045262 0.0417843658
0.454245454 0.165676832 0.0447652918
0.483787671 0.177101532 0.0487108294
0.513296353 0.191662126 0.0539331217
0.54277975 0.20834289 0.0608453195
0.572244072 0.226994204 0.0699942672
0.601694 0.247474388 0.0821037649
0.631133062 0.269594152 0.0981318308
0.66056392 0.293138729 0.119346492
0.689988582 0.317888324 0.147426103
0.719408566 0.343633849 0.184531679
0.748825015 0.37018693 0.223755195
0.778238795 0.39738474 0.26001303
0.807650559 0.425090928 0.294314076
0.837060799 0.453194065 0.327272416
0.866469888 0.481604778 0.359284549
0.895878108 0.510252398 0.390617334
0.925285672 0.53908166 0.421455812
0.954692739 0.568049701 0.451931126
0.984099431 0.597123487 0.482137724
0.0468140932 0.160159899 0.0302747916
0.0742014235 0.160837494 0.0305088001
0.101588754 0.161515089 0.0307428087
0.128976084 0.162192684 0.0309768172
0.156363414 0.16287028 0.0312108258
0.184958782 0.163579643 0.0314558055
0.215658315 0.164495969 0.03177226
0.246031011 0.165708813 0.0321911175
0.276161384 0.167314126 0.032745515
0.306111244 0.169438911 0.0334793126
0.335926161 0.172251264 0.0344505631
0.365639936 0.17597368 0.035736105
0.395277752 0.180900649 0.0374376414
0.424858438 0.187232734 0.0396897857
0.45439611 0.195066376 0.0426707117
0.483901365 0.204609597 0.0466162493
0.513382178 0.216037561 0.0518385416
0.542844551 0.229470558 0.0587507394
0.572293007 0.244957247 0.0678996871
0.601730958 0.26246745 0.0800091848
0.631160976 0.281896653 0.0960372506
0.660585005 0.303080848 0.117251912
0.69000451 0.32581751 0.145331523
0.719420598 0.349887532 0.182486646
0.748834105 0.375073971 0.222352486
0.778245662 0.401175424 0.259022223
0.807655747 0.428013768 0.293600582
0.837064718 0.455437202 0.326751789
0.866472849 0.483319983 0.358901112
0.895880345 0.511560208 0.390333048
0.925287362 0.540076664 0.421244017
0.954694016 0.568805449 0.451772775
0.984100395 0.597696776 0.482019019
0.0489499921 0.191424779 0.0280820105
0.0763373224 0.19203648 0.028316019
0.103724653 0.192644633 0.0285500276
0.131111983 0.193249281 0.0287840362
0.158499313 0.193850463 0.0290180447
0.18699566 0.19447616 0.0292630244
0.217182078 0.195278924 0.0295794789
0.247173753 0.196332097 0.0299983364
0.277019965 0.197710005 0.0305527339
0.306757215 0.199506399 0.0312865315
0.336412673 0.201837748 0.032257782
0.366006635 0.204845916 0.0335433239
0.395554306 0.2086993 0.0352448603
0.425067099 0.213591195 0.0374970046
0.454553597 0.219733972 0.0404779306
0.484020259 0.227347857 0.0444234682
0.513471952 0.236644069 0.0496457605
0.542912347 0.247803682 0.0565579583
0.572344211 0.260955711 0.065706906
0.601769634 0.276159368 0.0778164037
0.631190191 0.293395338 0.0938444695
0.660607075 0.312568669 0.115059131
0.690021182 0.333522389 0.143138742
0.719433193 0.35605795 0.180304764
0.74884362 0.379957311 0.220863634
0.778252851 0.405002305 0.257974838
0.807661178 0.430988807 0.292848399
0.837068821 0.457735213 0.326203971
0.866475949 0.485086049 0.35849819
0.895882687 0.512912084 0.390034607
0.925289131 0.541108302 0.421021833
0.954695352 0.569590838 0.451606743
0.984101405 0.598293605 0.481894605
0.0517090573 0.223258366 0.0252494673
0.0790963875 0.223710286 0.0254834758
0.106483718 0.224160267 0.0257174844
0.133871048 0.224608325 0.025951493
0.161258378 0.225054478 0.0261855015
0.189569589 0.225519524 0.0264304812
0.219118203 0.226117214 0.0267469357
0.248631708 0.226903113 0.0271657932
0.278118742 0.22793435 0.0277201907
0.307585808 0.229283884 0.0284539883
0.337037808 0.231043829 0.0294252388
0.366478433 0.233328778 0.0307107807
0.395910471 0.23627855 0.0324123171
0.425336025 0.24005949 0.0346644614
0.454756682 0.244863103 0.0376453874
0.484173641 0.2509006 0.041590925
0.513587805 0.258392135 0.0468132173
0.542999859 0.267550345 0.0537254151
0.572410318 0.278559458 0.0628743628
0.601819573 0.291553264 0.0749838605
0.631227918 0.306596863 0.0910119263
0.660635576 0.323677106 0.112226588
0.690042714 0.342704559 0.140306199
0.719449461 0.363526401 0.17747222
0.74885591 0.385946517 0.218908574
0.778262136 0.409747635 0.2566062
0.807668193 0.434711014 0.291868708
0.837074121 0.460631059 0.325492061
0.866479953 0.487324231 0.357975411
0.895885713 0.514632979 0.389647831
0.925291417 0.542426083 0.420734126
0.954697079 0.570596743 0.451391881
0.98410271 0.59905957 0.481733674
0.055360941 0.254461772 0.0215003284
0.0827482712 0.254797589 0.0217343369
0.110135601 0.255132334 0.0219683455
0.137522932 0.255466014 0.0222023541
0.164910262 0.255798636 0.0224363626
0.192882104 0.256145727 0.0226813423
0.221627095 0.25659239 0.0229977968
0.250530803 0.25718068 0.0234166543
0.279555599 0.2579543 0.0239710518
0.30867256 0.258969561 0.0247048494
0.337859544 0.26029842 0.0256760999
0.367099656 0.262031793 0.0269616418
0.396380038 0.264282893 0.0286631782
0.425690918 0.267190027 0.0309153225
0.455024882 0.270918017 0.0338962485
0.484376312 0.275657016 0.0378417861
0.51374095 0.281617336 0.0430640784
0.543115576 0.28901901 0.0499762762
0.572497752 0.298075646 0.0591252239
0.601885636 0.30897372 0.0712347216
0.631277832 0.321850491 0.0872627874
0.660673288 0.336775385 0.108477449
0.690071208 0.35373983 0.13655706
0.719470988 0.372658537 0.173723082
0.748872175 0.393381842 0.216263528
0.778274424 0.415715523 0.254766773
0.807677477 0.439442952 0.290557761
0.837081136 0.464345022 0.324542288
0.866485253 0.490215085 0.357279432
0.895889717 0.516868177 0.389133694
0.925294442 0.544145215 0.420352101
0.954699365 0.57191349 0.451106811
0.984104437 0.600064872 0.481520285
0.0601945545 0.285205483 0.0165379884
0.0875818848 0.285456084 0.016771997
0.114969215 0.285706088 0.0170060055
0.142356545 0.285955498 0.0172400141
0.169743876 0.286204316 0.0174740226
0.197111588 0.286464168 0.0177190023
0.224858167 0.286798885 0.0180354568
0.252992696 0.287240277 0.0184543143
0.281427643 0.28782166 0.0190087119
0.310093878 0.288586254 0.0197425094
0.338937382 0.289589769 0.0207137599
0.367916286 0.290903423 0.0219993019
0.396998339 0.292617247 0.0237008382
0.426158813 0.294843431 0.0259529825
0.455378819 0.297719161 0.0289339085
0.484643966 0.301408118 0.0328794461
0.513943309 0.306099442 0.0381017384
0.543268543 0.31200275 0.0450139362
0.572613368 0.319337949 0.0541628839
0.601973012 0.328319326 0.0662723817
0.631343862 0.339134984 0.0823004475
0.660723184 0.351924723 0.103515109
0.690108909 0.366761171 0.13159472
0.719499475 0.383639167 0.168760742
0.748893699 0.402476536 0.212656733
0.778290687 0.423126013 0.252281429
0.807689764 0.445394833 0.288797013
0.837090419 0.469066893 0.323271801
0.866492267 0.493922843 0.356351078
0.895895016 0.519755272 0.388449286
0.925298446 0.546378164 0.419844306
0.95470239 0.573631291 0.450728299
0.984106722 0.601380838 0.481237176
0.0665922993 0.315610832 0.009969862
0.0939796296 0.315798426 0.0102038706
0.12136696 0.315985685 0.0104378791
0.14875429 0.316172611 0.0106718877
0.17614162 0.316359203 0.0109058962
0.202459653 0.316554189 0.0111508759
0.228987247 0.316805529 0.0114673304
0.256164844 0.317137277 0.0118861879
0.283855179 0.317574769 0.0124405855
0.31194599 0.31815104 0.013174383
0.340347182 0.318908953 0.0141456335
0.368987488 0.319903773 0.0154311755
0.397811153 0.321206168 0.0171327118
0.426774924 0.322905512 0.0193848561
0.455845459 0.325113234 0.0223657821
0.484997184 0.327965684 0.0263113197
0.514210552 0.33162569 0.031533612
0.543470667 0.336281624 0.0384458098
0.572766201 0.342142577 0.0475947575
0.602088551 0.34942834 0.0597042553
0.631431194 0.358353683 0.0757323211
0.660789188 0.369107897 0.0969469824
0.69015879 0.381832659 0.125026594
0.719537169 0.396602976 0.162192615
0.748922182 0.413416242 0.207683719
0.778312209 0.432192624 0.248898588
0.807706025 0.452786671 0.286420096
0.837102706 0.475006737 0.321566173
0.86650155 0.498637136 0.355109542
0.89590203 0.523458356 0.387536486
0.925303745 0.549262424 0.419168389
0.954706393 0.575862545 0.450225193
0.984109747 0.603097635 0.480861276
0.0750603198 0.345765474 0.00127632538
0.10244765 0.345906228 0.00151033394
0.12983498 0.346046793 0.0017443425
0.157222311 0.346187169 0.00197835106
0.184548614 0.346327359 0.00221235962
0.209143342 0.34647392 0.00245733929
0.234213886 0.346662939 0.00277379381
0.260221173 0.346912601 0.00319265132
0.286984216 0.347242141 0.00374704884
0.314348199 0.347676732 0.00448084641
0.342184514 0.3482492 0.00545209691
0.370388708 0.349002142 0.00673763883
0.398877394 0.349990492 0.00843917517
0.427584879 0.351284508 0.0106913195
0.456459925 0.352973073 0.0136722455
0.48546288 0.355167049 0.0176177831
0.514563229 0.358002158 0.0228400754
0.5437376 0.36164059 0.0297522732
0.572968148 0.36627014 0.0389012209
0.602241283 0.372099493 0.0510107186
0.631546675 0.379348347 0.0670387844
0.660876487 0.388231817 0.0882534458
0.690224776 0.39894007 0.116333057
0.719587039 0.411616177 0.153499079
0.748959869 0.426336922 0.200716574
0.778340688 0.443101612 0.244246431
0.807727545 0.461832178 0.283188838
0.837118966 0.482384545 0.319265101
0.866513836 0.504567918 0.353443322
0.895911313 0.528166939 0.386315962
0.925310758 0.552961985 0.418266997
0.954711692 0.578744666 0.449555552
0.984113751 0.605327609 0.480361655
0.0862685459 0.375733446 0
0.113655876 0.375839237 0
0.141043206 0.375944921 0
0.168430537 0.376050499 0
0.194860088 0.376155971 0
0.217381693 0.376266274 0
0.240754092 0.376408587 0
0.265359668 0.376596656 0
0.290987258 0.376845065 0
0.317445433 0.377172956 0
0.344567935 0.377605381 0
0.372215029 0.378175008 0
0.400272201 0.378924238 0
0.428647402 0.379907756 0
0.457267734 0.381195512 0.0021655274
0.48607611 0.382876024 0.006111065
0.515028214 0.385059727 0.0113333573
0.54408987 0.387881875 0.0182455551
0.573234847 0.391504175 0.0273945028
0.602443096 0.396113989 0.0395040005
0.63169933 0.401919693 0.0555320663
0.660991925 0.409140908 0.0767467277
0.69031205 0.417993002 0.104826339
0.71965301 0.42866679 0.14199236
0.749009731 0.441306384 0.190720152
0.77837837 0.455989898 0.237753373
0.807756021 0.472718073 0.27875291
0.837140484 0.491414173 0.316139652
0.866530095 0.511935162 0.351196417
0.895923598 0.534090894 0.384678328
0.925320041 0.557666263 0.417061883
0.954718706 0.58244157 0.448662593
0.98411905 0.608208118 0.479696679
0.101103693 0.405561921 0
0.128491024 0.405641536 0
0.155878354 0.405721091 0
0.183241253 0.405800586 0
0.20711433 0.40588002 0
0.227376952 0.405963114 0
0.248827474 0.406070354 0
0.271795492 0.406212128 0
0.296061105 0.406399485 0
0.321409134 0.406646956 0
0.347641567 0.406973613 0
0.374584449 0.407404415 0
0.40209029 0.407971915 0
0.430037403 0.408718364 0
0.458327466 0.409698262 0
0.486882303 0.410981329 0
0.515640514 0.412655808 0
0.54455432 0.414831813 0.00301532514
0.573586809 0.417644246 0.0121642728
0.602709619 0.421254454 0.0242737706
0.631901043 0.425849467 0.0403018364
0.661144522 0.431637431 0.0615164977
0.690427455 0.438837904 0.0895961089
0.719740266 0.447666439 0.126762131
0.749075691 0.458314336 0.175954876
0.778428226 0.470926483 0.22849037
0.8077937 0.485581991 0.272577327
0.837168958 0.502282686 0.311854209
0.866551612 0.52095283 0.348146424
0.895939856 0.541450175 0.382470686
0.925332326 0.56358507 0.415445205
0.954727988 0.587142602 0.447468864
0.984126063 0.611903016 0.478809987
0.120739415 0.435285868 0
0.148126745 0.435345842 0
0.175514075 0.435405781 0
0.200890096 0.435465687 0
0.2214033 0.435525558 0
0.239292617 0.4355882 0
0.258638916 0.435669062 0
0.279748554 0.435775996 0
0.302420252 0.435917365 0
0.326435209 0.436104188 0
0.351576056 0.436350955 0
0.377640487 0.436676685 0
0.404449241 0.437106269 0
0.431849322 0.437672173 0
0.459713857 0.438416535 0
0.487939936 0.439393715 0
0.516445492 0.440673262 0
0.545165917 0.442343211 0
0.574050855 0.444513436 0
0.603061349 0.447318574 0.00411512051
0.632167433 0.450919699 0.0201431863
0.661346158 0.455503594 0.0413578477
0.690580008 0.461278226 0.0694374588
0.719855645 0.468463107 0.10660348
0.749162933 0.477273926 0.155796226
0.778494178 0.487902344 0.2148187
0.807843551 0.500493834 0.263800775
0.837206635 0.515128255 0.305898624
0.866580085 0.531808246 0.343968072
0.895961372 0.550458829 0.379475329
0.925348584 0.570938347 0.413266328
0.954740273 0.593057525 0.445867667
0.984135345 0.616601598 0.47762472
0.146729149 0.464931329 0
0.174116479 0.46497654 0
0.199727497 0.465021731 0
0.220448164 0.465066903 0
0.23774296 0.465112056 0
0.253232499 0.465159305 0
0.270356789 0.465220308 0
0.289425545 0.465300996 0
0.310284763 0.465407699 0
0.332737624 0.465548764 0
0.356566629 0.465735185 0
0.381553188 0.465981423 0
0.407492119 0.466306456 0
0.434200424 0.466735125 0
0.461521142 0.467299828 0
0.489323613 0.468042621 0
0.517501544 0.469017758 0
0.54596998 0.470294659 0
0.574661924 0.471961201 0
0.603525091 0.47412708 0
0.632518988 0.476926732 0
0.661612448 0.480521024 0.0146759673
0.690781587 0.485096554 0.0427555784
0.720008166 0.490861155 0.0799216001
0.749278293 0.4980343 0.129114346
0.778581409 0.506831782 0.193455554
0.807909498 0.517445531 0.250925447
0.837256482 0.530021458 0.297456988
0.866617759 0.544639988 0.338168576
0.895989844 0.561304372 0.375374402
0.925370099 0.579940202 0.410310968
0.954756531 0.600406273 0.443710031
0.98414763 0.62251359 0.476035023
0.181128631 0.494517768 0
0.205435219 0.494551869 0
0.225155298 0.494585959 0
0.24174803 0.494620038 0
0.256070885 0.494654105 0
0.269225973 0.494689758 0
0.284091679 0.494735795 0
0.300998288 0.494796698 0
0.319862593 0.494877255 0
0.340536531 0.494983785 0
0.36282685 0.495124621 0
0.386517271 0.49531074 0
0.411388519 0.49555658 0
0.437233434 0.495881088 0
0.463866349 0.496309068 0
0.491127412 0.496872867 0
0.518883177 0.497614479 0
0.547024841 0.498588078 0
0.575465296 0.499862986 0
0.604135761 0.501526965 0
0.6329825 0.503689571 0
0.661963871 0.506485092 0
0.6910478 0.510074239 0.00743958574
0.720209701 0.51464347 0.0446056074
0.749430789 0.520400515 0.0937983528
0.778696755 0.527564819 0.158909605
0.80799672 0.536352251 0.231018606
0.837322424 0.546954944 0.285124315
0.866667604 0.559519139 0.32996349
0.896027517 0.574125685 0.369687512
0.92539857 0.590778297 0.406266661
0.954778045 0.609402998 0.440784188
0.984163887 0.62985892 0.473893161
0.218905467 0.524059773 0
0.236436237 0.524085505 0
0.251452257 0.52411123 0
0.26458531 0.524136948 0
0.276255448 0.524162661 0
0.287223588 0.524189572 0
0.29988079 0.524224324 0
0.314582262 0.524270305 0
0.331328052 0.524331133 0
0.350040783 0.524411591 0
0.370576913 0.52451799 0
0.392745987 0.524658653 0
0.416332773 0.524844545 0
0.441117609 0.525090085 0
0.466891946 0.525414198 0
0.493468185 0.525841659 0
0.520684352 0.526404777 0
0.548404933 0.527145499 0
0.57651926 0.52811794 0
0.604938611 0.529391347 0
0.633592869 0.531053393 0
0.662427209 0.533213534 0
0.691399124 0.536005941 0
0.720475857 0.539591212 0
0.749632291 0.544155694 0.0470542957
0.778849232 0.549907044 0.112165548
0.808112055 0.557064683 0.197052597
0.83740964 0.565844537 0.266192177
0.866733542 0.576438893 0.318011372
0.89607736 0.588994238 0.36165253
0.925436242 0.603591744 0.400661987
0.954806515 0.620235473 0.436781632
0.984185402 0.638851773 0.470989231
0.254220236 0.553568296 0
0.267031297 0.553587718 0
0.278446552 0.553607136 0
0.288740493 0.553626551 0
0.298113842 0.553645962 0
0.307104394 0.55366628 0
0.31768241 0.553692519 0
0.33022041 0.553727239 0
0.34480019 0.553773177 0
0.361426498 0.553833949 0
0.38002632 0.553914333 0
0.400459551 0.554020633 0
0.422537896 0.554161166 0
0.446046986 0.554346886 0
0.470766935 0.5545922 0
0.496488206 0.554916015 0
0.523021786 0.555343084 0
0.550204131 0.55590569 0
0.57789819 0.556645741 0
0.605991897 0.557617308 0
0.634395326 0.558889583 0
0.663037351 0.560550173 0
0.691862331 0.562708454 0
0.720827105 0.565498514 0
0.749898404 0.569080861 0
0.77905071 0.573641763 0.0502953663
0.808264518 0.579388817 0.136476268
0.837524967 0.586541429 0.234350725
0.866820754 0.595315566 0.299754446
0.896143295 0.605903631 0.349972693
0.925486083 0.618452299 0.392750915
0.954844186 0.633042982 0.431237514
0.984213871 0.649680006 0.467017651
0.287879441 0.583051573 0
0.297326677 0.583066236 0
0.305992868 0.583080897 0
0.313997356 0.583095556 0
0.32143406 0.583110213 0
0.328692772 0.583125555 0
0.337382106 0.58314537 0
0.347876767 0.583171591 0
0.360326187 0.583206287 0
0.374815357 0.583252192 0
0.39135252 0.583312922 0
0.40986794 0.583393249 0
0.430224112 0.583499475 0
0.452234402 0.58363991 0
0.475685132 0.583825501 0
0.500356283 0.584070643 0
0.526037607 0.584394234 0
0.552539048 0.584821008 0
0.579695897 0.585383226 0
0.607369952 0.586122772 0
0.635448101 0.587093679 0
0.663839512 0.588365101 0
0.692472301 0.590024591 0
0.721290214 0.592181471 0
0.750249596 0.59496976 0
0.77931679 0.598549901 0
0.808465977 0.603108101 0.0545852298
0.837677419 0.608851914 0.168653806
0.866936075 0.616000732 0.269348658
0.896230503 0.624770556 0.332194726
0.925552017 0.635353873 0.381268696
0.954894027 0.647897501 0.423417552
0.984251541 0.662483033 0.461518425
0.320388051 0.612515805 0
0.327399535 0.612526877 0
0.333971545 0.612537948 0
0.340155938 0.612549018 0
0.345995903 0.612560087 0
0.351780117 0.612571673 0
0.358808788 0.612586638 0
0.367441811 0.612606442 0
0.377874361 0.612632649 0
0.390257684 0.612667327 0
0.404679141 0.612713208 0
0.421149587 0.612773906 0
0.439601747 0.61285419 0
0.459900085 0.61296036 0
0.481859237 0.613100721 0
0.505266067 0.613286214 0
0.529900478 0.613531228 0
0.555551704 0.61385465 0
0.582028916 0.614281201 0
0.609166533 0.614843127 0
0.636825494 0.61558229 0
0.6648919 0.6165527 0
0.693274238 0.617823478 0
0.721900055 0.619482139 0
0.75071263 0.62163796 0
0.779667939 0.624424913 0
0.808732033 0.628003389 0
0.837878864 0.63255955 0.06026327
0.867088519 0.638300917 0.207573915
0.89634582 0.645446872 0.302790039
0.925639222 0.654213439 0.363836212
0.954959958 0.664793172 0.412080253
0.984301381 0.677332995 0.453765917
0.352078604 0.641965664 0
0.357306443 0.641974026 0
0.362286041 0.641982387 0
0.367039907 0.641990748 0
0.371587622 0.641999108 0
0.376146298 0.642007859 0
0.381756142 0.642019162 0
0.38874793 0.642034121 0
0.397338891 0.642053917 0
0.407725002 0.642080114 0
0.420058851 0.642114777 0
0.434429568 0.64216064 0
0.450849965 0.642221314 0
0.469254618 0.642301566 0
0.489509479 0.642407694 0
0.511430153 0.642547999 0
0.534803926 0.642733418 0
0.559410652 0.642978335 0
0.585039185 0.643301628 0
0.611498121 0.643728011 0
0.638621227 0.644289717 0
0.666268795 0.645028592 0
0.694326335 0.645998627 0
0.722701822 0.647268918 0
0.751322372 0.648926953 0
0.780130916 0.651081975 0
0.809083149 0.653867919 0
0.838144902 0.657445138 0
0.867289953 0.661999761 0.0677786934
0.896498258 0.667739281 0.244143873
0.925754535 0.674883074 0.335144954
0.955047162 0.683647182 0.394899992
0.984367312 0.694224209 0.442535703
0.38317809 0.671404674 0
0.387089192 0.67141099 0
0.390859684 0.671417305 0
0.394499325 0.67142362 0
0.398016894 0.671429934 0
0.401577199 0.671436544 0
0.406004317 0.671445082 0
0.411590643 0.671456382 0
0.418554822 0.671471337 0
0.427114275 0.671491127 0
0.437465574 0.671517316 0
0.449762307 0.671551969 0
0.464094926 0.671597818 0
0.48047771 0.671658473 0
0.498846633 0.671738701 0
0.519068771 0.671844797 0
0.540960463 0.67198506 0
0.564309323 0.672170424 0
0.588895174 0.672415267 0
0.614506589 0.672738464 0
0.640951734 0.67316472 0
0.668063886 0.673726259 0
0.695702853 0.674464916 0
0.723753699 0.675434668 0
0.752124012 0.676704591 0
0.780740585 0.678362154 0
0.809546084 0.680516573 0
0.838495993 0.683301755 0
0.867555976 0.686878026 0
0.896699684 0.691431486 0.0777260671
0.925906968 0.697169611 0.278655222
0.955162472 0.704311772 0.366725063
0.984454513 0.713074023 0.425541203
0.413845535 0.700835493 0
0.416778822 0.700840263 0
0.419632304 0.700845034 0
0.422410208 0.700849804 0
0.425116436 0.700854573 0
0.427876664 0.700859567 0
0.431337961 0.700866016 0
