Luts/DJI/DJI_DLogM_to_VLog.cube
TITLE "DJI D-Log M / D-Gamut to Panasonic V-Log / V-Gamut"
LUT_3D_SIZE 33
0.00757651318 0.00757651318 0.00757651318
0.019362705 0.00786811764 0.00767721923
0.0547129615 0.0087427252 0.00797926629
0.103726428 0.00995537688 0.00839805741
0.157693036 0.0112905752 0.0088591702
0.198057137 0.0123254921 0.00921658033
0.237219851 0.0137075209 0.00969386608
0.270365993 0.0153559194 0.0102631431
0.301984259 0.0174962695 0.0110023162
0.325643242 0.019577207 0.0117209712
0.348212103 0.0220511749 0.0125753598
0.370062661 0.0250109236 0.0135975136
0.390632651 0.0284209616 0.0147751754
0.410505757 0.0324155574 0.0161547152
0.428394448 0.0367192349 0.0176409968
0.444753844 0.0413520524 0.0192409475
0.460572506 0.0465740472 0.0210443714
0.476826563 0.0528265045 0.0232036671
0.494530182 0.0608346806 0.025969303
0.51356217 0.0710932949 0.0295121312
0.533867989 0.0842985693 0.0340725929
0.554278727 0.100415674 0.0396386599
0.574201215 0.11948083 0.0462228407
0.593089198 0.141226091 0.0537326
0.611929291 0.167189791 0.0626992035
0.630599323 0.19671704 0.0733243689
0.651317519 0.22727244 0.0875548501
0.67418573 0.258242473 0.106896327
0.700037479 0.290862273 0.134492566
0.730819038 0.327444472 0.1775805
0.771159376 0.372938661 0.238187124
0.83269939 0.439133144 0.31589796
0.984095697 0.594798956 0.480738339
0.00845453679 0.0206491848 0.00667510647
0.0202407286 0.0209407892 0.00677581252
0.0555909852 0.0218153968 0.00707785958
0.104604451 0.0230280485 0.0074966507
0.15857106 0.0243632468 0.0079577635
0.198800737 0.0253981637 0.00831517362
0.237732315 0.0267801925 0.00879245938
0.270739852 0.028428591 0.00936173635
0.302260948 0.0305689411 0.0101009095
0.325864117 0.0326498786 0.0108195645
0.348390254 0.0351238465 0.0116739531
0.370207333 0.0380835952 0.0126961069
0.390751574 0.0414936332 0.0138737687
0.410604163 0.045488229 0.0152533085
0.428477431 0.0497919065 0.0167395901
0.444824847 0.054424724 0.0183395408
0.460633571 0.0596467188 0.0201429647
0.476878864 0.0658991761 0.0223022604
0.494574362 0.0739073522 0.0250678963
0.513599021 0.0841659665 0.0286107245
0.533898355 0.0973712409 0.0331711862
0.554303723 0.113488346 0.0387372532
0.574221888 0.132553502 0.045321434
0.593106464 0.154298763 0.0528311933
0.611943719 0.180262463 0.0617977968
0.630611399 0.207406803 0.0724229622
0.65132743 0.235361831 0.0866534434
0.6741937 0.264322285 0.105994921
0.700043708 0.295351251 0.133591159
0.730823683 0.330631522 0.176679093
0.771162537 0.375015137 0.23766326
0.832701149 0.440242962 0.315648567
0.984096113 0.595051587 0.480686585
0.0110879879 0.0598579726 0.0039715226
0.0228741797 0.060149577 0.00407222865
0.0582244363 0.0610241846 0.00437427571
0.107237902 0.0622368363 0.00479306683
0.161204511 0.0635720346 0.00525417962
0.200999909 0.0646069515 0.00561158975
0.239254498 0.0659889802 0.0060888755
0.271853238 0.0676373788 0.00665815247
0.303086469 0.0697777289 0.00739732566
0.32652381 0.0718586663 0.00811598061
0.348922772 0.0743326343 0.00897036922
0.370640053 0.077292383 0.00999252299
0.391107452 0.080702421 0.0111701848
0.41089876 0.0846970168 0.0125497246
0.428725926 0.0890006943 0.0140360062
0.445037516 0.0936335118 0.0156359569
0.460816512 0.0988555066 0.0174393808
0.477035575 0.105107964 0.0195986765
0.49470676 0.11311614 0.0223643124
0.513709468 0.123374754 0.0259071406
0.533989376 0.136580029 0.0304676024
0.554378659 0.152697134 0.0360336693
0.574283867 0.17176229 0.0426178502
0.593158233 0.192815962 0.0501276094
0.611986979 0.213773119 0.0590942129
0.630647607 0.234165742 0.0697193784
0.65135715 0.256444144 0.0839498595
0.674217599 0.280692403 0.103291337
0.700062387 0.307766347 0.130887575
0.730837612 0.33964779 0.173975509
0.771172019 0.381007382 0.236076161
0.832706422 0.443502897 0.314896986
0.984097358 0.595805673 0.480531205
0.0147392928 0.114221329 0.000222977895
0.0265254847 0.114512933 0.000323683943
0.0618757412 0.115387541 0.000625731004
0.110889207 0.116600193 0.00104452212
0.164855816 0.117935391 0.00150563492
0.20397475 0.118970308 0.00186304504
0.241329125 0.120352337 0.0023403308
0.273377662 0.122000735 0.00290960777
0.304220417 0.124141085 0.00364878095
0.327431669 0.126222023 0.0043674359
0.34965667 0.128695991 0.00522182451
0.371237085 0.131655739 0.00624397828
0.391598892 0.135065777 0.00742164014
0.411305857 0.139060373 0.00880117992
0.429069496 0.143364051 0.0102874615
0.445331673 0.147996868 0.0118874122
0.461069634 0.153218863 0.0136908361
0.47725247 0.15947132 0.0158501318
0.494890055 0.167479496 0.0186157677
0.513862412 0.177738111 0.0221585959
0.534115448 0.190499593 0.0267190576
0.554482469 0.204275526 0.0322851246
0.57436974 0.218532163 0.0388693055
0.593229969 0.232730409 0.0463790647
0.612046931 0.247495865 0.0553456682
0.63069779 0.262665036 0.0659708337
0.651398344 0.280055807 0.0802013148
0.674250726 0.299846724 0.0995427921
0.700088281 0.322860221 0.127139031
0.730856922 0.350990655 0.170226964
0.771185165 0.388787037 0.233835129
0.832713734 0.447861483 0.313845921
0.984099084 0.596842331 0.480315388
0.0187595868 0.174078471 0
0.0305457787 0.174370075 0
0.0658960352 0.175244683 0
0.114909501 0.176457334 0
0.16887611 0.177792533 0
0.207155486 0.178827449 0
0.243566922 0.180209478 0
0.275030903 0.181854078 0
0.30545494 0.183955868 0
0.328422268 0.185959715 0.000240075386
0.350458837 0.188293268 0.001094464
0.371890544 0.191018491 0.00211661777
0.392137344 0.194072975 0.00329427963
0.411752274 0.197541481 0.0046738194
0.429446489 0.201154311 0.00616010102
0.445654605 0.204909208 0.00776005166
0.461347631 0.208986486 0.00956347556
0.477490766 0.213668596 0.0117227713
0.495091503 0.219375478 0.0144884072
0.514030554 0.226259819 0.0180312354
0.534254085 0.234504357 0.0225916971
0.554596652 0.243760817 0.0281577641
0.574464211 0.25375003 0.0347419449
0.593308898 0.264090852 0.0422517042
0.612112902 0.275235049 0.0512183077
0.630753017 0.287069763 0.0618434731
0.651443681 0.301079928 0.0760739543
0.674287189 0.317542704 0.0954154316
0.700116784 0.337298102 0.12301167
0.730878179 0.362206561 0.166099604
0.771199637 0.396734108 0.231310946
0.832721784 0.452459899 0.312676323
0.984100985 0.597972023 0.480077246
0.0218757307 0.214504185 0
0.0336619225 0.21471584 0
0.069012179 0.215348108 0
0.118025645 0.216218495 0
0.171992254 0.21716856 0
0.209556195 0.217899083 0
0.245269186 0.218866758 0
0.276294646 0.220009386 0
0.306401926 0.221474688 0
0.329183699 0.222879954 0
0.351076406 0.224526502 0
0.372394256 0.226462994 0
0.392552808 0.228650656 9.5148177e-05
0.412096991 0.231156616 0.00147468795
0.429737768 0.233791115 0.00296096957
0.445904228 0.236555038 0.00456092021
0.461562602 0.239585568 0.00636434411
0.477675098 0.243102569 0.00852363983
0.495247381 0.247441481 0.0112892757
0.514160696 0.252749695 0.0148321039
0.534361417 0.259209534 0.0193925657
0.554685069 0.266590056 0.0249586327
0.574537377 0.274698821 0.0315428135
0.593370035 0.283241501 0.0390525727
0.612164007 0.2926063 0.0480191763
0.630795803 0.302718808 0.0586443417
0.651478809 0.314895316 0.0728748228
0.674315443 0.329460788 0.0922163001
0.700138871 0.34726408 0.119812539
0.730894653 0.370143371 0.162900472
0.771210854 0.40250465 0.229311779
0.832728023 0.45589043 0.311760706
0.984102459 0.598839357 0.479892289
0.0260370315 0.251959491 0
0.0378232234 0.252107633 0
0.0731734799 0.252550701 0
0.122186946 0.253161939 0
0.176153555 0.253830853 0
0.212678748 0.254346411 0
0.247500148 0.255030959 0
0.27795885 0.255841647 0
0.307653345 0.256885015 0
0.330191972 0.257889565 0
0.351895479 0.259071462 0
0.373063164 0.260468155 0
0.393105064 0.262054613 0
0.412555566 0.263883013 0
0.430125486 0.265817859 0
0.446236652 0.267861547 0.000288797635
0.461848989 0.270118388 0.00209222154
0.477920752 0.272758211 0.00425151726
0.495455179 0.276045074 0.00701715314
0.514334237 0.280110499 0.0105599813
0.534504577 0.285121898 0.0151204431
0.554803026 0.290930662 0.0206865101
0.574635003 0.29741077 0.0272706909
0.593451623 0.304343869 0.0347804502
0.612232215 0.312063136 0.0437470537
0.630852913 0.320530592 0.0543722191
0.6515257 0.330896056 0.0686027002
0.674353162 0.343519561 0.0879441775
0.700168359 0.359248457 0.115540416
0.730916647 0.37988445 0.15862835
0.77122583 0.40974663 0.22658125
0.832736354 0.460303311 0.310525392
0.984104427 0.599986523 0.479644787
0.0310003741 0.284070096 0
0.042786566 0.28417919 0
0.0781368225 0.284505716 0
0.127150289 0.284956773 0
0.181116521 0.285451179 0
0.216285514 0.285832798 0
0.250100501 0.286340256 0
0.279909888 0.286942328 0
0.309126695 0.287718962 0
0.331382039 0.288468564 0
0.352864127 0.289352831 0
0.373855457 0.290401027 0
0.393759981 0.291595847 0
0.413099918 0.292978394 0
0.430586065 0.2944478 0
0.446631773 0.296006911 0
0.462189554 0.297736958 0
0.478213002 0.299771546 0
0.495702491 0.302321105 0.00192162921
0.514540851 0.305499124 0.00546445742
0.534675075 0.309453162 0.0100249192
0.554943545 0.314085443 0.0155909862
0.574751327 0.319313319 0.022175167
0.593548852 0.324974392 0.0296849262
0.612313511 0.331356351 0.0386515298
0.630920989 0.338448075 0.0492766952
0.651581602 0.347252122 0.0635071763
0.674398133 0.358144144 0.0828486536
0.70020352 0.371954639 0.110444892
0.730942875 0.390431324 0.153532826
0.77124369 0.417777519 0.223228669
0.83274629 0.4653349 0.309032704
0.984106773 0.601338585 0.479348817
0.0374449872 0.314957076 0
0.049231179 0.315038354 0
0.0845814356 0.315281752 0
0.133594902 0.315618293 0
0.187364153 0.3159876 0
0.220790923 0.316272959 0
0.25338348 0.316652821 0
0.282390223 0.317104105 0
0.311009383 0.31768719 0
0.332907394 0.318250997 0
0.354108659 0.318917373 0
0.374875354 0.319709074 0
0.394604296 0.320613874 0
0.413802538 0.321663946 0
0.431181098 0.322783625 0
0.447142605 0.323975725 0
0.462630114 0.325303384 0
0.47859126 0.326871238 0
0.496022744 0.328845716 0
0.514808522 0.331321938 0
0.534896044 0.334425714 0.00340867636
0.55512572 0.338093507 0.00897474334
0.574902174 0.342272829 0.0155589242
0.593674964 0.346844835 0.0230686834
0.612418975 0.352054944 0.0320352869
0.631009316 0.357911362 0.0426604524
0.651654142 0.365275354 0.0568909335
0.674456496 0.374521167 0.0762324108
0.700249157 0.386444203 0.103828649
0.730976921 0.402711991 0.146916583
0.771266875 0.427364193 0.218709235
0.83275919 0.471527446 0.307062286
0.98410982 0.603068547 0.478963266
0.0437107083 0.338194002 0
0.0554969002 0.338259133 0
0.0908471567 0.338454239 0
0.139860623 0.338724156 0
0.193101196 0.339020548 0
0.224993208 0.339249708 0
0.256479741 0.33955495 0
0.284746747 0.339917866 0
0.312807971 0.340387225 0
0.334369438 0.340841551 0
0.355304649 0.341379138 0
0.375857521 0.342018685 0
0.395418709 0.342750729 0
0.414481171 0.343601813 0
0.431756396 0.344511088 0
0.447636883 0.345481172 0
0.463056678 0.346563977 0
0.478957716 0.347845919 0
0.496333172 0.349465277 0
0.515068109 0.351503834 0
0.535110433 0.354070931 0
0.555302535 0.357121269 0.00254215658
0.575048627 0.360618634 0.0091263374
0.593797431 0.364470281 0.0166360967
0.61252141 0.368891216 0.0256027002
0.631095121 0.373899531 0.0362278656
0.651724621 0.380253248 0.0504583467
0.674513207 0.388314715 0.069799824
0.700293508 0.398839665 0.0973960627
0.731010011 0.413414237 0.140483996
0.771289412 0.43591342 0.214120276
0.83277173 0.477216692 0.305110406
0.984112783 0.604723567 0.478587054
0.0511598476 0.36043879 0
0.0629460394 0.360491478 0
0.098296296 0.360649345 0
0.147309762 0.360867838 0
0.199537076 0.361107885 0
0.229779542 0.36129357 0
0.260045687 0.361541021 0
0.28748116 0.361835405 0
0.314906891 0.362216416 0
0.336081514 0.362585529 0
0.356709009 0.363022673 0
0.377013351 0.363543272 0
0.396378786 0.364139887 0
0.415282307 0.364834486 0
0.43243627 0.365577718 0
0.448221501 0.366371949 0
0.463561562 0.367260034 0
0.479391725 0.368313569 0
0.49670104 0.369647667 0
0.515375891 0.371332247 0
0.535364746 0.373461619 0
0.555512358 0.37600328 0
0.575222474 0.378932429 0.00147881632
0.593942842 0.382176441 0.00898857557
0.612643062 0.385922776 0.0179551791
0.63119704 0.390195509 0.0285803445
0.65180835 0.39565831 0.0428108256
0.674580591 0.402654482 0.0621523029
0.700346211 0.411891949 0.0897485416
0.731049337 0.424862141 0.132836475
0.7713162 0.445246348 0.208389758
0.832786637 0.48360195 0.302741597
0.984116305 0.606657788 0.478138023
0.0600716772 0.382034793 0
0.0718578691 0.382077679 0
0.107208126 0.3822062 0
0.156221592 0.382384136 0
0.206751334 0.382579705 0
0.235232773 0.382731041 0
0.264158432 0.382932795 0
0.290661513 0.383172928 0
0.317363986 0.383483909 0
0.338093716 0.383785376 0
0.358364789 0.384142658 0
0.378379608 0.384568503 0
0.397515952 0.385057 0
0.416232782 0.385626358 0
0.433243895 0.386236331 0
0.448916658 0.386889014 0
0.464162407 0.387619865 0
0.479908606 0.38848829 0
0.497139454 0.389590171 0
0.515742926 0.390984997 0
0.535668187 0.392753589 0
0.555762832 0.39487252 0
0.57543008 0.397324989 0
0.594116541 0.400053957 0
0.612788416 0.403221977 0.00880601394
0.631318841 0.406856169 0.0194311794
0.651908432 0.411534261 0.0336616605
0.674661148 0.417575457 0.0530031378
0.700409228 0.425633814 0.0805993764
0.731096366 0.437095067 0.12368731
0.771348238 0.455419796 0.201095415
0.832804468 0.490763011 0.299835522
0.984120518 0.6089259 0.477598283
0.0703393319 0.402408639 0
0.0821255237 0.402443955 0
0.11747578 0.402549806 0
0.166489246 0.402696392 0
0.214491038 0.402857556 0
0.241183094 0.402982304 0
0.268705195 0.403148663 0
0.294210015 0.40334674 0
0.320125327 0.403603375 0
0.34036518 0.403852286 0
0.360240622 0.404147442 0
0.379931972 0.404499466 0
0.39881102 0.404903588 0
0.417317286 0.405375013 0
0.434166745 0.405880555 0
0.449711905 0.40642205 0
0.464850423 0.407029077 0
0.480500984 0.407751298 0
0.497642304 0.408669118 0
0.516164215 0.409833248 0
0.536016708 0.411312987 0
0.556050672 0.413091177 0
0.575668763 0.415156429 0
0.59431631 0.417463408 0
0.612955634 0.420153072 0
0.631458998 0.423253452 0.0088900816
0.652023622 0.427267289 0.0231205627
0.674753885 0.432487576 0.04246204
0.700481786 0.439512901 0.0700582787
0.731150523 0.44961978 0.113146212
0.771385138 0.466034788 0.192009823
0.832825008 0.498449541 0.29638435
0.984125372 0.611479683 0.476972966
0.082367095 0.422125228 0
0.0941532869 0.422154493 0
0.129503543 0.422242217 0
0.17851701 0.422363726 0
0.222885975 0.422497352 0
0.247749508 0.422600809 0
0.273792208 0.422738807 0
0.298219657 0.422903165 0
0.323270196 0.42311619 0
0.342964934 0.423322889 0
0.362396182 0.423568098 0
0.381721699 0.423860704 0
0.40030803 0.424196818 0
0.4185736 0.424589185 0
0.435237566 0.425010275 0
0.450635871 0.425461687 0
0.465650682 0.42596819 0
0.481190681 0.426571442 0
0.498228305 0.427339056 0
0.516655579 0.428314247 0
0.536423506 0.429556347 0
0.556386854 0.431052672 0
0.575947672 0.432795569 0
0.594549842 0.434748752 0
0.61315118 0.43703418 0
0.631622943 0.439679417 0
0.652158397 0.44312085 0.010772482
0.674862415 0.447624321 0.0301139593
0.700566718 0.453732484 0.057710198
0.731213929 0.462610632 0.100798132
0.771428347 0.477240447 0.180260661
0.832849064 0.506791043 0.29219163
0.984131058 0.614394246 0.476235683
0.095325506 0.439896121 0
0.107111698 0.439920825 0
0.142461954 0.439994885 0
0.190984438 0.440097484 0
0.231236576 0.440210335 0
0.254392244 0.440297723 0
0.279010082 0.440414308 0
0.302374623 0.440553193 0
0.326556096 0.440733254 0
0.345695561 0.440908021 0
0.364670001 0.441115418 0
0.383616333 0.441363002 0
0.401897315 0.441647529 0
0.419910491 0.441979853 0
0.436379138 0.442336715 0
0.451622304 0.442719518 0
0.466506083 0.443149335 0
0.481928702 0.443661663 0
0.498856006 0.44431422 0
0.517182399 0.445144269 0
0.536860021 0.44620316 0
0.556747845 0.447481222 0
0.576247334 0.448973224 0
0.594800862 0.450649454 0
0.613361448 0.452616396 0
0.631799287 0.454900397 0
0.652303407 0.457883511 0
0.674979216 0.46180663 0.0168104463
0.700658144 0.467161655 0.0444066849
0.731282198 0.47501175 0.0874946185
0.77147488 0.488107696 0.166957148
0.832874975 0.515092545 0.287478686
0.984137183 0.61744626 0.475435509
0.109274961 0.456163942 0
0.121061152 0.456185097 0
0.156411409 0.456248523 0
0.202957167 0.4563364 0
0.239539796 0.456433072 0
0.261102014 0.456507942 0
0.284351257 0.456607839 0
0.306670729 0.456726867 0
0.329981906 0.456881217 0
0.348557684 0.457031064 0
0.367063853 0.457208935 0
0.385618329 0.457421337 0
0.403581654 0.457665521 0
0.421330833 0.457950843 0
0.437594287 0.458257376 0
0.452673911 0.458586353 0
0.467419173 0.458955936 0
0.482717405 0.459396742 0
0.49952754 0.459958637 0
0.517746569 0.460674063 0
0.537327899 0.461587861 0
0.557135061 0.462692475 0
0.576568959 0.463984295 0
0.595070411 0.465438549 0
0.613587327 0.467148916 0
0.631988787 0.469140194 0
0.652459283 0.471749272 0
0.675104806 0.475194475 0.00248949675
0.700756474 0.479922044 0.0300857354
0.731355639 0.486902154 0.0731736689
0.771524949 0.498670281 0.152636198
0.832902861 0.52335065 0.282156838
0.984143777 0.620635371 0.474567261
0.124998433 0.471906592 0
0.136784625 0.471924799 0
0.172134881 0.471979389 0
0.214993038 0.472055031 0
0.248172877 0.472138255 0
0.268183727 0.472202716 0
0.290062618 0.472288736 0
0.311311178 0.472391244 0
0.333713827 0.472524194 0
0.351692851 0.472653293 0
0.369698222 0.472806568 0
0.387830045 0.472989646 0
0.405448326 0.473200182 0
0.422909081 0.473446272 0
0.438947304 0.473710759 0
0.453846752 0.47399473 0
0.468438945 0.474313896 0
0.483599359 0.474694771 0
0.500279358 0.475180585 0
0.518378869 0.475799651 0
0.53785279 0.476591196 0
0.557569814 0.477549256 0
0.576930309 0.478671374 0
0.595373411 0.47993675 0
0.613841351 0.481427874 0
0.632201977 0.483167802 0
0.652634706 0.485453804 0
0.675246187 0.48848306 0
0.700867198 0.492659111 0.0139435231
0.731438357 0.498864161 0.0570314567
0.771581356 0.509425542 0.136493986
0.832934284 0.531940444 0.275815512
0.984151208 0.624117513 0.4735799
0.143824637 0.488093569 0
0.155610829 0.488109173 0
0.19051576 0.488155959 0
0.22779397 0.488220794 0
0.257653869 0.488292134 0
0.276078281 0.488347397 0
0.296515528 0.48842115 0
0.316610087 0.488509049 0
0.33801424 0.488623072 0
0.355327432 0.488733812 0
0.372767796 0.488865315 0
0.390418278 0.489022423 0
0.40764051 0.489203141 0
0.424768051 0.489414444 0
0.440544684 0.489641621 0
0.455233995 0.489885624 0
0.46964705 0.490159979 0
0.484645686 0.490487531 0
0.5011725 0.490905573 0
0.519130962 0.491438669 0
0.538477821 0.492120926 0
0.558087999 0.492947655 0
0.577361333 0.493917265 0
0.595735054 0.495012347 0
0.614144694 0.496305066 0
0.632456667 0.497816557 0
0.652844359 0.499807395 0
0.675415216 0.502454066 0
0.700999618 0.50611831 0
0.731537313 0.511595252 0.0377038822
0.771648854 0.521001914 0.117166411
0.832971895 0.541377809 0.267681211
0.984160106 0.628140207 0.472385343
0.167937326 0.505734996 0
0.179723518 0.505748184 0
0.210505345 0.50578773 0
0.242193261 0.505842535 0
0.268665694 0.505902846 0
0.285392438 0.505949569 0
0.304239812 0.506011931 0
0.323027955 0.506086264 0
0.343276597 0.506182702 0
0.359805902 0.506276378 0
0.376572502 0.506387639 0
0.393642661 0.506520591 0
0.410382966 0.506673562 0
0.427101893 0.506852473 0
0.442555712 0.507044885 0
0.456984396 0.507251619 0
0.471174344 0.507484158 0
0.485970759 0.507761907 0
0.502305444 0.508116578 0
0.520086435 0.508569172 0
0.539272963 0.509148909 0
0.558747974 0.509852166 0
0.577910817 0.510678016 0
0.596196435 0.511612091 0
0.61453194 0.512716583 0
0.632781974 0.514010494 0
0.653112274 0.51571882 0
0.675631313 0.517996978 0
0.701168978 0.521164087 0
0.73166392 0.525925478 0.0129490359
0.771735243 0.534176845 0.0924115651
0.833020048 0.552343654 0.25624692
0.9841715 0.633076921 0.470835205
0.197463379 0.524710824 0
0.207082582 0.52472183 0
0.23155851 0.524754832 0
0.25815099 0.524800574 0
0.281268409 0.524850914 0
0.296229929 0.524889917 0
0.313370025 0.524941978 0
0.330714249 0.52500404 0
0.349653611 0.525084569 0
0.365276947 0.525162804 0
0.381253054 0.525255739 0
0.397633417 0.525366814 0
0.413794482 0.525494643 0
0.430017664 0.525644186 0
0.445076793 0.525805062 0
0.459184841 0.525977966 0
0.473098895 0.526172518 0
0.487644105 0.526404987 0
0.503739112 0.526701985 0
0.521297832 0.527081219 0
0.540282825 0.527567374 0
0.559587392 0.528157691 0
0.578610535 0.528851723 0
0.596784523 0.529637754 0
0.61502593 0.530568619 0
0.63319723 0.531661077 0
0.653454481 0.533106627 0
0.675907488 0.535039954 0
0.701385533 0.537738135 0
0.731825883 0.541816924 0
0.771845805 0.548946718 0.0607001717
0.833081701 0.56489932 0.239503093
0.984186095 0.639079348 0.468815381
0.226902214 0.544966935 0
0.23424764 0.544976008 0
0.25362049 0.545003216 0
0.275659909 0.545040928 0
0.295538141 0.545082436 0
0.308710914 0.545114598 0
0.324061847 0.545157531 0
0.339845269 0.545208716 0
0.35732991 0.54527514 0
0.371923831 0.54533968 0
0.386986016 0.545416357 0
0.4025566 0.545508018 0
0.418028642 0.545613524 0
0.433655447 0.545736981 0
0.448235297 0.545869829 0
0.461951033 0.546012649 0
0.475525375 0.546173399 0
0.489759531 0.546365547 0
0.505556197 0.546611137 0
0.522836872 0.546924905 0
0.541568606 0.547327422 0
0.560658126 0.547816612 0
0.579504421 0.548392351 0
0.597536709 0.549045191 0
0.615658406 0.549819393 0
0.633729355 0.550729462 0
0.653893345 0.551936095 0
0.676261924 0.553554158 0
0.701663634 0.555820419 0
0.732034 0.559263792 0
0.771987952 0.56533197 0.019880073
0.83316101 0.579122157 0.213065439
0.984204879 0.646332321 0.466156781
0.254314882 0.565336503 0
0.260015911 0.565343975 0
0.275463141 0.565366381 0
0.293697444 0.56539744 0
0.310674937 0.565431627 0
0.322170818 0.565458118 0
0.33578765 0.565493483 0
0.350009615 0.565535649 0
0.365996162 0.565590373 0
0.379504053 0.565643552 0
0.393583431 0.565706739 0
0.408268164 0.565782283 0
0.422975048 0.565869253 0
0.437930932 0.56597104 0
0.451965672 0.566080592 0
0.465231224 0.566198395 0
0.478412802 0.566331022 0
0.492284911 0.566489599 0
0.507732133 0.566692356 0
0.524685182 0.56695152 0
0.543116845 0.567284185 0
0.561950322 0.567688781 0
0.58058519 0.568165376 0
0.598447507 0.568706339 0
0.616425214 0.569348612 0
0.634375178 0.57010463 0
0.654426505 0.571108717 0
0.676692898 0.572458201 0
0.702002062 0.57435406 0
0.73228745 0.577247333 0
0.772161184 0.582382393 0
0.833257725 0.594215692 0.168686123
0.984227801 0.654554614 0.46281789
0.27955477 0.585225827 0
0.284062286 0.585232008 0
0.296524691 0.585250545 0
0.311669002 0.585276241 0
0.326148772 0.585304526 0
0.336140471 0.585326445 0
0.348152702 0.585355708 0
0.360885132 0.585390601 0
0.375400985 0.58543589 0
0.387816225 0.585479903 0
0.400886952 0.585532205 0
0.414645905 0.585594743 0
0.42854012 0.585666748 0
0.442773257 0.585751034 0
0.456213645 0.585841766 0
0.468983441 0.58593935 0
0.481728822 0.586049235 0
0.495195775 0.586180652 0
0.51024912 0.586348732 0
0.526830338 0.586563653 0
0.544919255 0.58683966 0
0.563458605 0.587175546 0
0.581849434 0.587571488 0
0.59951479 0.588021272 0
0.617325104 0.588555798 0
0.635134033 0.589185689 0
0.655053708 0.590023431 0
0.677200427 0.591151433 0
0.702400988 0.592740139 0
0.732586471 0.595173558 0
0.772365733 0.599518356 0
0.833372016 0.60965129 0.109751979
0.984254909 0.663515511 0.45872594
0.302449967 0.604087674 0
0.306088689 0.604092838 0
0.316301419 0.604108324 0
0.32899403 0.604129792 0
0.341394098 0.604153425 0
0.350088524 0.604171739 0
0.360677884 0.60419619 0
0.372051962 0.604225347 0
0.385189727 0.604263193 0
0.39655647 0.604299975 0
0.40864003 0.604343688 0
0.421476164 0.604395961 0
0.434546738 0.604456153 0
0.448036458 0.60452662 0
0.460857637 0.604602487 0
0.47310542 0.604684094 0
0.485387283 0.604776004 0
0.49842012 0.604885945 0
0.513048084 0.605026589 0
0.529224663 0.605206482 0
0.546937926 0.605437594 0
0.56515285 0.605718978 0
0.58327304 0.60605086 0
0.600718996 0.606428119 0
0.618342159 0.606876794 0
0.635992915 0.607405989 0
0.655764533 0.608110591 0
0.677776321 0.609060732 0
0.702854149 0.610401654 0
0.732926489 0.612461641 0
0.772598551 0.616157702 0
0.833502222 0.624864066 0.0425331026
0.984285819 0.672880845 0.453855162
0.32451606 0.622905985 0
0.327474071 0.622910301 0
0.335876371 0.622923244 0
