Luts/DJI/DJI_DLog_to_VLog.cube
TITLE "DJI D-Log / D-Gamut to Panasonic V-Log / V-Gamut"
LUT_3D_SIZE 9
0.038653112 0.038653112 0.038653112
0.148202433 0.041363493 0.0395891463
0.272814565 0.0458073396 0.0411238355
0.394214308 0.0593938619 0.0458159618
0.513038455 0.101093113 0.060216862
0.631049274 0.220574251 0.104415571
0.748797741 0.353990324 0.22785416
0.866461004 0.476284163 0.360426523
0.984096536 0.595384574 0.482493034
0.0468140932 0.160159899 0.0302747916
0.156363414 0.16287028 0.0312108258
0.276161384 0.167314126 0.032745515
0.395277752 0.180900649 0.0374376414
0.513382178 0.216037561 0.0518385416
0.631160976 0.281896653 0.0960372506
0.748834105 0.375073971 0.222352486
0.866472849 0.483319983 0.358901112
0.984100395 0.597696776 0.482019019
0.0601945545 0.285205483 0.0165379884
0.169743876 0.286204316 0.0174740226
0.281427643 0.28782166 0.0190087119
0.396998339 0.292617247 0.0237008382
0.513943309 0.306099442 0.0381017384
0.631343862 0.339134984 0.0823004475
0.748893699 0.402476536 0.212656733
0.866492267 0.493922843 0.356351078
0.984106722 0.601380838 0.481237176
0.101103693 0.405561921 0
0.20711433 0.40588002 0
0.296061105 0.406399485 0
0.40209029 0.407971915 0
0.515640514 0.412655808 0
0.631901043 0.425849467 0.0403018364
0.749075691 0.458314336 0.175954876
0.866551612 0.52095283 0.348146424
0.984126063 0.611903016 0.478809987
0.218905467 0.524059773 0
0.276255448 0.524162661 0
0.331328052 0.524331133 0
0.416332773 0.524844545 0
0.520684352 0.526404777 0
0.633592869 0.531053393 0
0.749632291 0.544155694 0.0470542957
0.866733542 0.576438893 0.318011372
0.984185402 0.638851773 0.470989231
0.352078604 0.641965664 0
0.371587622 0.641999108 0
0.397338891 0.642053917 0
0.450849965 0.642221314 0
0.534803926 0.642733418 0
0.638621227 0.644289717 0
0.751322372 0.648926953 0
0.867289953 0.661999761 0.0677786934
0.984367312 0.694224209 0.442535703
0.474307224 0.759680087 0
0.480788635 0.759690975 0
0.490618329 0.759708825 0
0.515977775 0.759763379 0
0.56908373 0.759930636 0
0.652701211 0.760442316 0
0.756345707 0.761997337 0
0.868979466 0.766630878 0
0.984923661 0.779694104 0.131385247
0.593387587 0.877332274 0
0.595514203 0.877335821 0
0.598910243 0.877341636 0
0.608659475 0.877359412 0
0.633929072 0.877413951 0
0.686904379 0.877581162 0
0.770412841 0.878092704 0
0.874001166 0.87964731 0
0.986612989 0.884279648 0
0.711480499 0.994964199 0
0.71217503 0.994965354 0
0.713303899 0.994967249 0
0.716681794 0.994973041 0
0.726417772 0.994990815 0
0.751658232 0.995045349 0
0.804591113 0.995212546 0
0.888064118 0.995724043 0
0.991634157 0.997278514 0
0.0371253824 0.0306185169 0.162277971
0.146674703 0.033328898 0.163214005
0.272176 0.0377727445 0.164748694
0.394014028 0.0513592669 0.169440821
0.512973984 0.0930585176 0.183803601
0.631028351 0.214914879 0.21986249
0.748790932 0.352434697 0.286791297
0.866458787 0.475801856 0.38068327
0.984095814 0.595229869 0.489249152
0.0452863636 0.152125304 0.15389965
0.154835685 0.154835685 0.154835685
0.275542932 0.159279531 0.156370374
0.395079494 0.172866054 0.1610625
0.513317919 0.210120848 0.1754634
0.631140075 0.278780407 0.213912667
0.748827299 0.373803341 0.283690115
0.866470632 0.482869035 0.379427367
0.984099673 0.597545446 0.488804771
0.0586668249 0.282187415 0.140162847
0.168216146 0.283215263 0.141098881
0.280839561 0.284878992 0.142633571
0.39680331 0.289807868 0.147325697
0.513879393 0.303632949 0.161726597
0.631322997 0.337340632 0.203362293
0.748886897 0.40149941 0.27839834
0.86649005 0.493515336 0.377335126
0.984106 0.601234735 0.488072079
0.0995759638 0.404613247 0.0981642362
0.205916498 0.404934232 0.0991002704
0.295549791 0.40545839 0.10063496
0.401904512 0.407044886 0.105327086
0.515577624 0.411769437 0.119727986
0.631880288 0.425068255 0.163926695
0.749068901 0.457741651 0.260334387
0.866549397 0.520638038 0.370666562
0.984125341 0.611770868 0.485799682
0.21783565 0.523754182 0
0.275637552 0.523857369 0
0.330962995 0.524026333 0
0.416170601 0.524541235 0
0.520624416 0.526105952 0
0.633572446 0.53076754 0.0350261149
0.749625536 0.543903449 0.170679155
0.866731331 0.576253533 0.347068886
0.98418468 0.638749581 0.478501082
0.351779166 0.641866462 0
0.371339067 0.641899938 0
0.397144495 0.641954799 0
0.450733294 0.642122353 0
0.53475154 0.64263494 0
0.63860176 0.64419269 0
0.751315725 0.648834125 0
0.867287753 0.661917814 0.190919075
0.984366591 0.694163945 0.452282668
0.474213944 0.759647804 0
0.480700947 0.759658695 0
0.490538489 0.75967655 0
0.515915087 0.759731121 0
0.569045951 0.759898429 0
0.65268419 0.760410266 0
0.756339371 0.76196576 0
0.868977302 0.766600665 0
0.984922944 0.77966743 0.23700194
0.593357623 0.87732176 0
0.595484841 0.877325307 0
0.598881816 0.877331122 0
0.608633572 0.8773489 0
0.633908715 0.877403444 0
0.686892095 0.877570673 0
0.7704073 0.878082266 0
0.873999103 0.879637025 0
0.986612284 0.884269808 0
0.711470781 0.994960773 0
0.712165375 0.994961929 0
0.713294348 0.994963823 0
0.716672546 0.994969616 0
0.726409344 0.994987391 0
0.751651606 0.995041926 0
0.804587113 0.995209129 0
0.888062313 0.995720643 0
0.991633485 0.997275163 0
0.03462057 0.017445274 0.287255484
0.144169891 0.020155655 0.287594822
0.271120546 0.0245995015 0.288148825
0.393684827 0.0381860239 0.289824695
0.512868196 0.0798852746 0.294807107
0.630994036 0.204919605 0.308769471
0.748779768 0.349833138 0.342744446
0.866455151 0.475006251 0.407225009
0.98409463 0.594975725 0.499463171
0.0427815512 0.138952061 0.2841682
0.152330872 0.141662442 0.284517658
0.274520983 0.146106288 0.28508811
0.394753625 0.159692811 0.286813198
0.513212477 0.19963398 0.291937247
0.631105797 0.27346187 0.306261615
0.748816138 0.371686166 0.340936508
0.866466997 0.482125454 0.406251196
0.984098489 0.597296858 0.499060102
0.0561620125 0.277043099 0.278901105
0.165711333 0.27812235 0.279268528
0.279868171 0.279868171 0.279868171
0.396482761 0.285032386 0.281680527
0.513774514 0.299459097 0.287055081
0.631288778 0.334330585 0.302015471
0.748875743 0.399877384 0.337903138
0.866486415 0.492843757 0.404634738
0.984104816 0.600994748 0.498395874
0.0970711514 0.403039025 0.260931373
0.203922483 0.403364856 0.261367315
0.294706025 0.403896896 0.262078173
0.401599201 0.405507005 0.264222125
0.51547443 0.410299767 0.270541238
0.631846251 0.42377468 0.287852458
0.749057766 0.456795878 0.328044428
0.866545764 0.520119862 0.399532213
0.984124157 0.61155384 0.496338591
0.216057654 0.523251211 0.17195468
0.274616529 0.523354894 0.172890714
0.330361696 0.523524668 0.174425403
0.415904166 0.524042032 0.179117529
0.520526072 0.525614159 0.192825682
0.633538954 0.530297173 0.226338958
0.74961446 0.54348856 0.290262556
0.866727704 0.575948914 0.38211533
0.984183496 0.638581814 0.489760068
0.35128636 0.641703612 0
0.370930265 0.641737139 0
0.396824988 0.641792085 0
0.450541724 0.6419599 0
0.534665594 0.642473279 0
0.638569836 0.644033414 0
0.751304827 0.648681748 0
0.867284146 0.661783318 0.297331553
0.98436541 0.694065063 0.466530375
0.474060827 0.759594852 0
0.480557019 0.759605749 0
0.490407454 0.759623613 0
0.515812225 0.759678211 0
0.568983981 0.759845604 0
0.652656278 0.760357698 0
0.756328982 0.761913965 0
0.868973752 0.76655111 0
0.984921769 0.77962368 0.316457692
0.593308477 0.877304518 0
0.595436681 0.877308066 0
0.598835192 0.877313882 0
0.608591088 0.877331663 0
0.63387533 0.877386216 0
0.686871951 0.877553472 0
0.770398215 0.878065149 0
0.873995719 0.87962016 0
0.986611128 0.884253671 0
0.711454845 0.994955157 0
0.712149545 0.994956312 0
0.713278687 0.994958207 0
0.716657381 0.994964 0
0.726395524 0.994981776 0
0.751640743 0.995036314 0
0.804580555 0.995203526 0
0.888059354 0.995715067 0
0.991632382 0.997269669 0
0.0269624095 0 0.407449959
0.136511731 0 0.407557963
0.267826132 0 0.407734803
0.392671877 0 0.408273627
0.512544096 0.0396096805 0.40991029
0.630889053 0.167591475 0.41477969
0.748745627 0.341453753 0.428451958
0.866444034 0.472535667 0.461860894
0.984091008 0.594194868 0.525657871
0.0351233907 0.0986764666 0.406478241
0.144672712 0.101386848 0.40658725
0.271333274 0.105830694 0.406765733
0.393750994 0.119417216 0.407309545
0.51288944 0.161116467 0.408961203
0.631000925 0.255295623 0.413873843
0.748782009 0.364934686 0.427657238
0.866455881 0.479818791 0.461283552
0.984094867 0.596533154 0.525344013
0.048503852 0.259540526 0.404865306
0.158053173 0.260814583 0.404976003
0.276841207 0.262870564 0.405157246
0.3954966 0.268917562 0.405709441
0.513453207 0.285559086 0.407386286
0.63118409 0.32455247 0.412371508
0.748841633 0.394756705 0.426341069
0.866475302 0.490763401 0.46033003
0.984101194 0.600257593 0.52482738
0.0894129909 0.398074052 0.399774261
0.197579736 0.398415652 0.399890461
0.292083395 0.39897333 0.4000807
0.400660202 0.400660202 0.400660202
0.515158296 0.405674297 0.402419055
0.631742118 0.419717789 0.407640122
0.749023715 0.453850237 0.422211453
0.866534656 0.518519534 0.4573598
0.984120536 0.610887506 0.523231868
0.210426838 0.521698304 0.382401041
0.271431767 0.521803533 0.38253816
0.328501623 0.521975834 0.382762588
0.41508535 0.522500876 0.383445786
0.520224824 0.524096097 0.385515267
0.633436488 0.528845859 0.391623246
0.74958059 0.542209811 0.408415372
0.866716616 0.575012053 0.447680161
0.984179878 0.638067216 0.51817771
0.349765144 0.641204141 0.297971647
0.369670427 0.641237828 0.298278076
0.395842055 0.641293036 0.298778558
0.449953842 0.64146165 0.300294073
0.534402385 0.641977468 0.304813226
0.638472172 0.643544941 0.3175793
0.751271498 0.648214497 0.349189803
0.867273116 0.661371042 0.410759575
0.984361798 0.693762163 0.500944621
0.473591296 0.759432791 0
0.480115746 0.759443705 0
0.490005812 0.759461596 0
0.515497109 0.759516279 0
0.568794288 0.75968393 0
0.652570892 0.760196812 0
0.756297212 0.761755451 0
0.868962899 0.766399456 0
0.984918176 0.779489809 0.417643584
0.593158075 0.877251787 0
0.595289303 0.877255336 0
0.598692515 0.877261155 0
0.608461091 0.877278945 0
0.633773192 0.877333526 0
0.686810339 0.877500866 0
0.770370434 0.878012799 0
0.873985373 0.879568581 0
0.986607592 0.884204321 0
0.711406109 0.994937983 0
0.712101131 0.994939139 0
0.713230791 0.994941034 0
0.716611004 0.994946828 0
0.726353259 0.994964606 0
0.75160752 0.995019154 0
0.804560501 0.995186393 0
0.888050307 0.995698017 0
0.991629012 0.997252871 0
0.0034582673 0 0.525896774
0.113007588 0 0.5259317
0.257016183 0 0.52598894
0.389500442 0 0.526163749
0.51154308 0 0.526698455
0.630566184 0.0439791148 0.528322737
0.748640773 0.310542269 0.533156414
0.866409907 0.464567923 0.546736752
0.984079893 0.591761336 0.579965346
0.0116192485 0 0.52558363
0.12116857 0 0.525618661
0.260897097 0 0.525676072
0.390612511 0 0.525851403
0.511891731 0.0375041068 0.526387699
0.630678401 0.165485901 0.528016764
0.748677192 0.340996718 0.53286424
0.866421758 0.472404893 0.546480104
0.984083752 0.594153886 0.579778447
0.0249997098 0.174282412 0.525068179
0.134549031 0.176992793 0.525103383
0.266964886 0.181435423 0.525161076
0.392410687 0.194161434 0.525337269
0.512460871 0.225691346 0.525876194
0.63086213 0.287159292 0.527513161
0.748736875 0.377270734 0.532383434
0.866441185 0.484107952 0.54605795
0.98409008 0.597962242 0.57947129
0.0659088487 0.381178806 0.523476354
0.17545817 0.381579995 0.523512096
0.283598518 0.382234468 0.523570671
0.397724622 0.384210481 0.523749553
0.514182036 0.390052652 0.524296677
0.631421868 0.406186085 0.525958285
0.748919139 0.444255696 0.530899607
0.866500559 0.513449629 0.544756623
0.984109424 0.608815579 0.578526577
0.190975565 0.516783347 0.51843425
0.261005889 0.516893621 0.518471752
0.32257765 0.517074173 0.518533209
0.412531597 0.517624268 0.518720885
0.519294805 0.519294805 0.519294805
0.633121379 0.524261855 0.521036901
0.749476568 0.538184852 0.526209836
0.866682577 0.572083283 0.540658744
0.984168772 0.636471882 0.575572799
0.34495357 0.63965616 0.501246905
0.365706499 0.639690348 0.501291083
0.392766439 0.639746377 0.501363475
0.448128681 0.639917494 0.501584495
0.533590406 0.640440943 0.502259947
0.638171854 0.642031372 0.504306269
0.75116914 0.64676729 0.510348472
0.867239258 0.660095482 0.526978138
0.984350711 0.692827015 0.565950108
0.472136965 0.758933831 0.418311267
0.478749697 0.758944797 0.418408651
0.488763415 0.758962773 0.418568125
0.514524012 0.759017716 0.419054197
0.568209939 0.759186166 0.420532118
0.652308394 0.759701482 0.424942264
0.756199645 0.761267444 0.437424079
0.868929581 0.765932632 0.468460771
0.984907148 0.779077864 0.529301643
0.592695117 0.87708978 0
0.594835676 0.877093335 0
0.598253401 0.877099163 0
0.608061101 0.87711698 0
0.633459094 0.877171645 0
0.686621015 0.877339243 0
0.770285123 0.877851964 0
0.873953614 0.879410115 0
0.98659674 0.884052712 0
0.711256388 0.994885258 0
0.711952399 0.994886414 0
0.713083654 0.99488831 0
0.716468536 0.994894106 0
0.726223436 0.994911894 0
0.75150549 0.994966469 0
0.804498928 0.995133792 0
0.888022534 0.995645672 0
0.991618667 0.997201296 0
0 0 0.643786213
0.0408695463 0 0.643797565
0.214510621 0 0.643816175
0.379121122 0 0.643873052
0.508409754 0 0.644047426
0.629568996 0 0.644580803
0.748318304 0.0573896203 0.646201092
0.866305095 0.435474476 0.651023242
0.98404577 0.583919112 0.664573895
0 0 0.643684546
0.0490305275 0 0.643695909
0.220278211 0 0.643714537
0.380348191 0 0.64377147
0.50876896 0 0.643946012
0.629682285 0 0.644479904
0.748354835 0.178896407 0.64610174
0.866316958 0.445697968 0.650928357
0.984049631 0.58649514 0.664490514
0 0 0.643517643
0.0624109888 0 0.643529024
0.229097841 0 0.643547682
0.382329499 0 0.643604705
0.509355251 0 0.643779525
0.629867765 0 0.644314263
0.748414702 0.291923456 0.645938643
0.866336404 0.460563975 0.6507726
0.984055961 0.590586424 0.664353661
0 0.300543218 0.643005704
0.103320128 0.301406727 0.643017141
0.252214836 0.302807301 0.64303589
0.388164875 0.306976937 0.643093192
0.511127705 0.318827772 0.643268866
0.630432821 0.348573776 0.643806207
0.748597526 0.407741432 0.645438413
0.866395838 0.496156747 0.650294952
0.984075311 0.60218824 0.663934139
0.119327619 0.500076959 0.641418694
0.220438416 0.500206262 0.641430306
0.301975677 0.500417919 0.641449341
0.404281393 0.501062397 0.641507516
0.51638782 0.503016033 0.641685863
0.632148302 0.508794432 0.642231355
0.749156662 0.524768966 0.643888058
0.866578038 0.562547074 0.648815242
0.984134678 0.631418303 0.662635981
0.328636206 0.634757282 0.636392334
0.352511515 0.634793104 0.636404515
0.382721074 0.63485181 0.636424484
0.442320033 0.635031094 0.636485513
0.53105832 0.635579441 0.6366726
0.637244724 0.637244724 0.637244724
0.750854363 0.642196637 0.638981429
0.867135272 0.656080819 0.644138872
0.984316676 0.6899037 0.658548336
0.467543151 0.757387448 0.619264694
0.474442407 0.757398577 0.619279035
0.484855726 0.757416821 0.619302546
0.511479769 0.75747258 0.619374393
0.566395872 0.757643527 0.619594596
0.651498618 0.758166459 0.620267563
0.75589963 0.759755333 0.62230645
0.868827259 0.764486758 0.628327527
0.984873293 0.77780334 0.644904939
0.591261325 0.876590986 0.536803824
0.593431044 0.876594557 0.536835302
0.596894094 0.876600413 0.536886891
0.606823854 0.876618316 0.537044462
0.63248916 0.876673241 0.537526601
0.686037807 0.876841637 0.538992673
0.770022855 0.87735679 0.54336843
0.873856079 0.87892226 0.555760344
0.986563426 0.883586026 0.586614581
0.710795531 0.994723268 0
0.711494597 0.994724426 0
0.712630774 0.994726325 0
0.716030067 0.994732131 0
0.725823981 0.994749946 0
0.751191722 0.994804605 0
0.804309724 0.994972186 0
0.887937247 0.995484854 0
0.991586911 0.997042847 0
0 0 0.761495294
0 0 0.76149899
0 0 0.761505049
0.338785693 0 0.761523573
0.498163421 0 0.761580404
0.626447891 0 0.761754636
0.747322357 0 0.762287582
0.865982756 0.0985486469 0.763906574
0.983940972 0.555372419 0.76872498
0 0 0.761462207
0 0 0.761465904
0.00724038371 0 0.761471965
0.340583305 0 0.761490495
0.498559418 0 0.761547344
0.626564599 0 0.761721631
0.747359236 0 0.762254744
0.865994655 0.214199665 0.763874239
0.983944837 0.558741412 0.768694097
0 0 0.761407936
0 0 0.761411635
0.020620845 0 0.761417699
0.34346553 0 0.761436238
0.499205463 0 0.761493117
0.62675567 0 0.761667494
0.747419674 0 0.762200882
0.866014162 0.305324589 0.763821202
0.983951173 0.564041154 0.768643443
0 0 0.761241835
0 0 0.76124554
0.0615299839 0 0.761251614
0.351816192 0 0.761270182
0.501156341 0 0.761327151
0.627337696 0 0.761501804
0.74760424 0 0.762036033
0.866073778 0.412375914 0.763658882
0.983970543 0.578759246 0.768488422
0 0.420898769 0.760730396
0.00747353572 0.421173652 0.760734119
0.186916432 0.421622788 0.760740222
0.373944611 0.422984159 0.760758881
0.506926878 0.427055386 0.760816128
0.629104122 0.438646525 0.760991633
0.748168682 0.467854379 0.761528461
0.866256538 0.526310235 0.763159121
0.984029969 0.614187413 0.768011202
0.252389727 0.618111518 0.759144949
0.296912883 0.6181535 0.759148728
0.344032252 0.618222296 0.759154925
0.422172623 0.618432351 0.759173868
0.522881797 0.61907443 0.759231986
0.634346936 0.621020884 0.75941016
0.749882319 0.626778805 0.759955122
0.866815478 0.642702241 0.761610233
0.984212148 0.680386343 0.766532829
0.452039267 0.752493786 0.754123697
0.459996828 0.752505446 0.754127662
0.471863778 0.752524561 0.754134162
0.501543453 0.752582982 0.754154034
0.560623835 0.75276208 0.754215001
0.648973513 0.753309859 0.754401896
0.754973438 0.754973438 0.754973438
0.86851259 0.759920437 0.756708393
0.984769319 0.77379202 0.761860809
0.586734266 0.875045123 0.737015419
0.588998656 0.875048748 0.737020087
0.59260864 0.875054691 0.737027739
0.602932767 0.875072859 0.73705113
0.629455001 0.8751286 0.737122891
0.684227326 0.875299492 0.737342829
0.769213795 0.875822256 0.73801499
0.873556162 0.877410623 0.740051467
0.986461115 0.882140586 0.746065692
0.709368307 0.994224528 0.654708008
0.710076918 0.994225692 0.654718238
0.711228471 0.9942276 0.654735008
0.714672774 0.994233433 0.654786263
0.724588403 0.994251333 0.654943419
0.750222814 0.994306253 0.65542429
0.803726888 0.994474631 0.656886542
0.887675055 0.994989731 0.66125121
0.991489387 0.996555041 0.673614111
0 0 0.879145742
0 0 0.879146946
0 0 0.87914892
0 0 0.879154955
0.458487431 0 0.879173473
0.616244154 0 0.879230289
0.744205213 0 0.879404475
0.864987213 0 0.879937281
0.983618675 0.217652228 0.881555851
0 0 0.879134966
0 0 0.87913617
0 0 0.879138144
0 0 0.879144179
0.45906499 0 0.8791627
0.616372779 0 0.879219522
0.744243204 0 0.879393725
0.864999225 0 0.879926586
0.983622552 0.280278251 0.881545319
0 0 0.879117295
0 0 0.879118499
0 0 0.879120474
0 0 0.87912651
0.460005106 0 0.879145033
0.616583329 0 0.879201865
0.744305464 0 0.879376098
0.865018918 0 0.879909048
0.983628907 0.338200277 0.881528049
0 0 0.87906325
0 0 0.879064454
0 0 0.87906643
0 0 0.879072469
0.462828221 0 0.879091002
0.617224448 0 0.879147863
0.744495586 0 0.879322186
0.865079102 0 0.879855409
0.983648337 0.425441579 0.881475232
0 0 0.878897201
0 0 0.878898408
0 0 0.878900386
0.0567094536 0 0.878906435
0.471046697 0 0.878924998
0.619168027 0 0.878981949
0.745076961 0 0.879156547
0.865263602 0 0.879690611
0.983707946 0.530903975 0.881312962
0 0.539396342 0.878385924
0 0.539485239 0.878387137
0 0.539630829 0.878389125
0.312068865 0.540074704 0.878395203
0.492871093 0.541425417 0.878413856
0.624917747 0.545465575 0.878471085
0.746841432 0.556974543 0.878646536
0.865827844 0.586011265 0.879183196
0.983890685 0.644238978 0.880813353
0.381637887 0.73586768 0.876800985
0.396681176 0.735881343 0.876802217
0.417457881 0.735903741 0.876804235
0.463385641 0.735972189 0.876810406
0.540620218 0.736181989 0.876829343
0.640820713 0.73682329 0.876887443
0.752078633 0.738767416 0.87706556
0.867540881 0.744518695 0.877610349
0.984449561 0.760425554 0.879264943
0.571478163 0.870153158 0.871781396
0.574092684 0.870156956 0.871782687
0.578243164 0.870163183 0.871784804
0.590000657 0.870182218 0.871791278
0.619553706 0.870240619 0.871811143
0.678467119 0.870419656 0.871872089
0.766690956 0.870967251 0.872058923
0.872630275 0.872630275 0.872630275
0.986146481 0.877575676 0.874364661
0.704862581 0.992678835 0.854679418
0.705602186 0.992680016 0.854680938
0.706803643 0.992681953 0.85468343
0.710393844 0.992687872 0.85469105
0.720702695 0.992706038 0.854714432
0.747191927 0.992761773 0.854786165
0.801917572 0.992932647 0.855006017
0.886866227 0.993455356 0.855677916
0.991189502 0.995043559 0.857713609
0 0 0.996777101
0 0 0.996777493
0 0 0.996778136
0 0 0.996780102
0 0 0.996786136
0.576778336 0 0.996804653
0.734015278 0 0.996861464
0.861871357 0 0.997035635
0.982623263 0 0.997568396
0 0 0.99677359
0 0 0.996773982
0 0 0.996774625
0 0 0.996776591
0 0 0.996782626
0.57696567 0 0.996801143
0.734057145 0 0.996857956
0.861883731 0 0.997032133
0.982627177 0 0.997564911
0 0 0.996767834
0 0 0.996768226
0 0 0.996768869
0 0 0.996770835
0 0 0.99677687
0.577272093 0 0.996795388
0.734125752 0 0.996852205
0.861904017 0 0.997026391
0.982633593 0 0.997559198
0 0 0.996750232
0 0 0.996750625
0 0 0.996751268
0 0 0.996753234
0 0 0.99675927
0.578203431 0 0.996777792
0.734335232 0 0.996834617
0.861966015 0 0.997008833
0.982653208 0 0.997541729
0 0 0.996696192
0 0 0.996696585
0 0 0.996697228
0 0 0.996699196
0 0 0.996705235
0.581011284 0 0.996723766
0.734975561 0 0.996780621
0.862156068 0 0.996954926
0.982713385 0 0.997488096
0 0 0.996530161
0 0 0.996530554
0 0 0.996531199
0 0 0.99653317
0.0419144607 0 0.996539218
0.589187591 0 0.996557778
0.736916773 0 0.996614723
0.862737231 0 0.996789304
0.982897864 0 0.997323314
0 0.657302142 0.996018937
0 0.657331037 0.996019332
0 0.657378395 0.99601998
0 0.657523052 0.99602196
0.432032206 0.657965788 0.996028038
0.610914733 0.659313064 0.996046689
0.742659744 0.663343201 0.996103912
0.864501066 0.674825647 0.996279345
0.983462041 0.703807045 0.99681595
0.502785718 0.853533447 0.994434164
0.507761916 0.853537897 0.994434565
0.515442035 0.853545193 0.994435223
0.535943271 0.853567496 0.994437233
0.581565739 0.853635916 0.994443403
0.658509908 0.853845633 0.994462339
0.758545856 0.854486682 0.994520432
0.869736441 0.85643005 0.994698531
0.985174882 0.862179168 0.995243264
0.689685505 0.987787423 0.989415115
0.690539791 0.98778866 0.989415536
0.691925565 0.987790689 0.989416226
0.696052281 0.987796891 0.989418335
0.707789962 0.987815924 0.989424808
0.737301988 0.987874318 0.989444671
0.796161208 0.988053336 0.98950561
0.884344125 0.98860087 0.989692423
0.990263714 0.990263714 0.990263714
