Luts/DJI/DJI_DLogM_to_VLog.cube
TITLE "DJI D-Log M / D-Gamut to Panasonic V-Log / V-Gamut"
LUT_3D_SIZE 9
0.00757651318 0.00757651318 0.00757651318
0.157693036 0.0112905752 0.0088591702
0.301984259 0.0174962695 0.0110023162
0.390632651 0.0284209616 0.0147751754
0.460572506 0.0465740472 0.0210443714
0.533867989 0.0842985693 0.0340725929
0.611929291 0.167189791 0.0626992035
0.700037479 0.290862273 0.134492566
0.984095697 0.594798956 0.480738339
0.0187595868 0.174078471 0
0.16887611 0.177792533 0
0.30545494 0.183955868 0
0.392137344 0.194072975 0.00329427963
0.461347631 0.208986486 0.00956347556
0.534254085 0.234504357 0.0225916971
0.612112902 0.275235049 0.0512183077
0.700116784 0.337298102 0.12301167
0.984100985 0.597972023 0.480077246
0.0374449872 0.314957076 0
0.187364153 0.3159876 0
0.311009383 0.31768719 0
0.394604296 0.320613874 0
0.462630114 0.325303384 0
0.534896044 0.334425714 0.00340867636
0.612418975 0.352054944 0.0320352869
0.700249157 0.386444203 0.103828649
0.98410982 0.603068547 0.478963266
0.0703393319 0.402408639 0
0.214491038 0.402857556 0
0.320125327 0.403603375 0
0.39881102 0.404903588 0
0.464850423 0.407029077 0
0.536016708 0.411312987 0
0.612955634 0.420153072 0
0.700481786 0.439512901 0.0700582787
0.984125372 0.611479683 0.476972966
0.124998433 0.471906592 0
0.248172877 0.472138255 0
0.333713827 0.472524194 0
0.405448326 0.473200182 0
0.468438945 0.474313896 0
0.53785279 0.476591196 0
0.613841351 0.481427874 0
0.700867198 0.492659111 0.0139435231
0.984151208 0.624117513 0.4735799
0.226902214 0.544966935 0
0.295538141 0.545082436 0
0.35732991 0.54527514 0
0.418028642 0.545613524 0
0.475525375 0.546173399 0
0.541568606 0.547327422 0
0.615658406 0.549819393 0
0.701663634 0.555820419 0
0.984204879 0.646332321 0.466156781
0.32451606 0.622905985 0
0.357099154 0.62296094 0
0.395794033 0.623052697 0
0.441295278 0.623214034 0
0.489594636 0.623481574 0
0.549298399 0.624035384 0
0.619543738 0.625242082 0
0.703392668 0.628208697 0
0.984322713 0.68306726 0.447726736
0.421420481 0.710951234 0
0.435588039 0.710974976 0
0.455678047 0.711014633 0
0.483749214 0.71108441 0
0.518302224 0.711200254 0
0.566496722 0.711440583 0
0.628698215 0.711966727 0
0.707607575 0.713274761 0
0.984617649 0.741225061 0.378782591
0.711296547 0.994964806 0
0.712248768 0.994966389 0
0.71382076 0.994969035 0
0.716532159 0.994973692 0
0.720888122 0.99498143 0
0.729400078 0.994997509 0
0.745981828 0.995032831 0
0.778750786 0.995121362 0
0.991634337 0.99727941 0
0.00548305008 0 0.176980886
0.155599573 0.000280689723 0.178263543
0.301321593 0.006486384 0.180406689
0.390348559 0.0174110762 0.184132003
0.460426764 0.0355641617 0.190046807
0.533795554 0.0732886838 0.201365158
0.611894884 0.156179906 0.222630747
0.700022627 0.286926638 0.262341411
0.984094708 0.594585716 0.490037618
0.0166661237 0.163068585 0.16549999
0.166782647 0.166782647 0.166782647
0.304813908 0.172988341 0.168925793
0.391857304 0.18387301 0.172698652
0.461202963 0.200196808 0.178967848
0.534181916 0.227676183 0.191456746
0.612078555 0.270653112 0.214612192
0.700101942 0.334787312 0.256916918
0.984099996 0.597765143 0.489432776
0.0353515241 0.311841336 0.146316969
0.185375198 0.312902774 0.147599626
0.31040151 0.314652671 0.149742772
0.394330774 0.317664043 0.153515632
0.462487206 0.322484283 0.159784827
0.534824315 0.331844351 0.172813049
0.612384728 0.349877123 0.199673823
0.700234334 0.384879738 0.247176249
0.984108831 0.602871488 0.488414318
0.0682458688 0.401066476 0.112546598
0.212958673 0.401521162 0.113829256
0.319568189 0.40227651 0.115972402
0.398548264 0.403593172 0.119745261
0.46471051 0.40574511 0.126014457
0.535945742 0.410080707 0.139042678
0.612921562 0.419020934 0.167669289
0.700466996 0.438572435 0.227465791
0.984124382 0.611297823 0.486597008
0.12290497 0.471216833 0.056431843
0.247063634 0.471450023 0.0577145
0.333224546 0.471838498 0.059857646
0.405201701 0.472518906 0.0636305052
0.468303741 0.473639839 0.0698997011
0.537783056 0.475931661 0.0829279227
0.613807565 0.480798151 0.111554533
0.700852462 0.492093506 0.183321696
0.984150219 0.623956312 0.483505846
0.225541968 0.544623795 0
0.29483333 0.544739675 0
0.356939455 0.544933009 0
0.417809921 0.545272497 0
0.475399009 0.54583419 0
0.5415013 0.546991931 0
0.615625201 0.549491791 0
0.70164901 0.555511061 0.0667339829
0.98420389 0.646201908 0.476774987
0.323981821 0.62274291 0
0.356707838 0.62279795 0
0.3955236 0.62288985 0
0.441120107 0.623051438 0
0.489484141 0.623319392 0
0.549235876 0.623874056 0
0.61951174 0.625082602 0
0.703378283 0.628053667 0
0.984321725 0.682975397 0.460267069
0.421208728 0.710880823 0
0.435403063 0.710904581 0
0.455525338 0.710944265 0
0.483632383 0.711014089 0
0.518218196 0.71113001 0
0.566443657 0.7113705 0
0.628668892 0.711896994 0
0.707593757 0.713205893 0
0.984616664 0.741172307 0.401772236
0.711283207 0.994960112 0
0.712235548 0.994961695 0
0.713807737 0.994964341 0
0.716519468 0.994968998 0
0.720875947 0.994976737 0
0.729388852 0.994992817 0
0.745972244 0.99502814 0
0.778743774 0.995116675 0
0.991633415 0.997274819 0
0.001985157 0 0.317096607
0.15210168 0 0.317446448
0.300204939 0 0.318028395
0.389872156 0 0.319045091
0.460182797 0.0171681353 0.320712997
0.533674414 0.0548926574 0.324096548
0.611837368 0.137783879 0.331168643
0.699997806 0.280002176 0.347054155
0.984093053 0.594228449 0.503942754
0.0131682307 0.144672559 0.313912138
0.163284754 0.148386621 0.314272745
0.30373401 0.154592315 0.314872518
0.39138772 0.165517007 0.315920115
0.460960797 0.183636367 0.317638051
0.534061221 0.215170984 0.321120611
0.61202114 0.262520334 0.328389338
0.70007714 0.330453181 0.344669931
0.984098342 0.597418562 0.503413199
0.031853631 0.306419515 0.308365628
0.181965386 0.307536964 0.308745782
0.309377909 0.309377909 0.309377909
0.393872158 0.312542273 0.310481552
0.46224799 0.317598008 0.31229013
0.534704358 0.327384232 0.315951716
0.61232748 0.346134245 0.323574587
0.700209563 0.38221251 0.340561159
0.984107177 0.602541401 0.502522373
0.0647479757 0.398784858 0.29782641
0.210347265 0.39924952 0.298246666
0.318630632 0.400021345 0.298945122
0.398107761 0.40136644 0.300163517
0.464476317 0.403564071 0.302157287
0.535827061 0.407988871 0.306183214
0.612864607 0.417101583 0.314521294
0.70044228 0.43698198 0.332912167
0.984122729 0.610993254 0.500935515
0.119407077 0.470054121 0.2775674
0.245183656 0.470289907 0.27807698
0.332401896 0.470682695 0.278922935
0.404788326 0.471370617 0.2803958
0.468077444 0.472503823 0.282798364
0.537666437 0.474820329 0.287621834
0.613751089 0.479737459 0.297500205
0.700827837 0.491141597 0.318821825
0.984148566 0.623686413 0.498244427
0.223229064 0.544047939 0.216230549
0.293645015 0.544164457 0.217143285
0.356283797 0.544358853 0.218650841
0.417443448 0.544700201 0.221253254
0.475187528 0.545264959 0.225439695
0.541388744 0.546428965 0.23363932
0.615569695 0.548942119 0.249678609
0.701624571 0.554992121 0.281592034
0.984202238 0.645983642 0.492420914
0.323083064 0.622469867 0
0.356050726 0.62252505 0
0.395070182 0.622617189 0
0.440826765 0.622779197 0
0.489299258 0.623047847 0
0.549131326 0.623603946 0
0.619458255 0.624815589 0.0217593068
0.703354244 0.627794121 0.0935526693
0.984320075 0.682821727 0.478361626
0.420853959 0.710763071 0
0.435093265 0.710786855 0
0.455269685 0.710826583 0
0.483436882 0.710896486 0
0.518077647 0.711012537 0
0.566354933 0.711253296 0
0.628619879 0.711780377 0
0.707570664 0.713090723 0
0.984615018 0.741084103 0.431594792
0.711260913 0.994952269 0
0.712213455 0.994953852 0
0.713785973 0.994956498 0
0.71649826 0.994961156 0
0.720855602 0.994968895 0
0.729370093 0.994984976 0
0.745956228 0.995020302 0
0.778732056 0.995108844 0
0.991631876 0.997267146 0
0 0 0.404363403
0.145943883 0 0.40451579
0.29820979 0 0.404769915
0.389028188 0 0.405215794
0.459751926 0 0.405952526
0.533460813 0.0225077354 0.407467198
0.61173604 0.105398957 0.410720459
0.699954096 0.266577111 0.418461354
0.984090141 0.593596535 0.524677171
0.00701043373 0.112287637 0.402989456
0.157126957 0.116001699 0.403143851
0.301805485 0.122207393 0.403401317
0.390555907 0.133132085 0.40385304
0.460533116 0.151285171 0.404599371
0.533848408 0.188718298 0.406133568
0.611919989 0.246465028 0.40942781
0.700033463 0.322358981 0.417261198
0.98409543 0.596805633 0.524242798
0.0256958341 0.296135721 0.40065284
0.175812357 0.297367609 0.400810711
0.307551298 0.299394181 0.401073961
0.393059892 0.302869364 0.401535797
0.461825536 0.308400854 0.40229874
0.534492847 0.319039889 0.403866706
0.612226624 0.339202082 0.407231777
0.700165942 0.377345644 0.415224741
0.984104265 0.601957771 0.523512981
0.0585901788 0.394643531 0.396408504
0.205585903 0.395126864 0.396572888
0.316959488 0.395929512 0.396846979
0.397327763 0.397327763 0.397327763
0.464062761 0.399610731 0.398121819
0.535617804 0.404201821 0.399752993
0.612764266 0.413634934 0.403250444
0.700398755 0.434122123 0.411540726
0.984119818 0.610454923 0.522215721
0.11324928 0.467975398 0.388952392
0.241789932 0.468215898 0.389128877
0.330937812 0.468616515 0.389423099
0.404056627 0.469318077 0.389939059
0.467677872 0.470473554 0.390790834
0.537460821 0.47283483 0.392539116
0.613651593 0.477843718 0.396281184
0.700784472 0.489444544 0.405117672
0.984145655 0.623209581 0.520023993
0.21902916 0.543026439 0.37152234
0.291519788 0.543144096 0.371730699
0.355119504 0.543340391 0.372077918
0.41679517 0.543685064 0.372686393
0.474814192 0.5442553 0.373689728
0.541190304 0.545430502 0.375744591
0.615471911 0.547967405 0.380123079
0.701581534 0.554072279 0.390361583
0.984199329 0.645598294 0.515317333
0.321481907 0.621987459 0.31842598
0.354883828 0.622042897 0.318771423
0.394267176 0.62213546 0.319346084
0.440308356 0.622298214 0.320350148
0.488972991 0.622568097 0.321997591
0.548947019 0.623126738 0.325340606
0.61936403 0.624343875 0.332332033
0.703311911 0.627335643 0.348054818
0.984317169 0.682550654 0.50416781
0.420226484 0.710555453 0
0.434545652 0.710579285 0
0.454818107 0.710619092 0
0.48309183 0.710689133 0
0.51782976 0.710805413 0
0.566198558 0.711046648 0
0.628533538 0.711574766 0
0.70753 0.712887667 0
0.984612121 0.740928646 0.469525718
0.711221654 0.99493846 0
0.712174552 0.994940043 0
0.713747648 0.99494269 0
0.716460913 0.994947348 0
0.720819775 0.994955088 0
0.729337061 0.994971171 0
0.745928028 0.995006502 0
0.778711425 0.995095055 0
0.991629166 0.997253639 0
0 0 0.473792517
0.13571174 0 0.473871154
0.294808242 0 0.474002414
0.387610609 0 0.47423309
0.459032029 0 0.474615276
0.533104918 0 0.475405083
0.611567449 0.0515863415 0.477119895
0.699881424 0.239585419 0.481301091
0.984085303 0.592538018 0.552038542
0 0.0584750209 0.473086011
0.146894814 0.0621890829 0.473165179
0.298520384 0.0683947772 0.473297325
0.389158963 0.0793194694 0.473529555
0.45981858 0.0974725549 0.473914308
0.533493827 0.135197077 0.474709391
0.611751694 0.212756376 0.476435521
0.699960847 0.307352557 0.480643547
0.984090591 0.595779168 0.551704066
0.0154636909 0.276443763 0.471894811
0.165580214 0.27792827 0.471974883
0.304443936 0.280362739 0.472108537
0.391696117 0.284515781 0.472343411
0.461119779 0.291072596 0.472732532
0.534140442 0.3035135 0.473536589
0.612058821 0.326562114 0.475281967
0.700093417 0.368723128 0.479535597
0.984099427 0.600980737 0.55114281
0.0483580356 0.387378519 0.469764344
0.197162469 0.387896431 0.469846058
0.314122353 0.388756126 0.46998245
0.396018707 0.390252647 0.470222128
0.463371947 0.392693084 0.470619184
0.535269165 0.397589979 0.471439542
0.612597322 0.407608442 0.473219869
0.700326391 0.429190505 0.47755623
0.98411498 0.609554247 0.550147403
0.103017137 0.464427484 0.466125648
0.235895967 0.464676249 0.466210246
0.328458886 0.465090589 0.466351446
0.402829391 0.465816053 0.466599556
0.467010537 0.467010537 0.467010537
0.537118264 0.469450161 0.467859495
0.613486056 0.474619335 0.469701098
0.700712374 0.486562454 0.474182286
0.984140819 0.622412425 0.548472198
0.211655542 0.541306743 0.458134434
0.287890293 0.541426344 0.458225726
0.353155804 0.541625877 0.458378085
0.415709015 0.541976221 0.458645767
0.474190881 0.542555798 0.459089057
0.540859733 0.543750088 0.460004324
0.615309224 0.546327462 0.461987797
0.701509982 0.552525749 0.466803208
0.984194495 0.64495483 0.544902902
0.318766064 0.621180925 0.438090527
0.352915669 0.62123679 0.438201033
0.392919109 0.621330067 0.438385415
0.439441231 0.621494074 0.438709219
0.488428594 0.621766031 0.439245071
0.548640047 0.622328949 0.440349962
0.619207274 0.623555325 0.442737589
0.70324153 0.626569348 0.448496883
0.98431234 0.682098668 0.536605495
0.419175462 0.710209553 0.359317778
0.433629339 0.710233464 0.359551819
0.454063413 0.710273402 0.359941709
0.482515949 0.710343674 0.36062458
0.517416559 0.710460338 0.361749538
0.565938199 0.710702367 0.364049458
0.628389914 0.711232217 0.368932563
0.707462394 0.712549386 0.380263627
0.984607306 0.74066982 0.51235088
0.711156387 0.99491551 0
0.712109875 0.994917094 0
0.713683935 0.994919741 0
0.716398827 0.9949244 0
0.720760217 0.994932142 0
0.729282149 0.994948228 0
0.745881151 0.994983567 0
0.778677133 0.99507214 0
0.991624663 0.99723119 0
0 0 0.546816093
0.114447988 0 0.546855299
0.28736558 0 0.546920774
0.384601954 0 0.547035939
0.457519995 0 0.547227024
0.532361435 0 0.547623014
0.611216227 0 0.548487898
0.699730243 0.147641462 0.550626101
0.984075246 0.590303507 0.592958107
0 0 0.546464513
0.125631062 0 0.546503851
0.291345582 0 0.546569545
0.386195024 0 0.546685096
0.458317924 0 0.546876821
0.532753106 0.0233673165 0.547274133
0.611401089 0.106258538 0.548141887
0.69980978 0.26695657 0.550287083
0.984080535 0.593613357 0.592731792
0 0.21763464 0.545874428
0.144316462 0.220221628 0.545913987
0.297676097 0.224406652 0.545980052
0.388803999 0.231391247 0.546096254
0.459637756 0.242058005 0.546289057
0.533404289 0.261264191 0.546688598
0.611709243 0.29410465 0.547561189
0.699942541 0.348156475 0.549718173
0.984089372 0.598920748 0.592352559
0.0270942834 0.370450276 0.544827489
0.177210807 0.371058637 0.544867445
0.307968926 0.372067316 0.544934172
0.393244912 0.373819794 0.545051538
0.461921626 0.376668578 0.545246269
0.534540919 0.382352243 0.545649794
0.612249537 0.393854155 0.546531034
0.70017585 0.41813444 0.548709088
0.984104926 0.607657414 0.591681595
0.0817533846 0.456646745 0.543064389
0.222473512 0.456914641 0.543105023
0.323111993 0.457360737 0.54317288
0.400232161 0.458141478 0.543292232
0.465609997 0.459426085 0.543490254
0.536402787 0.462046385 0.543900578
0.613141211 0.467583812 0.544796575
0.700562386 0.480307169 0.547010564
0.984130768 0.620736194 0.590557103
0.194442519 0.537640184 0.539302815
0.279920437 0.537764037 0.539344932
0.348953463 0.537970653 0.539415265
0.413415213 0.5383334 0.539538968
0.472883589 0.538933401 0.539744197
0.540169411 0.540169411 0.540169411
0.614970331 0.542835163 0.541097711
0.701361131 0.549237021 0.543390307
0.984184449 0.643604866 0.588180977
0.312886737 0.619484736 0.530530807
0.348703501 0.619541512 0.530576597
0.390060978 0.619636309 0.53065306
0.437615971 0.619802983 0.530787534
0.487288145 0.620079355 0.531010602
0.547999229 0.620651373 0.531472656
0.618880764 0.621897404 0.532480822
0.703095118 0.624958753 0.534967405
0.984302306 0.681153104 0.58276282
0.416957023 0.709487058 0.504636358
0.431699123 0.709511134 0.504694966
0.452477473 0.709551348 0.504792819
0.481308984 0.709622105 0.504964861
0.516552629 0.709739574 0.505250113
0.565395063 0.70998327 0.505840436
0.628090811 0.710516756 0.507125984
0.70732176 0.711842883 0.51028239
0.984597299 0.740129893 0.567799007
0.711020623 0.994867801 0
0.711975341 0.994869385 0
0.713551406 0.994872034 0
0.716269687 0.994876695 0
0.720636339 0.99488444 0
0.729167943 0.994900534 0
0.745783669 0.994935889 0
0.778605835 0.995024502 0
0.991615304 0.997184523 0
0 0 0.624735991
0.0677256362 0 0.624754645
0.268880569 0 0.624785805
0.377671367 0 0.624840638
0.45411903 0 0.624931688
0.530709047 0 0.625120649
0.610440339 0 0.625534658
0.699397287 0 0.626565829
0.984053146 0.585219763 0.649216571
0 0 0.624568878
0.0789087098 0 0.624587561
0.273610534 0 0.624618771
0.379372379 0 0.624673691
0.454943152 0 0.624764886
0.531106925 0 0.624954148
0.610626572 0 0.625368813
0.699477077 0.0684224673 0.626401608
0.984058436 0.588691296 0.649084266
0 0 0.624289058
0.0975941102 0 0.624307791
0.281066707 0 0.624339084
0.382154394 0 0.624394151
0.456305862 0.0181240457 0.624485589
0.531768376 0.0558485678 0.624675356
0.610937007 0.13873979 0.625091123
0.699610259 0.280373476 0.626126642
0.984067274 0.594247044 0.648862829
0 0.319486862 0.623794634
0.130488455 0.320474032 0.623813456
0.293028346 0.322103007 0.623844897
0.386879512 0.324910635 0.623900224
0.458662624 0.329415905 0.623992093
0.532922774 0.338201763 0.624182754
0.611481283 0.355255613 0.624600474
0.699844308 0.388759946 0.625640824
0.984082832 0.603364987 0.648471865
0.0350310327 0.437204683 0.622967882
0.185067349 0.437527052 0.622986853
0.310308138 0.438063487 0.623018542
0.394288837 0.439001227 0.623074307
0.46246531 0.440541125 0.623166902
0.53481333 0.443670704 0.623359067
0.612379484 0.450235862 0.623780074
0.700232065 0.465092434 0.624828553
0.984108679 0.616956161 0.647818977
0.148619902 0.529103079 0.621228652
0.259937817 0.529237428 0.62124794
0.339082003 0.529461523 0.62128016
0.408191642 0.529854867 0.621336856
0.469952558 0.530505226 0.621430997
0.538636431 0.531843996 0.621626366
0.614221819 0.534726964 0.622054371
0.70103332 0.541626767 0.623120155
0.984162372 0.640576141 0.646449051
0.298679069 0.615658494 0.617302656
0.33880734 0.615717379 0.617322679
0.38349312 0.615815693 0.617356127
0.433490179 0.615988546 0.617414984
0.484737835 0.616275139 0.61751271
0.546577269 0.616868226 0.617715508
0.618159739 0.618159739 0.618159739
0.70277269 0.621330483 0.619265629
0.984280253 0.679045003 0.643374579
0.411911135 0.707881835 0.606757168
0.427328845 0.707906282 0.606779309
0.448906128 0.707947116 0.606816293
0.478607126 0.708018964 0.60688137
0.514628965 0.70813824 0.606989415
0.56419167 0.708385681 0.607213592
0.627430589 0.708927334 0.607704495
0.707012086 0.71027358 0.608925629
0.984575309 0.738933669 0.635242679
0.710721695 0.994762894 0
0.711679124 0.994764481 0
0.713259613 0.994767132 0
0.715985369 0.994771798 0
0.720363631 0.994779551 0
0.728916564 0.994795661 0
0.745569156 0.99483105 0
0.778449004 0.994919752 0
0.991594737 0.99708191 0
0 0 0.712771369
0 0 0.712779428
0.199618769 0 0.712792892
0.357961802 0 0.71281659
0.445070572 0 0.712855955
0.526446725 0 0.712937715
0.608468843 0 0.713117141
0.69855758 0 0.713565782
0.983997699 0.571268 0.724053902
0 0 0.712699209
0 0 0.712707273
0.208588248 0 0.712720746
0.360011042 0 0.71274446
0.445968628 0 0.712783853
0.526861072 0 0.712865669
0.608658607 0 0.713045218
0.698638011 0 0.713494166
0.984002992 0.575224214 0.723989103
0 0 0.712578527
0 0 0.712586601
0.22205007 0 0.712600089
0.363348158 0 0.712623831
0.447452211 0 0.712663269
0.527549758 0 0.712745179
0.608974912 0 0.712924934
0.698772262 0 0.713374396
0.984011835 0.581518694 0.723880743
0 0 0.712365738
0.0133123493 0 0.712373828
0.242220863 0 0.712387344
0.368976688 0 0.712411133
0.450014031 0 0.712450651
0.528751263 0 0.712532728
0.609529438 0.0122459119 0.712712847
0.699008186 0.214254563 0.713163217
0.984027402 0.591757358 0.72368971
0 0.36222364 0.712011197
0.0679714504 0.362881481 0.712019315
0.268986864 0.363971521 0.712032876
0.377709054 0.36586336 0.712056746
0.454137215 0.368933395 0.712096398
0.530717809 0.375039628 0.712178752
0.610444436 0.387325195 0.71235948
0.699399041 0.412988392 0.712811366
0.984053262 0.606829763 0.723371508
0.0314437968 0.504024394 0.71127056
0.181558519 0.504195002 0.711278735
0.309257322 0.504479446 0.711292393
0.393818292 0.504978323 0.711316432
0.462219926 0.505802075 0.711356364
0.534690294 0.507493523 0.711439301
0.612320771 0.511116981 0.711621307
0.700206661 0.519689137 0.712076377
0.984106983 0.632571804 0.722707138
0.251245075 0.605399665 0.709624567
0.308892167 0.605464599 0.709632872
0.364947783 0.605573004 0.709646745
0.422367356 0.605763572 0.709671165
0.478055016 0.606079467 0.709711728
0.542923927 0.606732911 0.709795976
0.616329355 0.608154567 0.709980852
0.701959679 0.611637447 0.710443081
0.984224927 0.673563803 0.721232381
0.39807312 0.70374456 0.705379215
0.415493685 0.703769991 0.705387862
0.439375022 0.703812467 0.705402309
0.47150814 0.703887202 0.705427737
0.509643418 0.704011269 0.705469975
0.561111485 0.704268627 0.705557697
0.625756288 0.704831905 0.70575019
0.7062314 0.7062314 0.7062314
0.984520138 0.735872211 0.717439935
0.709968235 0.994499335 0
0.710932535 0.994500926 0
0.712524229 0.994503583 0
0.715268914 0.994508261 0
0.719676562 0.994516033 0
0.728283461 0.994532184 0
0.745029234 0.994567663 0
0.778054647 0.994656587 0
0.991543138 0.996824121 0.468120653
0 0 0.996777935
0 0 0.996778472
0 0 0.99677937
0 0 0.996780951
0 0 0.996783578
0.0143256453 0 0.996789037
0.5423718 0 0.99680103
0.675408566 0 0.996831102
0.982622216 0 0.997569328
0 0 0.996773124
0 0 0.996773662
0 0 0.99677456
0 0 0.996776141
0 0 0.996778767
0.0255087189 0 0.996784226
0.542727879 0 0.99679622
0.67550885 0 0.996826293
0.982627579 0 0.997564553
0 0 0.996765085
0 0 0.996765623
0 0 0.996766521
0 0 0.996768102
0 0 0.996770729
0.0441941193 0 0.996776188
0.543320155 0 0.996788183
0.675676197 0 0.996818259
0.982636539 0 0.997556575
0 0 0.996750932
0 0 0.99675147
0 0 0.996752368
0 0 0.996753949
0 0 0.996756577
0.077088464 0 0.996762037
0.544354758 0 0.996774033
0.675970153 0 0.996804113
0.982652311 0 0.997542528
0 0 0.99672741
0 0 0.996727948
0 0 0.996728847
0 0 0.996730428
0 0 0.996733056
0.131747565 0 0.996738518
0.54605166 0 0.996750516
0.676456792 0 0.996780603
0.982678513 0 0.997519183
0 0 0.996678512
0 0 0.99667905
0 0 0.996679949
0 0 0.996681531
0 0 0.996684161
0.231171147 0 0.996689624
0.549492613 0 0.996701629
0.677460929 0 0.996731729
0.982732942 0 0.997470653
0 0 0.996570989
0 0 0.996571527
0 0 0.996572427
0 0 0.996574011
0 0 0.996576643
0.3262201 0 0.996582113
0.556678774 0 0.996594129
0.679634099 0 0.996624261
0.98285244 0 0.997363939
0 0.206175573 0.996300843
0 0.20905714 0.996301383
0 0.213701935 0.996302285
0 0.221410068 0.996303873
0 0.233084526 0.996306512
0.422100259 0.253846694 0.996311995
0.572793744 0.288733256 0.996324043
0.684894049 0.344981305 0.996354252
0.983151534 0.598633999 0.99709583
0.689455816 0.987787092 0.989415003
0.690627243 0.987788788 0.989415579
0.692555812 0.987791621 0.989416543
0.695867078 0.987796608 0.989418239
0.701148113 0.987804894 0.989421056
0.711339545 0.987822111 0.989426912
0.730764349 0.987859933 0.989439777
0.767838033 0.987954728 0.989472035
0.990263714 0.990263714 0.990263714
