Luts/DJI/DJI_DLogM_to_Leica_Classic.cube
TITLE "DJI D-Log M to Leica Classic (via V-Log)"
LUT_3D_SIZE 5
0.00347906 0.00161746 0.00302129
0.292478391 0.0502270755 0.00485837875
0.661870973 0 0
0.790965344 0 0.062029788
0.806892868 0 0.219524348
0 0.241804542 0.0254732486
0.214623997 0.215168037 0.00967806135
0.643244818 0.125710994 0
0.796996414 0.00430919804 0.0691937129
0.806649525 0 0.21535737
0 0.539527611 0.000126388928
0.0121711158 0.5331958 0
0.591729206 0.563452663 0
0.931343266 0.485100365 0.000872587754
0.821217482 0.0481440878 0.20846275
0 0.694653456 0.218697247
0.0194548731 0.690933509 0.13473551
0.504639799 0.760559467 0.00872907277
0.922503852 0.839263374 0
0.997375984 0.718595016 0.0742273715
0.810018026 0.950953775 0.820043075
0.822917063 0.953219639 0.821658958
0.851209018 0.958101624 0.824702938
0.915112307 0.968345016 0.828038848
1 0.982193911 0.813534192
0.00222548584 0.0223453092 0.203428348
0.217480507 0.031596793 0.188640803
0.609891815 0 0.190767921
0.79338957 0 0.209330997
0.811586027 0 0.313076187
0 0.193439981 0.193627661
0.158296168 0.155835044 0.151067879
0.574549325 0.0766112192 0.138966143
0.786905237 0 0.156638407
0.811533662 0 0.311767216
0 0.530747476 0.118502181
0.0017391727 0.499751884 0.0193179374
0.550091864 0.525212245 0.0102420341
0.911665704 0.437747743 0.046735936
0.824971643 0.0439509267 0.308821532
0 0.694436117 0.21806544
0.0188172044 0.69053906 0.134341718
0.503773853 0.76029426 0.00859879502
0.92237836 0.839000193 0
0.996383461 0.704951567 0.26551588
0.809844364 0.950923098 0.820020099
0.822758832 0.953191694 0.821638407
0.851128983 0.958088654 0.824697469
0.915051558 0.968335197 0.828034832
1 0.982193622 0.813531147
0 0.0877028984 0.463160456
0.0549100178 0.0667284009 0.48833086
0.557621479 0.00158005826 0.479430948
0.799386381 0 0.467435533
0.819604196 0 0.45998607
0 0.102501244 0.46185346
0.0350445206 0.0850509184 0.465938369
0.538779816 0.0116725811 0.457505977
0.794293498 0 0.431358802
0.819530083 0 0.458857962
0 0.506778505 0.530061666
0 0.452776198 0.452372272
0.480903129 0.473851207 0.45702164
0.882962577 0.376274532 0.41927346
0.83060043 0.034943156 0.461169598
0 0.720748528 0.46847473
0 0.714874088 0.401499297
0.284440792 0.787558635 0.387190341
0.876295238 0.836125511 0.304059492
0.995165973 0.69955276 0.504033196
0.809334958 0.950833115 0.819952706
0.822294704 0.953109724 0.82157813
0.850894233 0.958050611 0.824681431
0.914873397 0.968306399 0.828023057
1 0.982192776 0.813522221
0 0.306890374 0.693350423
0 0.307025589 0.693443363
0.439483674 0.315203805 0.749219819
0.863167374 0.0837623162 0.750243674
0.820670627 0 0.642343008
0 0.305677219 0.692516553
0 0.305813011 0.69260989
0.450657491 0.312787225 0.749696023
0.862853175 0.0795395197 0.749413926
0.821351988 0 0.639895288
0 0.391264163 0.720413852
0 0.390874971 0.720303589
0.374579146 0.38902474 0.754707581
0.85514971 0.220299955 0.750350787
0.835952083 0.0294033338 0.656973479
0 0.711620779 0.756964753
0 0.692040117 0.725232061
0.0758634181 0.767419836 0.737813403
0.819108478 0.802273818 0.773374137
0.993373476 0.688243927 0.767180438
0.807216296 0.950458871 0.819672436
0.820236324 0.952746083 0.821305733
0.849918142 0.95789243 0.824614767
0.914132997 0.968186724 0.827974143
1 0.982189261 0.813485163
0.774348271 0.922239434 0.896144757
0.77434876 0.922239645 0.896144813
0.774350197 0.922240263 0.896144975
0.774356153 0.922242828 0.896145648
1 0.91014 0.905501
0.774343885 0.922237545 0.896144262
0.774344375 0.922237756 0.896144317
0.774345811 0.922238375 0.896144479
0.774351768 0.92224094 0.896145152
1 0.91014 0.905501
0.774331026 0.922232008 0.896142809
0.774331516 0.922232219 0.896142864
0.774332953 0.922232838 0.896143027
0.774338912 0.922235404 0.8961437
1 0.91014 0.905501
0.774277637 0.922209018 0.896136777
0.774278128 0.922209229 0.896136833
0.774279567 0.922209849 0.896136995
0.774285536 0.922212419 0.89613767
1 0.91014 0.905501
0.521263721 0.911621285 0.883815666
0.555661695 0.916894828 0.886195241
0.650999548 0.931511067 0.892790515
0.840854005 0.961386207 0.906544083
1 0.991233259 0.919719642
