Luts/DJI/DJI_DLogM_to_VLog.cube
TITLE "DJI D-Log M / D-Gamut to Panasonic V-Log / V-Gamut"
LUT_3D_SIZE 5
0.00757651318 0.00757651318 0.00757651318
0.301984259 0.0174962695 0.0110023162
0.460572506 0.0465740472 0.0210443714
0.611929291 0.167189791 0.0626992035
0.984095697 0.594798956 0.480738339
0.0374449872 0.314957076 0
0.311009383 0.31768719 0
0.462630114 0.325303384 0
0.612418975 0.352054944 0.0320352869
0.98410982 0.603068547 0.478963266
0.124998433 0.471906592 0
0.333713827 0.472524194 0
0.468438945 0.474313896 0
0.613841351 0.481427874 0
0.984151208 0.624117513 0.4735799
0.32451606 0.622905985 0
0.395794033 0.623052697 0
0.489594636 0.623481574 0
0.619543738 0.625242082 0
0.984322713 0.68306726 0.447726736
0.711296547 0.994964806 0
0.71382076 0.994969035 0
0.720888122 0.99498143 0
0.745981828 0.995032831 0
0.991634337 0.99727941 0
0.001985157 0 0.317096607
0.300204939 0 0.318028395
0.460182797 0.0171681353 0.320712997
0.611837368 0.137783879 0.331168643
0.984093053 0.594228449 0.503942754
0.031853631 0.306419515 0.308365628
0.309377909 0.309377909 0.309377909
0.46224799 0.317598008 0.31229013
0.61232748 0.346134245 0.323574587
0.984107177 0.602541401 0.502522373
0.119407077 0.470054121 0.2775674
0.332401896 0.470682695 0.278922935
0.468077444 0.472503823 0.282798364
0.613751089 0.479737459 0.297500205
0.984148566 0.623686413 0.498244427
0.323083064 0.622469867 0
0.395070182 0.622617189 0
0.489299258 0.623047847 0
0.619458255 0.624815589 0.0217593068
0.984320075 0.682821727 0.478361626
0.711260913 0.994952269 0
0.713785973 0.994956498 0
0.720855602 0.994968895 0
0.745956228 0.995020302 0
0.991631876 0.997267146 0
0 0 0.473792517
0.294808242 0 0.474002414
0.459032029 0 0.474615276
0.611567449 0.0515863415 0.477119895
0.984085303 0.592538018 0.552038542
0.0154636909 0.276443763 0.471894811
0.304443936 0.280362739 0.472108537
0.461119779 0.291072596 0.472732532
0.612058821 0.326562114 0.475281967
0.984099427 0.600980737 0.55114281
0.103017137 0.464427484 0.466125648
0.328458886 0.465090589 0.466351446
0.467010537 0.467010537 0.467010537
0.613486056 0.474619335 0.469701098
0.984140819 0.622412425 0.548472198
0.318766064 0.621180925 0.438090527
0.392919109 0.621330067 0.438385415
0.488428594 0.621766031 0.439245071
0.619207274 0.623555325 0.442737589
0.98431234 0.682098668 0.536605495
0.711156387 0.99491551 0
0.713683935 0.994919741 0
0.720760217 0.994932142 0
0.745881151 0.994983567 0
0.991624663 0.99723119 0
0 0 0.624735991
0.268880569 0 0.624785805
0.45411903 0 0.624931688
0.610440339 0 0.625534658
0.984053146 0.585219763 0.649216571
0 0 0.624289058
0.281066707 0 0.624339084
0.456305862 0.0181240457 0.624485589
0.610937007 0.13873979 0.625091123
0.984067274 0.594247044 0.648862829
0.0350310327 0.437204683 0.622967882
0.310308138 0.438063487 0.623018542
0.46246531 0.440541125 0.623166902
0.612379484 0.450235862 0.623780074
0.984108679 0.616956161 0.647818977
0.298679069 0.615658494 0.617302656
0.38349312 0.615815693 0.617356127
0.484737835 0.616275139 0.61751271
0.618159739 0.618159739 0.618159739
0.984280253 0.679045003 0.643374579
0.710721695 0.994762894 0
0.713259613 0.994767132 0
0.720363631 0.994779551 0
0.745569156 0.99483105 0
0.991594737 0.99708191 0
0 0 0.996777935
0 0 0.99677937
0 0 0.996783578
0.5423718 0 0.99680103
0.982622216 0 0.997569328
0 0 0.996765085
0 0 0.996766521
0 0 0.996770729
0.543320155 0 0.996788183
0.982636539 0 0.997556575
0 0 0.99672741
0 0 0.996728847
0 0 0.996733056
0.54605166 0 0.996750516
0.982678513 0 0.997519183
0 0 0.996570989
0 0 0.996572427
0 0 0.996576643
0.556678774 0 0.996594129
0.98285244 0 0.997363939
0.689455816 0.987787092 0.989415003
0.692555812 0.987791621 0.989416543
0.701148113 0.987804894 0.989421056
0.730764349 0.987859933 0.989439777
0.990263714 0.990263714 0.990263714
