Luts/DJI/DJI_DLog_to_VLog_65.cube
TITLE "DJI D-Log / D-Gamut to Panasonic V-Log / V-Gamut"
LUT_3D_SIZE 65
0.038653112 0.038653112 0.038653112
0.0523467772 0.0389919097 0.0387701163
0.0660404423 0.0393307073 0.0388871206
0.0797341074 0.0396695049 0.0390041249
0.0934277725 0.0400083025 0.0391211292
0.107121438 0.0403471002 0.0392381334
0.120815103 0.0406858978 0.0393551377
0.134508768 0.0410246954 0.039472142
0.148202433 0.041363493 0.0395891463
0.161903932 0.0417024845 0.0397062175
0.176873774 0.0420728563 0.0398341259
0.193340596 0.04249896 0.0399812815
0.209623395 0.0429891821 0.0401505805
0.225680461 0.0435531707 0.0403453548
0.241546352 0.044202026 0.040569438
0.25724974 0.0449485183 0.0408272402
0.272814565 0.0458073396 0.0411238355
0.288260925 0.0467953928 0.0414650612
0.303605772 0.0479321241 0.0418576331
0.318863463 0.0492399059 0.0423092775
0.334046199 0.0507444773 0.0428288836
0.349164381 0.0524754503 0.0434266777
0.364226898 0.0544668928 0.0441144255
0.379241362 0.0567579993 0.0449056626
0.394214308 0.0593938619 0.0458159618
0.409151351 0.0624263581 0.046863239
0.424057328 0.0659151716 0.0480681061
0.438936408 0.0699289672 0.0494542766
0.453792186 0.0745467419 0.0510490322
0.46862777 0.0798593801 0.0528837599
0.483445845 0.0859714417 0.0549945698
0.498248737 0.0930032209 0.0574230055
0.513038455 0.101093113 0.060216862
0.527816741 0.110400338 0.0634311264
0.542585106 0.121108075 0.0671290598
0.557344858 0.133427067 0.0713834428
0.572097131 0.14759977 0.0762780075
0.58684291 0.163905122 0.0819090859
0.60158305 0.182650665 0.0883875053
0.61631829 0.201996336 0.0958407701
0.631049274 0.220574251 0.104415571
0.645776562 0.238532799 0.114280672
0.660500638 0.255985667 0.125630232
0.675221923 0.273021629 0.138687627
0.689940784 0.289711097 0.153709844
0.704657538 0.306110665 0.17099254
0.71937246 0.322266326 0.190437902
0.734085792 0.338215812 0.209502247
0.748797741 0.353990324 0.22785416
0.763508488 0.369615845 0.245628817
0.778218191 0.385114132 0.262930502
0.792926987 0.400503501 0.279841105
0.807634993 0.415799438 0.296425892
0.822342314 0.43101508 0.312737531
0.83704904 0.446161612 0.328818967
0.851755247 0.461248583 0.344705533
0.866461004 0.476284163 0.360426523
0.881166371 0.491275358 0.376006375
0.895871397 0.506228185 0.391465596
0.910576127 0.521147822 0.406821474
0.925280601 0.53603873 0.422088644
0.939984851 0.550904757 0.437279538
0.954688908 0.565749224 0.45240475
0.969392795 0.580575002 0.467473332
0.984096536 0.595384574 0.482493034
0.0396732347 0.0538414604 0.037605822
0.0533668998 0.054180258 0.0377228263
0.0670605649 0.0545190556 0.0378398305
0.0807542301 0.0548578533 0.0379568348
0.0944478952 0.0551966509 0.0380738391
0.10814156 0.0555354485 0.0381908434
0.121835225 0.0558742461 0.0383078477
0.135528891 0.0562130438 0.0384248519
0.149222556 0.0565518414 0.0385418562
0.162924054 0.0568908328 0.0386589274
0.177893896 0.0572612046 0.0387868359
0.194243588 0.0576873083 0.0389339915
0.210397024 0.0581775304 0.0391032904
0.226344624 0.058741519 0.0392980647
0.242117533 0.0593903743 0.0395221479
0.257741686 0.0601368666 0.0397799502
0.273238804 0.0609956879 0.0400765454
0.288627172 0.0619837411 0.0404177711
0.303922248 0.0631204724 0.040810343
0.31913715 0.0644282542 0.0412619875
0.334283045 0.0659328256 0.0417815935
0.349369467 0.0676637986 0.0423793877
0.364404572 0.0696552412 0.0430671354
0.379395357 0.0719463477 0.0438583726
0.394347829 0.0745822103 0.0447686718
0.40926716 0.0776147065 0.045815949
0.424157802 0.08110352 0.0470208161
0.439023599 0.0851173155 0.0484069865
0.453867867 0.0897350903 0.0500017421
0.468693472 0.0950477284 0.0518364698
0.483502894 0.10115979 0.0539472797
0.498298278 0.108191569 0.0563757154
0.513081482 0.116281461 0.059169572
0.527854115 0.125588686 0.0623838363
0.542617572 0.136296423 0.0660817698
0.557373063 0.148615416 0.0703361528
0.572121636 0.162788119 0.0752307175
0.586864201 0.179093471 0.0808617958
0.601601549 0.196627785 0.0873402152
0.616334365 0.213745905 0.0947934801
0.631063244 0.230503854 0.103368281
0.645788702 0.246960859 0.113233382
0.660511188 0.263164942 0.124582942
0.675231092 0.27915543 0.137640337
0.689948752 0.29496479 0.152662554
0.704664462 0.31062002 0.16994525
0.719378479 0.326143705 0.189476339
0.734091023 0.341554836 0.208701106
0.748802287 0.356869455 0.227182027
0.763512439 0.372101162 0.245061741
0.778221625 0.38726153 0.262449857
0.792929972 0.402360431 0.279432168
0.807637588 0.417406309 0.296076863
0.822344569 0.432406401 0.312438842
0.837051 0.447366921 0.328562787
0.851756951 0.462293215 0.344485397
0.866462485 0.477189887 0.360237055
0.881167658 0.492060907 0.37584308
0.895872515 0.506909701 0.391324694
0.9105771 0.52173923 0.406699773
0.925281446 0.536552056 0.421983437
0.939985586 0.551350392 0.437188522
0.954689546 0.566136158 0.452325961
0.96939335 0.580911015 0.46740509
0.984097019 0.595676402 0.482433899
0.0406933573 0.0690298087 0.0365585319
0.0543870225 0.0693686063 0.0366755362
0.0680806876 0.069707404 0.0367925405
0.0817743527 0.0700462016 0.0369095448
0.0954680179 0.0703849992 0.037026549
0.109161683 0.0707237968 0.0371435533
0.122855348 0.0710625945 0.0372605576
0.136549013 0.0714013921 0.0373775619
0.150242678 0.0717401897 0.0374945662
0.163944177 0.0720791812 0.0376116374
0.178914019 0.0724495529 0.0377395458
0.195138874 0.0728756567 0.0378867014
0.211164989 0.0733658787 0.0380560004
0.227004608 0.0739298674 0.0382507747
0.242685621 0.0745787226 0.0384748579
0.258231336 0.0753252149 0.0387326601
0.273661335 0.0761840363 0.0390292554
0.288992145 0.0771720895 0.0393704811
0.304237773 0.0783088207 0.039763053
0.319410125 0.0796166026 0.0402146974
0.334519358 0.081121174 0.0407343035
0.349574152 0.0828521469 0.0413320976
0.364581946 0.0848435895 0.0420198454
0.379549126 0.087134696 0.0428110825
0.394481181 0.0897705586 0.0437213817
0.409382841 0.0928030548 0.0447686589
0.42425818 0.0962918683 0.045973526
0.439110718 0.100305664 0.0473596965
0.453943493 0.104923439 0.048954452
0.468759133 0.110236077 0.0507891798
0.483559911 0.116348138 0.0528999896
0.498347796 0.123379918 0.0553284254
0.513124491 0.131469809 0.0581222819
0.527891475 0.140777034 0.0613365463
0.542650027 0.151484771 0.0650344797
0.55740126 0.163803764 0.0692888627
0.572146134 0.177976467 0.0741834274
0.586885488 0.193505469 0.0798145057
0.601620046 0.20895947 0.0862929252
0.616350438 0.224310872 0.09374619
0.631077211 0.239574196 0.102320991
0.64580084 0.25476178 0.112186092
0.660521736 0.269884141 0.123535652
0.675240259 0.284950261 0.136593047
0.689956719 0.299967838 0.151615263
0.704671387 0.314943475 0.16889796
0.719384497 0.329882846 0.18850588
0.734096253 0.344790837 0.207893798
0.748806833 0.359671661 0.226505559
0.763516391 0.374528951 0.244491583
0.77822506 0.389365846 0.261967
0.792932956 0.404185058 0.27902163
0.807640182 0.418988935 0.295726667
0.822346824 0.433779508 0.3121393
0.83705296 0.448558536 0.328305979
0.851758654 0.463327546 0.344264798
0.866463966 0.478087857 0.360047245
0.881168945 0.492840616 0.375679531
0.895873634 0.507586817 0.391183603
0.910578072 0.522327322 0.406577931
0.925282291 0.537062881 0.421878124
0.93998632 0.551794142 0.437097427
0.954690185 0.56652167 0.452247113
0.969393905 0.581245954 0.467336803
0.984097501 0.595967421 0.482374731
0.04171348 0.084218157 0.0355112419
0.0554071451 0.0845569547 0.0356282461
0.0691008102 0.0848957523 0.0357452504
0.0827944754 0.0852345499 0.0358622547
0.0964881405 0.0855733475 0.035979259
0.110181806 0.0859121452 0.0360962633
0.123875471 0.0862509428 0.0362132675
0.137569136 0.0865897404 0.0363302718
0.151262801 0.0869285381 0.0364472761
0.1649643 0.0872675295 0.0365643473
0.179934142 0.0876379013 0.0366922558
0.196026582 0.088064005 0.0368394114
0.211927371 0.0885542271 0.0370087103
0.227660465 0.0891182157 0.0372034846
0.243250648 0.089767071 0.0374275678
0.25871871 0.0905135633 0.0376853701
0.27408217 0.0913723846 0.0379819653
0.289355853 0.0923604378 0.038323191
0.304552351 0.0934971691 0.0387157629
0.319682392 0.0948049509 0.0391674074
0.334755139 0.0963095223 0.0396870134
0.349778439 0.0980404953 0.0402848076
0.36475902 0.100031938 0.0409725553
0.379702669 0.102323044 0.0417637925
0.394614364 0.104958907 0.0426740916
0.409498394 0.107991403 0.0437213689
0.424358462 0.111480217 0.044926236
0.439197765 0.115494012 0.0463124064
0.454019065 0.120111787 0.047907162
0.468824753 0.125424425 0.0497418897
0.483616897 0.131536487 0.0518526996
0.49839729 0.138568266 0.0542811353
0.513167483 0.146658158 0.0570749918
0.527928822 0.155965383 0.0602892562
0.542682473 0.16667312 0.0639871897
0.557429449 0.178992112 0.0682415726
0.572170627 0.192509294 0.0731361374
0.586906771 0.206188105 0.0787672157
0.60163854 0.21999265 0.0852456351
0.616366509 0.233908379 0.0926989
0.631091177 0.247922218 0.101273701
0.645812976 0.262022467 0.111138802
0.660532284 0.276198695 0.122488362
0.675249426 0.290441634 0.135545757
0.689964686 0.304743072 0.150567973
0.704678311 0.31909575 0.16785067
0.719390515 0.333493265 0.187526357
0.734101483 0.347929982 0.207080229
0.748811379 0.362400948 0.225824699
0.763520342 0.376901814 0.243918308
0.778228494 0.391428772 0.261481909
0.792935941 0.405978485 0.278609479
0.807642776 0.420548035 0.295375299
0.822349079 0.435134871 0.3118389
0.837054919 0.449736766 0.328048542
0.851760358 0.464351776 0.344043733
0.866465446 0.478978204 0.35985709
0.881170232 0.493614572 0.375515727
0.895874753 0.50825959 0.391042322
0.910579044 0.522912135 0.406455947
0.925283136 0.53757123 0.421772705
0.939987055 0.552236022 0.437006253
0.954690823 0.56690577 0.452168206
0.96939446 0.581579827 0.467268473
0.984097984 0.596257634 0.482315529
0.0427336026 0.0994065054 0.0344639518
0.0564272678 0.099745303 0.0345809561
0.0701209329 0.100084101 0.0346979604
0.083814598 0.100422898 0.0348149646
0.0975082632 0.100761696 0.0349319689
0.111201928 0.101100494 0.0350489732
0.124895593 0.101439291 0.0351659775
0.138589259 0.101778089 0.0352829818
0.152282924 0.102116886 0.035399986
0.165984422 0.102455878 0.0355170573
0.180954264 0.10282625 0.0356449657
0.19690684 0.103252353 0.0357921213
0.212684253 0.103742575 0.0359614202
0.228312246 0.104306564 0.0361561946
0.243812648 0.104955419 0.0363802777
0.25920383 0.105701912 0.03663808
0.274501323 0.106560733 0.0369346753
0.289718303 0.107548786 0.0372759009
0.304865989 0.108685517 0.0376684728
0.319953954 0.109993299 0.0381201173
0.334990392 0.111497871 0.0386397233
0.349982328 0.113228844 0.0392375175
0.364935796 0.115220286 0.0399252653
0.379855989 0.117511393 0.0407165024
0.394747377 0.120147255 0.0416268016
0.40961382 0.123179751 0.0426740788
0.424458648 0.126668565 0.0438789459
0.439284739 0.130682361 0.0452651164
0.454094582 0.135300135 0.0468598719
0.468890332 0.140612773 0.0486945997
0.483673853 0.146724835 0.0508054095
0.498446761 0.153756614 0.0532338452
0.513210457 0.161846506 0.0560277018
0.527966155 0.171153731 0.0592419662
0.542714909 0.18185764 0.0629398996
0.557457631 0.193415464 0.0671942826
0.572195115 0.205305865 0.0720888473
0.586928049 0.217501309 0.0777199256
0.60165703 0.229974919 0.0841983451
0.616382577 0.242700841 0.0916516099
0.63110514 0.255654527 0.100226411
0.645825111 0.268812921 0.110091512
0.66054283 0.282154586 0.121441072
0.675258591 0.295659755 0.134498467
0.689972652 0.309310338 0.149520683
0.704685234 0.323089887 0.16680338
0.719396532 0.336983533 0.186537601
0.734106713 0.350977901 0.206260299
0.748815925 0.365061013 0.225139391
0.763524292 0.379222182 0.243341882
0.778231928 0.393451906 0.260994565
0.792938926 0.407741762 0.278195702
0.80764537 0.422084299 0.29502275
0.822351334 0.436472943 0.311537637
0.837056879 0.450901907 0.32779047
0.851762061 0.465366101 0.343822202
0.866466927 0.479861057 0.35966659
0.881171518 0.494382858 0.375351666
0.895875871 0.508928075 0.390900851
0.910580016 0.523493706 0.406333821
0.925283981 0.538077127 0.421667181
0.93998779 0.552676048 0.436915
0.954691462 0.567288468 0.452089239
0.969395015 0.581912641 0.467200097
0.984098466 0.596547046 0.482256294
0.0437537253 0.114594854 0.0334166617
0.0574473904 0.114933651 0.033533666
0.0711410555 0.115272449 0.0336506703
0.0848347207 0.115611247 0.0337676746
0.0985283858 0.115950044 0.0338846789
0.112222051 0.116288842 0.0340016831
0.125915716 0.116627639 0.0341186874
0.139609381 0.116966437 0.0342356917
0.153303046 0.117305235 0.034352696
0.167004545 0.117644226 0.0344697672
0.181969579 0.118014598 0.0345976757
0.197779772 0.118440702 0.0347448312
0.213435711 0.118930924 0.0349141302
0.228960002 0.119494912 0.0351089045
0.244371653 0.120143768 0.0353329877
0.259686717 0.12089026 0.0355907899
0.274918808 0.121749081 0.0358873852
0.290079506 0.122737134 0.0362286109
0.305178691 0.123873866 0.0366211828
0.320224814 0.125181648 0.0370728272
0.335225118 0.126686219 0.0375924333
0.350185822 0.128417192 0.0381902275
0.365112275 0.130408635 0.0388779752
0.380009084 0.132699741 0.0396692123
0.394880223 0.135335604 0.0405795115
0.40972912 0.1383681 0.0416267887
0.424558739 0.141856913 0.0428316558
0.439371642 0.145870709 0.0442178263
0.454170045 0.150488484 0.0458125819
0.46895587 0.155801122 0.0476473096
0.483730777 0.161913183 0.0497581195
0.498496209 0.168944963 0.0521865552
0.513253414 0.177034854 0.0549804117
0.528003476 0.186210188 0.0581946761
0.542747334 0.195934025 0.0618926095
0.557485805 0.206108355 0.0661469925
0.572219596 0.216709616 0.0710415572
0.586949322 0.227712206 0.0766726356
0.601675517 0.239089181 0.083151055
0.616398642 0.250812925 0.0906043199
0.631119102 0.262855741 0.0991791208
0.645837245 0.275190365 0.109044222
0.660553375 0.287790378 0.120393782
0.675267756 0.300630535 0.133451177
0.689980617 0.313686998 0.148473393
0.704692157 0.326937491 0.16575609
0.719402549 0.340361389 0.185539435
0.734111943 0.353939746 0.20543391
0.74882047 0.367655281 0.224449576
0.763528243 0.381492327 0.242762272
0.778235361 0.395436755 0.260504946
0.79294191 0.409475886 0.277780286
0.807647965 0.423598386 0.294669011
0.822353589 0.437794161 0.311235506
0.837058839 0.452054248 0.327531763
0.851763765 0.466370711 0.343600202
0.866468408 0.480736541 0.359475744
0.881172805 0.495145558 0.375187348
0.89587699 0.509592327 0.390759188
0.910580989 0.524072069 0.406211552
0.925284826 0.538580596 0.42156155
0.939988524 0.553114236 0.436823667
0.9546921 0.567669775 0.452010212
0.96939557 0.582244402 0.467131677
0.984098948 0.596835662 0.482197026
0.0447738479 0.129783202 0.0323693717
0.0584675131 0.130122 0.032486376
0.0721611782 0.130460797 0.0326033802
0.0858548433 0.130799595 0.0327203845
0.0995485085 0.131138393 0.0328373888
0.113242174 0.13147719 0.0329543931
0.126935839 0.131815988 0.0330713974
0.140629504 0.132154785 0.0331884016
0.154323169 0.132493583 0.0333054059
0.168024668 0.132832575 0.0334224771
0.182975476 0.133202946 0.0335503856
0.198645499 0.13362905 0.0336975412
0.214181825 0.134119272 0.0338668401
0.229603783 0.134683261 0.0340616145
0.244927694 0.135332116 0.0342856976
0.260167391 0.136078608 0.0345434999
0.275334637 0.13693743 0.0348400951
0.290439469 0.137925483 0.0351813208
0.305490464 0.139062214 0.0355738927
0.320494977 0.140369996 0.0360255372
0.33545932 0.141874567 0.0365451432
0.350388922 0.14360554 0.0371429374
0.365288457 0.145596983 0.0378306851
0.380161956 0.147888089 0.0386219223
0.3950129 0.150523952 0.0395322215
0.409844292 0.153556448 0.0405794987
0.424658734 0.157045262 0.0417843658
0.439458472 0.161059057 0.0431705362
0.454245454 0.165676832 0.0447652918
0.469021367 0.17098947 0.0466000195
0.483787671 0.177101532 0.0487108294
0.498545633 0.184087117 0.0511392651
0.513296353 0.191662126 0.0539331217
0.528040783 0.19974976 0.0571473861
0.54277975 0.20834289 0.0608453195
0.557513972 0.217429716 0.0650997025
0.572244072 0.226994204 0.0699942672
0.586970592 0.237016659 0.0756253455
0.601694 0.247474388 0.0821037649
0.616414705 0.258342406 0.0895570298
0.631133062 0.269594152 0.0981318308
0.645849378 0.28120217 0.107996932
0.66056392 0.293138729 0.119346492
0.675276921 0.305376363 0.132403887
0.689988582 0.317888324 0.147426103
0.70469908 0.330648933 0.1647088
0.719408566 0.343633849 0.184531679
0.734117172 0.356820247 0.204600958
0.748825015 0.37018693 0.223755195
0.763532194 0.383714377 0.24217944
0.778238795 0.39738474 0.26001303
0.792944895 0.411181805 0.277363219
0.807650559 0.425090928 0.294314076
0.822355843 0.439098942 0.310932503
0.837060799 0.453194065 0.327272416
0.851765468 0.46736579 0.343377731
0.866469888 0.481604778 0.359284549
0.881174092 0.495902752 0.375022772
0.895878108 0.510252398 0.390617334
0.910581961 0.524647261 0.406089141
0.925285672 0.53908166 0.421455812
0.939989259 0.553550601 0.436732254
0.954692739 0.568049701 0.451931126
0.969396125 0.582575118 0.467063212
0.984099431 0.597123487 0.482137724
0.0457939706 0.14497155 0.0313220816
0.0594876357 0.145310348 0.0314390859
0.0731813009 0.145649146 0.0315560902
0.086874966 0.145987943 0.0316730945
0.100568631 0.146326741 0.0317900987
0.114262296 0.146665539 0.031907103
0.127955961 0.147004336 0.0320241073
0.141649626 0.147343134 0.0321411116
0.155343292 0.147681931 0.0322581159
0.16904479 0.148020923 0.0323751871
0.183971817 0.148391295 0.0325030955
0.199504139 0.148817398 0.0326502511
0.214922668 0.14930762 0.0328195501
0.230243636 0.149871609 0.0330143244
0.245480803 0.150520464 0.0332384076
0.260645872 0.151266957 0.0334962098
0.275748825 0.152125778 0.0337928051
0.2907982 0.153113831 0.0341340308
0.305801313 0.154250562 0.0345266027
0.320764446 0.155558344 0.0349782471
0.335693001 0.157062916 0.0354978532
0.350591629 0.158793889 0.0360956473
0.365464344 0.160785331 0.0367833951
0.380314606 0.163076438 0.0375746322
0.395145409 0.1657123 0.0384849314
0.409959339 0.168744796 0.0395322086
0.424758634 0.17223361 0.0407370757
0.439545231 0.176247406 0.0421232462
0.454320809 0.18086518 0.0437180018
0.469086823 0.186053771 0.0455527295
0.483844533 0.191722341 0.0476635394
0.498595034 0.197886095 0.0500919751
0.513339274 0.204556345 0.0528858316
0.528078076 0.211739698 0.056100096
0.542812155 0.219437796 0.0597980294
0.557542131 0.227647256 0.0640524124
0.572268542 0.236359798 0.0689469771
0.586991857 0.245562563 0.0745780555
0.601712481 0.255238586 0.0810564749
0.616430766 0.265367391 0.0885097397
0.63114702 0.275925672 0.0970845407
0.645861509 0.286888001 0.106949642
0.660574463 0.298227543 0.118299202
0.675286084 0.309916723 0.131356597
0.689996546 0.321927826 0.146378813
0.704706002 0.334233523 0.16366151
0.719414582 0.346807291 0.183514147
0.734122402 0.359623751 0.203761338
0.74882956 0.37265891 0.223056185
0.763536144 0.385890328 0.241593352
0.778242229 0.399297205 0.259518797
0.792947879 0.412860423 0.276944486
0.807653153 0.426562529 0.293957936
0.822358098 0.440387692 0.310628622
0.837062759 0.45432163 0.327012425
0.851767171 0.468351517 0.343154788
0.866471369 0.482465886 0.359093006
0.881175379 0.496654519 0.374857938
0.895879227 0.510908342 0.390475287
0.910582933 0.525219316 0.405966587
0.925286517 0.539580342 0.421349968
0.939989993 0.553985159 0.436640762
0.954693377 0.568428256 0.45185198
0.96939668 0.582904793 0.466994703
0.984099913 0.597410523 0.482078388
0.0468140932 0.160159899 0.0302747916
0.0605077584 0.160498696 0.0303917958
0.0742014235 0.160837494 0.0305088001
0.0878950886 0.161176292 0.0306258044
0.101588754 0.161515089 0.0307428087
0.115282419 0.161853887 0.030859813
0.128976084 0.162192684 0.0309768172
0.142669749 0.162531482 0.0310938215
0.156363414 0.16287028 0.0312108258
0.170064913 0.163209271 0.031327897
0.184958782 0.163579643 0.0314558055
0.200355807 0.164005747 0.0316029611
0.215658315 0.164495969 0.03177226
0.23087961 0.165059957 0.0319670343
0.246031011 0.165708813 0.0321911175
0.26112218 0.166455305 0.0324489198
0.276161384 0.167314126 0.032745515
0.291155709 0.168302179 0.0330867407
0.306111244 0.169438911 0.0334793126
0.321033224 0.170746693 0.0339309571
0.335926161 0.172251264 0.0344505631
0.350793945 0.173982237 0.0350483573
0.365639936 0.17597368 0.035736105
0.380467034 0.178264786 0.0365273422
0.395277752 0.180900649 0.0374376414
0.410074259 0.183892576 0.0384849186
0.424858438 0.187232734 0.0396897857
0.439631918 0.190948367 0.0410759561
0.45439611 0.195066376 0.0426707117
0.469152238 0.199612298 0.0445054394
0.483901365 0.204609597 0.0466162493
0.498644412 0.210078948 0.049044685
0.513382178 0.216037561 0.0518385416
0.528115357 0.22249857 0.0550528059
0.542844551 0.229470558 0.0587507394
0.557570283 0.236957224 0.0630051224
0.572293007 0.244957247 0.0678996871
0.587013118 0.253464331 0.0735307654
0.601730958 0.26246745 0.0800091848
0.616446824 0.271951261 0.0874624497
0.631160976 0.281896653 0.0960372506
0.645873638 0.292281396 0.105902352
0.660585005 0.303080848 0.117251912
0.675295247 0.314268669 0.130309307
0.69000451 0.32581751 0.145331523
0.704712923 0.337699646 0.16261422
0.719420598 0.349887532 0.182486646
0.734127631 0.362354268 0.202914943
0.748834105 0.375073971 0.222352486
0.763540094 0.388022054 0.24100397
0.778245662 0.401175424 0.259022223
0.792950864 0.414512598 0.276524075
0.807655747 0.428013768 0.293600582
0.822360353 0.441660799 0.310323858
0.837064718 0.455437202 0.326751789
0.851768875 0.469328067 0.342931369
0.866472849 0.483319983 0.358901112
0.881176666 0.497400936 0.374692845
0.895880345 0.511560208 0.390333048
0.910583905 0.525788268 0.405843889
0.925287362 0.540076664 0.421244017
0.939990728 0.554417923 0.43654919
0.954694016 0.568805449 0.451772775
0.969397235 0.583233436 0.466926149
0.984100395 0.597696776 0.482019019
0.0478347995 0.175356936 0.0292269024
0.0615284646 0.175695733 0.0293439067
0.0752221297 0.176034531 0.029460911
0.0889157949 0.176373329 0.0295779152
0.10260946 0.176712126 0.0296949195
0.116303125 0.177050924 0.0298119238
0.12999679 0.177389721 0.0299289281
0.143690455 0.177728519 0.0300459324
0.157384121 0.178067317 0.0301629366
0.171085619 0.178406308 0.0302800078
0.185937104 0.17877668 0.0304079163
0.201201096 0.179202784 0.0305550719
0.216389255 0.179693006 0.0307243708
0.231512111 0.180256994 0.0309191452
0.246578659 0.18090585 0.0311432283
0.261596605 0.181650012 0.0314010306
0.27657256 0.182500072 0.0316976259
0.291512207 0.1834696 0.0320388515
0.306420438 0.184574043 0.0324314234
0.321301469 0.185830456 0.0328830679
0.336158938 0.187257554 0.0334026739
0.350995988 0.18887573 0.0340004681
0.365815335 0.190707035 0.0346882158
0.380619328 0.192775099 0.035479453
0.395410003 0.195104984 0.0363897522
0.41018912 0.197722963 0.0374370294
0.424958205 0.200656208 0.0386418965
0.439718583 0.203932383 0.0400280669
0.454471399 0.20757915 0.0416228225
0.46921765 0.211623582 0.0434575503
0.483958199 0.216091511 0.0455683601
0.498693795 0.221006821 0.0479967958
0.513425089 0.226390737 0.0507906524
0.528152645 0.232261131 0.0540049168
0.542876955 0.238631904 0.0577028502
0.557598443 0.245512477 0.0619572332
0.57231748 0.252907436 0.0668517979
0.587034386 0.260816354 0.0724828762
0.601749442 0.269233811 0.0789612956
0.616462889 0.278149597 0.0864145605
0.631174939 0.2875491 0.0949893615
0.645885773 0.297413834 0.104854463
0.660595552 0.307722076 0.116204023
0.675304414 0.318449561 0.129261417
0.690012478 0.329570198 0.144283634
0.704719849 0.341056771 0.161566331
0.719426617 0.352881578 0.181448384
0.734132862 0.365017005 0.202061172
0.748838652 0.377436009 0.221643628
0.763544047 0.3901125 0.240410918
0.778249098 0.403021646 0.258523002
0.79295385 0.416140076 0.276101731
0.807658342 0.429446015 0.293241801
0.822362609 0.442919354 0.31001803
0.837066679 0.456541661 0.326490354
0.851770579 0.47029616 0.342707345
0.866474331 0.484167664 0.358708756
0.881177954 0.498142502 0.374527396
0.895881465 0.512208419 0.390190535
0.910584878 0.526354473 0.405720978
0.925288207 0.54057093 0.421137898
0.939991463 0.554849155 0.436457485
0.954694654 0.569181506 0.451693464
0.96939779 0.583561239 0.466857511
0.984100878 0.597982413 0.481959583
0.0489499921 0.191424779 0.0280820105
0.0626436572 0.191731075 0.0281990148
0.0763373224 0.19203648 0.028316019
0.0900309875 0.192340997 0.0284330233
0.103724653 0.192644633 0.0285500276
