Luts/DJI/DJI_DLog_to_VLog.cube
TITLE "DJI D-Log / D-Gamut to Panasonic V-Log / V-Gamut"
LUT_3D_SIZE 5
0.038653112 0.038653112 0.038653112
0.272814565 0.0458073396 0.0411238355
0.513038455 0.101093113 0.060216862
0.748797741 0.353990324 0.22785416
0.984096536 0.595384574 0.482493034
0.0601945545 0.285205483 0.0165379884
0.281427643 0.28782166 0.0190087119
0.513943309 0.306099442 0.0381017384
0.748893699 0.402476536 0.212656733
0.984106722 0.601380838 0.481237176
0.218905467 0.524059773 0
0.331328052 0.524331133 0
0.520684352 0.526404777 0
0.749632291 0.544155694 0.0470542957
0.984185402 0.638851773 0.470989231
0.474307224 0.759680087 0
0.490618329 0.759708825 0
0.56908373 0.759930636 0
0.756345707 0.761997337 0
0.984923661 0.779694104 0.131385247
0.711480499 0.994964199 0
0.713303899 0.994967249 0
0.726417772 0.994990815 0
0.804591113 0.995212546 0
0.991634157 0.997278514 0
0.03462057 0.017445274 0.287255484
0.271120546 0.0245995015 0.288148825
0.512868196 0.0798852746 0.294807107
0.748779768 0.349833138 0.342744446
0.98409463 0.594975725 0.499463171
0.0561620125 0.277043099 0.278901105
0.279868171 0.279868171 0.279868171
0.513774514 0.299459097 0.287055081
0.748875743 0.399877384 0.337903138
0.984104816 0.600994748 0.498395874
0.216057654 0.523251211 0.17195468
0.330361696 0.523524668 0.174425403
0.520526072 0.525614159 0.192825682
0.74961446 0.54348856 0.290262556
0.984183496 0.638581814 0.489760068
0.474060827 0.759594852 0
0.490407454 0.759623613 0
0.568983981 0.759845604 0
0.756328982 0.761913965 0
0.984921769 0.77962368 0.316457692
0.711454845 0.994955157 0
0.713278687 0.994958207 0
0.726395524 0.994981776 0
0.804580555 0.995203526 0
0.991632382 0.997269669 0
0.0034582673 0 0.525896774
0.257016183 0 0.52598894
0.51154308 0 0.526698455
0.748640773 0.310542269 0.533156414
0.984079893 0.591761336 0.579965346
0.0249997098 0.174282412 0.525068179
0.266964886 0.181435423 0.525161076
0.512460871 0.225691346 0.525876194
0.748736875 0.377270734 0.532383434
0.98409008 0.597962242 0.57947129
0.190975565 0.516783347 0.51843425
0.32257765 0.517074173 0.518533209
0.519294805 0.519294805 0.519294805
0.749476568 0.538184852 0.526209836
0.984168772 0.636471882 0.575572799
0.472136965 0.758933831 0.418311267
0.488763415 0.758962773 0.418568125
0.568209939 0.759186166 0.420532118
0.756199645 0.761267444 0.437424079
0.984907148 0.779077864 0.529301643
0.711256388 0.994885258 0
0.713083654 0.99488831 0
0.726223436 0.994911894 0
0.804498928 0.995133792 0
0.991618667 0.997201296 0
0 0 0.761495294
0 0 0.761505049
0.498163421 0 0.761580404
0.747322357 0 0.762287582
0.983940972 0.555372419 0.76872498
0 0 0.761407936
0.020620845 0 0.761417699
0.499205463 0 0.761493117
0.747419674 0 0.762200882
0.983951173 0.564041154 0.768643443
0 0.420898769 0.760730396
0.186916432 0.421622788 0.760740222
0.506926878 0.427055386 0.760816128
0.748168682 0.467854379 0.761528461
0.984029969 0.614187413 0.768011202
0.452039267 0.752493786 0.754123697
0.471863778 0.752524561 0.754134162
0.560623835 0.75276208 0.754215001
0.754973438 0.754973438 0.754973438
0.984769319 0.77379202 0.761860809
0.709368307 0.994224528 0.654708008
0.711228471 0.9942276 0.654735008
0.724588403 0.994251333 0.654943419
0.803726888 0.994474631 0.656886542
0.991489387 0.996555041 0.673614111
0 0 0.996777101
0 0 0.996778136
0 0 0.996786136
0.734015278 0 0.996861464
0.982623263 0 0.997568396
0 0 0.996767834
0 0 0.996768869
0 0 0.99677687
0.734125752 0 0.996852205
0.982633593 0 0.997559198
0 0 0.996696192
0 0 0.996697228
0 0 0.996705235
0.734975561 0 0.996780621
0.982713385 0 0.997488096
0 0.657302142 0.996018937
0 0.657378395 0.99601998
0.432032206 0.657965788 0.996028038
0.742659744 0.663343201 0.996103912
0.983462041 0.703807045 0.99681595
0.689685505 0.987787423 0.989415115
0.691925565 0.987790689 0.989416226
0.707789962 0.987815924 0.989424808
0.796161208 0.988053336 0.98950561
0.990263714 0.990263714 0.990263714
