Luts/DJI/DJI_DLogM_to_Leica_Classic.cube
TITLE "DJI D-Log M to Leica Classic (via V-Log)"
LUT_3D_SIZE 9
0.00347906 0.00161746 0.00302129
0.053906135 0.0291403846 0.0254111563
0.292478391 0.0502270755 0.00485837875
0.508674839 0 0
0.661870973 0 0
0.767405221 0 0.000340037025
0.790965344 0 0.062029788
0.798099534 0 0.102804811
0.806892868 0 0.219524348
0.0156342875 0.0469502961 0.0336640014
0.038247783 0.0423168023 0.0327879146
0.258221121 0.0601459478 0.0133249668
0.46697602 0.00943253679 0
0.61710243 0 0
0.755910242 0 4.84064298e-05
0.788993449 0 0.0462241421
0.797629479 0 0.101448449
0.806804602 0 0.218021394
0 0.241804542 0.0254732486
0 0.209097392 0.039602866
0.214623997 0.215168037 0.00967806135
0.460277657 0.196762202 0
0.643244818 0.125710994 0
0.779395673 0.0175623962 0.00355821316
0.796996414 0.00430919804 0.0691937129
0.797375415 0 0.100706447
0.806649525 0 0.21535737
0 0.417059099 0
0 0.378786789 0.000175588557
0.0843569208 0.396096762 0
0.414049525 0.400779446 1.16266353e-05
0.632454657 0.380696435 0.000138069855
0.815185715 0.329696122 0.000138473377
0.880020092 0.251358857 0.0539441872
0.831009099 0.0822547109 0.108168743
0.808920773 0.00757342383 0.213125737
0 0.539527611 0.000126388928
0 0.510583299 4.63245457e-05
0.0121711158 0.5331958 0
0.311792058 0.564576372 0
0.591729206 0.563452663 0
0.8008212 0.540829145 0
0.931343266 0.485100365 0.000872587754
0.932170918 0.394303592 0.0294644963
0.821217482 0.0481440878 0.20846275
0 0.634794841 0.0547080368
0 0.620772598 0.0348646864
0.00324914878 0.631443452 0.0012183876
0.203306994 0.678855638 0
0.520231376 0.713911838 0
0.767137488 0.723577729 0
0.934662893 0.700038978 0
0.989516139 0.644284439 5.70178091e-05
0.915375855 0.345454142 0.18195531
0 0.694653456 0.218697247
0 0.690022983 0.195903699
0.0194548731 0.690933509 0.13473551
0.223274141 0.717967505 0.0564394798
0.504639799 0.760559467 0.00872907277
0.750880742 0.804420116 0
0.922503852 0.839263374 0
0.998665007 0.837747254 4.2302844e-05
0.997375984 0.718595016 0.0742273715
5.92605123e-05 0.730862621 0.393393744
0.00249651296 0.730482418 0.381085173
0.0138272139 0.736114383 0.354493782
0.120171153 0.754826869 0.32812211
0.369277423 0.78995505 0.303906498
0.675163752 0.834526768 0.231222651
0.89685047 0.868804386 0.138047751
0.996183892 0.894435616 0.115251723
0.999985 0.898359359 0.239566786
0.810018026 0.950953775 0.820043075
0.814903112 0.951811931 0.820655884
0.822917063 0.953219639 0.821658958
0.83547881 0.955423859 0.823175235
0.851209018 0.958101624 0.824702938
0.87292584 0.961584148 0.825847268
0.915112307 0.968345016 0.828038848
0.963079804 0.975412633 0.826123041
1 0.982193911 0.813534192
0.0138125225 0.0102251597 0.0316576038
0.0354179772 0.0217624913 0.0338000544
0.256874345 0.0556239533 0.030612606
0.478976379 0.00372542138 0.00978260208
0.638126764 0 0.013236725
0.758947453 0 0.00546074148
0.789658056 0 0.0710696983
0.797727631 0 0.103376751
0.808928111 0 0.259217889
0.0190829421 0.0280874212 0.0308133702
0.0318283136 0.0276432864 0.0287676191
0.229333792 0.0597183629 0.025366247
0.436468599 0.0119652148 0.0017669695
0.596363332 0 0.000453449275
0.747144044 0 0.00078166862
0.787152023 0 0.0439476322
0.797138934 0 0.100445251
0.808887702 0 0.258465079
0 0.222499185 0.0382372936
0 0.188256118 0.0460140528
0.19331689 0.188563732 0.0252175275
0.430123298 0.170057845 0.000269091643
0.610421198 0.0979631251 0
0.753684295 0.006398444 0.000664958788
0.790108663 0.00096635215 0.0441372318
0.796702976 0 0.0990472132
0.808813389 0 0.257067506
0 0.409263129 0
0 0.369837244 0.000314029645
0.0752018933 0.383356914 0
0.403675006 0.386506566 0
0.620386008 0.364293486 2.17074647e-05
0.805425416 0.310403591 0.00026935668
0.871812672 0.228022274 0.0590274232
0.825056009 0.0634524067 0.108833285
0.810702201 0.00655756644 0.25443331
0 0.538277265 9.63620019e-05
0 0.509414453 3.55965836e-05
0.0110558412 0.53082032 0
0.311398276 0.562153856 0
0.591140476 0.560682987 0
0.800774376 0.537430063 0
0.930736513 0.480597667 0.000999989555
0.930051088 0.387748115 0.0316157083
0.823319666 0.0476287146 0.25278879
0 0.634473623 0.0539912351
0 0.620420675 0.0345102318
0.00315572801 0.630981587 0.00124376572
0.202336491 0.678463155 0
0.520106803 0.713433592 0
0.767236126 0.722892595 0
0.934654969 0.699141684 0
0.989218041 0.642384207 6.1761363e-05
0.914653433 0.341328463 0.235823677
0 0.694572073 0.218460659
0 0.689959839 0.195894064
0.0192166493 0.690786061 0.134587844
0.222505475 0.71780124 0.0563756888
0.504315768 0.760460262 0.00868038668
0.750734006 0.8043571 0
0.922445989 0.839200979 0
0.99866377 0.837517276 4.0258963e-05
0.997257656 0.711260181 0.149085985
5.84333381e-05 0.73084696 0.393311848
0.00244924131 0.730466026 0.381146541
0.0137670681 0.736045293 0.354448184
0.119836686 0.754721336 0.32793387
0.369006683 0.78986555 0.303664483
0.675129189 0.834463977 0.230869769
0.896875822 0.868757018 0.137765382
0.996198904 0.894410986 0.115006216
0.999985 0.898221454 0.239043638
0.809953012 0.95094229 0.820034474
0.814838717 0.951800556 0.82064736
0.822857826 0.953209177 0.821651264
0.835421113 0.955413668 0.823167727
0.851179055 0.958096768 0.82470089
0.872898298 0.961579681 0.825845349
0.915089564 0.96834134 0.828037344
0.963071085 0.975411315 0.826123037
1 0.982193803 0.813533052
0.00222548584 0.0223453092 0.203428348
0.0143985779 0.0164514294 0.19246087
0.217480507 0.031596793 0.188640803
0.437460507 0 0.187230694
0.609891815 0 0.190767921
0.760473087 0 0.202584001
0.79338957 0 0.209330997
0.802583404 0 0.201393372
0.811586027 0 0.313076187
0.00259923857 0.0255632634 0.194974078
0.0159286639 0.0189353381 0.178139405
0.204785104 0.0418701426 0.167820502
0.415991676 0.00546915292 0.162730949
0.585293169 0 0.164933731
0.749578617 0 0.17998519
0.791752838 0 0.193525041
0.802037199 0 0.191725165
0.8115508 0 0.312106522
0 0.193439981 0.193627661
0 0.162443273 0.161757157
0.158296168 0.155835044 0.151067879
0.391845209 0.139995439 0.14456432
0.574549325 0.0766112192 0.138966143
0.728711728 0.004904199 0.130720249
0.786905237 0 0.156638407
0.800426613 0 0.173700933
0.811533662 0 0.311767216
0 0.390949905 0.172548596
0 0.34349601 0.133083058
0.0384696503 0.34217829 0.106770842
0.352678547 0.345729414 0.0966556132
0.571164663 0.324859327 0.111787978
0.763553267 0.264418349 0.107665164
0.850640537 0.161330739 0.131098586
0.817185471 0.0293860561 0.156118438
0.813240694 0.00564362953 0.31099787
0 0.530747476 0.118502181
0 0.494687147 0.0863123467
0.0017391727 0.499751884 0.0193179374
0.25588655 0.527189808 0.00155160939
0.550091864 0.525212245 0.0102420341
0.770332127 0.499801305 0.0547109635
0.911665704 0.437747743 0.046735936
0.91273117 0.339204844 0.085913436
0.824971643 0.0439509267 0.308821532
0 0.632396443 0.069220167
0 0.618952924 0.0452443411
0.00142598516 0.625322324 0.00328177042
0.16856376 0.671901648 0.00020071715
0.505380075 0.705734365 0
0.759054894 0.713987068 0
0.929353967 0.688715504 0
0.986367936 0.629603212 0.000309939711
0.913389984 0.335876513 0.31078897
0 0.694436117 0.21806544
0 0.689854533 0.195880353
0.0188172044 0.69053906 0.134341718
0.221218168 0.717522814 0.0562689451
0.503773853 0.76029426 0.00859879502
0.750488777 0.804251679 0
0.92237836 0.839000193 0
0.998654409 0.836885828 3.68371596e-05
0.996383461 0.704951567 0.26551588
5.70475051e-05 0.730820786 0.393175096
0.00237000033 0.730438624 0.381249917
0.0136663267 0.735929667 0.354372274
0.119276758 0.754544745 0.327619131
0.368553704 0.789715845 0.303259761
0.675071476 0.834358981 0.230279592
0.896918272 0.868677811 0.137293141
0.996224016 0.894369799 0.114595644
0.999985 0.897917491 0.238013646
0.809844364 0.950923098 0.820020099
0.814731103 0.951781546 0.820633116
0.822758832 0.953191694 0.821638407
0.835324693 0.955396636 0.82315518
0.851128983 0.958088654 0.824697469
0.872852274 0.961572216 0.82584214
0.915051558 0.968335197 0.828034832
0.963056517 0.975409112 0.82612303
1 0.982193622 0.813531147
0 0.0576236113 0.345501728
0 0.0556192145 0.339480072
0.166451281 0.0259164205 0.3538135
0.401466811 0.00127257897 0.344592017
0.570421511 0 0.334128063
0.738412316 0 0.338789772
0.798837794 0 0.365456701
0.808886852 0 0.354278862
0.815018762 0 0.383277825
0 0.0568337587 0.342567357
2.76568506e-05 0.053899072 0.335014585
0.175847955 0.0241939366 0.349893284
0.40522706 0.00102587059 0.340501172
0.57249502 0 0.330434738
0.739482225 0 0.33626959
0.798721658 0 0.361527889
0.808695629 0 0.350141656
0.8150044 0 0.382837032
0 0.140191952 0.359628795
0 0.122371168 0.335510052
0.0930903964 0.111055034 0.32643975
0.369348685 0.0971450622 0.318301283
0.556082952 0.0357939628 0.305740485
0.712709347 0.000273684022 0.28474226
0.788373998 0 0.29107469
0.805779093 0 0.317643715
0.814976935 0 0.382022156
0 0.366747217 0.378240171
0 0.325474506 0.334026081
0.0121474373 0.312649369 0.305408889
0.317483728 0.317063054 0.306210889
0.543664719 0.295263747 0.296557452
0.742389333 0.228166403 0.283268016
0.839703292 0.112726902 0.275736454
0.817352875 0.015449812 0.277710029
0.81606878 0.0036024955 0.380816243
0 0.525731001 0.366368483
0 0.484595752 0.31840137
0 0.475588203 0.276659362
0.176305441 0.500350361 0.273383882
0.513272018 0.499542556 0.265630319
0.743325683 0.471753678 0.266789018
0.894759055 0.406144181 0.252553471
0.902710359 0.304329939 0.251790362
0.827710577 0.0409570268 0.381913367
0 0.642596613 0.314466379
0 0.624664899 0.286867451
0 0.61824931 0.225037541
0.0617458706 0.656953627 0.20487904
0.429476852 0.690176969 0.14978248
0.723323368 0.688998913 0.128140996
0.90618754 0.658445468 0.190644077
0.974845692 0.59493049 0.202324469
0.912923047 0.328262482 0.397537115
0 0.703264747 0.272150451
0 0.697282371 0.250551782
0.00348296375 0.693220536 0.196417973
0.141368677 0.717861575 0.1411503
0.453302507 0.763840527 0.0597874032
0.722812968 0.804679147 0.00528966532
0.908717534 0.834147826 0.000620401001
0.996642534 0.82523709 0.0168905186
0.995802081 0.701675786 0.386140424
5.45963951e-05 0.730774692 0.392934614
0.00222971677 0.730390348 0.381434473
0.013488226 0.735725544 0.354239499
0.118287748 0.754233085 0.327064396
0.367754412 0.789451809 0.30254622
0.674969991 0.834173897 0.229238924
0.896993279 0.868538189 0.13646045
0.996268313 0.894297192 0.113871758
0.999985372 0.895762315 0.27417118
0.809653039 0.950889302 0.819994787
0.814541599 0.951748069 0.820608032
0.82258451 0.953160907 0.821615767
0.835154905 0.955366644 0.823133087
0.851040812 0.958074365 0.824691445
0.872771231 0.96155907 0.825836492
0.914984637 0.96832438 0.828030409
0.963030867 0.975405233 0.826123018
1 0.982193304 0.813527794
0 0.0877028984 0.463160456
0 0.0877070034 0.46322517
0.0549100178 0.0667284009 0.48833086
0.369324004 0.047252987 0.49891638
0.557621479 0.00158005826 0.479430948
0.722860291 0 0.461490221
0.799386381 0 0.467435533
0.816391495 0 0.489220991
0.819604196 0 0.45998607
0 0.0875099521 0.461880203
0 0.087480465 0.461790849
0.0671034724 0.0661257279 0.488244475
0.373679533 0.0449821791 0.496645963
0.559499555 0.00143405433 0.477182036
0.723226071 0 0.459172339
0.79942279 0 0.466275567
0.816266739 0 0.487261919
0.819577233 0 0.45958794
0 0.102501244 0.46185346
0 0.101547643 0.46032385
0.0350445206 0.0850509184 0.465938369
0.346116555 0.0731913734 0.474079485
0.538779816 0.0116725811 0.457505977
0.705241731 0 0.435863908
0.794293498 0 0.431358802
0.814183021 0 0.468672692
0.819530083 0 0.458857962
0 0.314232803 0.504306317
0 0.29896811 0.488664231
0.000289123001 0.277605834 0.463688011
0.271196658 0.280226267 0.473310515
0.521471836 0.251280665 0.463363753
0.725894692 0.168126914 0.445295532
0.831562198 0.0432654343 0.426092188
0.820462724 0.00484662408 0.409289338
0.819765129 0.000977212028 0.45767424
0 0.506778505 0.530061666
0 0.471970726 0.492134663
0 0.452776198 0.452372272
0.125878112 0.471430874 0.452482227
0.480903129 0.473851207 0.45702164
0.720497562 0.444859253 0.442756193
0.882962577 0.376274532 0.41927346
0.895909321 0.269029302 0.404365969
0.83060043 0.034943156 0.461169598
0 0.641746428 0.514269825
0 0.619488653 0.482522314
0 0.608829378 0.428246926
0.0145813035 0.643094154 0.41522055
0.371288414 0.674143077 0.426055114
0.693843125 0.671783881 0.412087974
0.888342435 0.638626249 0.405017735
0.965572377 0.571815799 0.387313345
0.911871273 0.317314366 0.492418692
0 0.720748528 0.46847473
0 0.715112249 0.449247066
0 0.714874088 0.401499297
0.0138122427 0.740727327 0.389144772
0.284440792 0.787558635 0.387190341
0.645367607 0.828085095 0.344650338
0.876295238 0.836125511 0.304059492
0.989851649 0.809825628 0.325313194
0.995165973 0.69955276 0.504033196
0 0.731981258 0.403234144
0.000757687987 0.731460587 0.393662607
0.00639137099 0.735191519 0.365871021
0.0927976862 0.75315683 0.340010349
0.341648069 0.78844733 0.319649938
0.65948534 0.83438616 0.248717238
0.889060066 0.869644862 0.153355453
0.994902169 0.895573762 0.133518127
1 0.901190748 0.440833389
0.809334958 0.950833115 0.819952706
0.814226547 0.951692414 0.82056633
0.822294704 0.953109724 0.82157813
0.834872639 0.955316785 0.82309636
0.850894233 0.958050611 0.824681431
0.872636508 0.961537217 0.825827102
0.914873397 0.968306399 0.828023057
0.962988234 0.975398786 0.826122999
1 0.982192776 0.813522221
0 0.13899602 0.568879415
0 0.139046069 0.568910112
0 0.138163588 0.568629865
0.2600701 0.128734953 0.640788855
0.529658597 0.0598198732 0.648567699
0.719273476 0.0020621946 0.621077826
0.816841131 0 0.602463797
0.821587494 0 0.591102739
0.825698925 0 0.552616862
0 0.13841422 0.568380542
0 0.138432735 0.568358043
0 0.138058004 0.568532384
0.269940179 0.127462454 0.641556716
0.532093319 0.0583253376 0.647580796
0.720137603 0.0019643046 0.620174089
0.816776765 0 0.601421128
0.821525474 0 0.590566902
0.825659627 0 0.552017856
0 0.137132337 0.567170287
0 0.137185543 0.567214681
0.000430642979 0.137101116 0.568426898
0.284425858 0.125092627 0.642204689
0.535608205 0.0555615551 0.645378703
0.721251459 0.00180872518 0.618118471
0.816644169 0 0.599496513
0.82142515 0 0.589466186
0.826041307 0 0.552202917
0 0.232630322 0.604412404
0 0.232297628 0.604348496
0 0.216046583 0.594184273
0.174949194 0.213010804 0.624146235
0.492598842 0.18034377 0.629469895
0.703942377 0.071268783 0.610086097
0.823838314 0.00635190429 0.581406378
0.826916019 0 0.55356068
0.826681557 0 0.552445164
0 0.441060746 0.630613111
0 0.44100818 0.63059208
0 0.420887332 0.609399527
0.0633425656 0.434214665 0.622907877
0.440224987 0.437851993 0.636424875
0.695188802 0.402366256 0.625211302
0.871486375 0.324089612 0.601913423
0.88921202 0.202573649 0.578431216
0.838192233 0.0285720033 0.562831377
0 0.630041009 0.664869738
0 0.612334369 0.645701268
0 0.587853081 0.601703319
0.00147589842 0.614389371 0.601093507
0.306827694 0.642592682 0.613540906
0.658304971 0.646288258 0.622966827
0.867911509 0.612927827 0.605262928
0.956401766 0.545540452 0.579090585
0.911322623 0.300733098 0.607798755
0 0.717539839 0.646631826
0 0.710813476 0.631839077
0 0.709189286 0.589766667
8.20180391e-05 0.742796572 0.569872095
0.142103809 0.78816985 0.58032636
0.577225581 0.825834449 0.593501611
0.845570993 0.825157163 0.580738088
0.975789268 0.794671632 0.5689121
0.994086455 0.693889147 0.640643819
0 0.748715056 0.614037351
0 0.749643803 0.60410496
0 0.758948201 0.570033782
0.00730099739 0.784470624 0.551992371
0.155011817 0.820187408 0.562134425
0.55363575 0.871303718 0.573005873
0.823544078 0.911393701 0.543824997
0.975483705 0.926419999 0.504254554
1 0.901981691 0.62878761
0.808673287 0.950716236 0.819865172
0.813571185 0.951576643 0.820479587
0.8216567 0.952997015 0.821493876
0.834285513 0.955213076 0.823019967
0.85058935 0.958001202 0.824660604
0.872356304 0.961491766 0.825807575
0.914642064 0.968269007 0.828007771
0.962899591 0.975385382 0.826122961
1 0.982191677 0.813510636
0 0.306890374 0.693350423
0 0.306941007 0.693385226
0 0.307025589 0.693443363
0.0131645633 0.316513356 0.701914236
0.439483674 0.315203805 0.749219819
0.713239612 0.253268556 0.764396553
0.863167374 0.0837623162 0.750243674
0.845715411 0.0120033425 0.716385115
0.820670627 0 0.642343008
0 0.306436761 0.693038629
0 0.306487475 0.693073487
0 0.306572191 0.693131718
0.0209362415 0.316580688 0.702794305
0.443758569 0.314360561 0.749426962
0.714546871 0.252168187 0.764276275
0.863108059 0.082385034 0.749976692
0.845441125 0.0115456948 0.716097567
0.821138069 0 0.64106232
0 0.305677219 0.692516553
0 0.305728068 0.692551504
0 0.305813011 0.69260989
0.0336566272 0.316673647 0.704225568
0.450657491 0.312787225 0.749696023
0.71639664 0.249523629 0.763857564
0.862853175 0.0795395197 0.749413926
0.84478851 0.0105627391 0.715412142
0.821351988 0 0.639895288
0 0.303770459 0.691303223
0 0.303821778 0.691338588
0 0.303818389 0.691355563
0.0523150384 0.315946384 0.705867331
0.461011947 0.309853346 0.74993556
0.719031348 0.244205279 0.762903466
0.862351725 0.0753246348 0.748091443
0.843641227 0.00888953593 0.714218885
0.822456014 0 0.641396197
0 0.391264163 0.720413852
0 0.391074966 0.720344542
0 0.390874971 0.720303589
0.0178901393 0.387164771 0.724544426
0.374579146 0.38902474 0.754707581
0.665758484 0.342115516 0.763106641
0.85514971 0.220299955 0.750350787
0.872218436 0.0625127027 0.721999988
0.835952083 0.0294033338 0.656973479
0 0.570947355 0.736192937
0 0.570870061 0.736218612
0 0.564043091 0.731573146
0.000127604728 0.577834812 0.738376905
0.225595553 0.606265979 0.765204808
0.617743938 0.608373596 0.782917549
0.84777313 0.572544529 0.775774017
0.947868311 0.503142685 0.754219536
0.912537684 0.286858892 0.725839183
0 0.711620779 0.756964753
0 0.708507519 0.753506577
0 0.692040117 0.725232061
0 0.722429291 0.724665148
0.0758634181 0.767419836 0.737813403
0.539038092 0.798308185 0.759595219
0.819108478 0.802273818 0.773374137
0.96148032 0.770458413 0.758713582
0.993373476 0.688243927 0.767180438
0 0.749433022 0.7387912
0 0.749041607 0.735373766
0 0.757014117 0.718306585
1.4439381e-05 0.788052801 0.705680212
0.0376137257 0.828372509 0.714720836
0.454913142 0.881301374 0.737836706
0.7774822 0.923588762 0.752617387
0.951366133 0.929008585 0.739040193
1 0.894655631 0.778506551
0.807216296 0.950458871 0.819672436
0.812128111 0.951321723 0.820288597
0.820236324 0.952746083 0.821305733
0.832992857 0.954984744 0.822851792
0.849918142 0.95789243 0.824614767
0.87173952 0.961391721 0.825764603
0.914132997 0.968186724 0.827974143
0.962704605 0.975355898 0.826122882
1 0.982189261 0.813485163
0.00159182132 0.531270356 0.771820945
0.00159232893 0.531290845 0.771826883
0.001593177 0.531325076 0.771836803
0.00159466971 0.531385328 0.771854263
0.172317472 0.55037382 0.792855906
0.633807306 0.562038839 0.827099937
0.862060322 0.519719213 0.834448996
0.944319856 0.440912384 0.82366266
0.830689286 0.0167221342 0.705171679
0.00158727598 0.531086887 0.771767777
0.00158778395 0.531107391 0.771773719
0.0015886326 0.531141646 0.771783646
0.00159012633 0.531201939 0.771801118
0.180406509 0.550653446 0.793405708
0.635438238 0.561657279 0.827155452
0.862459773 0.519320001 0.834393732
0.944286612 0.440538884 0.82358709
0.830552882 0.0165199647 0.70504142
0.00157967436 0.530780055 0.771678859
0.00158018291 0.530800582 0.771684807
0.00158103254 0.530834877 0.771694746
0.00158252798 0.530895239 0.771712238
0.193775301 0.551112189 0.794313508
0.638149676 0.561020797 0.827247302
0.863125779 0.518653124 0.83430134
0.944230986 0.439914457 0.823460746
0.829499048 0.0163971434 0.703775531
0.00156627094 0.530239039 0.771522076
0.00156678052 0.530259607 0.771528036
0.00156763187 0.530293972 0.771537995
0.00156913036 0.530351528 0.771554745
0.216877446 0.551894787 0.795879684
0.642882153 0.559903448 0.827406272
0.864293945 0.517479584 0.834138524
0.944089515 0.438445138 0.823169791
0.826855601 0.0163879572 0.700544916
0.00153196944 0.52897332 0.771153246
0.00153247678 0.52899403 0.771159247
0.0015333244 0.529028629 0.771169272
0.00151322658 0.528884317 0.771133139
0.2489432 0.552326137 0.797864195
0.649221397 0.557476165 0.827445485
0.865873328 0.514925615 0.833730874
0.943813683 0.436017519 0.822677507
0.834068355 0.0259340694 0.706662408
0 0.569514067 0.779686626
0 0.569479842 0.779680243
0 0.569379008 0.779664605
0 0.569091422 0.779592291
0.152606798 0.57488261 0.797538577
0.586252938 0.582100135 0.827457196
0.828162114 0.542945126 0.836293745
0.941071823 0.460949953 0.826566724
0.910814692 0.261197781 0.780761038
0 0.700759438 0.800964455
0 0.70074027 0.800972738
0 0.700692638 0.80096878
0 0.699747548 0.800788863
0.0257019753 0.736095869 0.817954204
0.492482881 0.771303358 0.849908338
0.789705659 0.774359102 0.870026312
0.948757778 0.738499875 0.869421008
0.993534117 0.679286586 0.858576459
0 0.746310687 0.801767944
0 0.745840228 0.80110705
0 0.745638772 0.794943349
0 0.77073934 0.796896904
0.00155309873 0.815227929 0.811403862
0.334754858 0.871829273 0.841198017
0.745700385 0.908016992 0.866268457
0.932552191 0.913289363 0.879135933
1 0.886696526 0.87928112
0.803543271 0.949810075 0.819186643
0.808490339 0.95067912 0.819807226
0.816656044 0.952113579 0.820831573
0.829735291 0.954409347 0.822428076
0.84822691 0.957618368 0.824499349
0.870185986 0.96113974 0.825656434
0.912851643 0.96797962 0.827889563
0.962214294 0.975281762 0.826122718
1 0.982181567 0.813403085
0.774348271 0.922239434 0.896144757
0.774348454 0.922239513 0.896144778
0.77434876 0.922239645 0.896144813
0.7743493 0.922239877 0.896144873
0.774350197 0.922240263 0.896144975
0.77435206 0.922241065 0.896145185
0.774356153 0.922242828 0.896145648
0.889536653 0.930622872 0.902989655
1 0.91014 0.905501
0.774346629 0.922238727 0.896144572
0.774346812 0.922238806 0.896144592
0.774347118 0.922238938 0.896144627
0.774347658 0.92223917 0.896144688
0.774348555 0.922239556 0.896144789
0.774350418 0.922240358 0.896145
0.774354511 0.922242121 0.896145462
0.889747745 0.930636262 0.903001111
1 0.91014 0.905501
0.774343885 0.922237545 0.896144262
0.774344068 0.922237624 0.896144282
0.774344375 0.922237756 0.896144317
0.774344914 0.922237989 0.896144378
0.774345811 0.922238375 0.896144479
0.774347674 0.922239177 0.89614469
0.774351768 0.92224094 0.896145152
0.89010001 0.930658606 0.903020228
1 0.91014 0.905501
0.774339054 0.922235465 0.896143716
0.774339238 0.922235544 0.896143737
0.774339544 0.922235676 0.896143771
0.774340084 0.922235908 0.896143832
0.774340981 0.922236295 0.896143934
0.774342844 0.922237097 0.896144144
0.774346939 0.92223886 0.896144607
0.890718816 0.930697855 0.903053808
1 0.91014 0.905501
0.774331026 0.922232008 0.896142809
0.774331209 0.922232087 0.89614283
0.774331516 0.922232219 0.896142864
0.774332056 0.922232451 0.896142925
0.774332953 0.922232838 0.896143027
0.774334817 0.92223364 0.896143237
0.774338912 0.922235404 0.8961437
0.89174332 0.930762829 0.903109405
1 0.91014 0.905501
0.774314336 0.922224821 0.896140923
0.77431452 0.9222249 0.896140944
0.774314827 0.922225032 0.896140979
0.774315367 0.922225265 0.89614104
0.774316264 0.922225651 0.896141141
0.774318129 0.922226454 0.896141352
0.774322226 0.922228219 0.896141815
0.893857618 0.930896892 0.903224137
1 0.91014 0.905501
0.774277637 0.922209018 0.896136777
0.774277821 0.922209097 0.896136798
0.774278128 0.922209229 0.896136833
0.774278669 0.922209462 0.896136894
0.774279567 0.922209849 0.896136995
0.774281434 0.922210653 0.896137206
0.774285536 0.922212419 0.89613767
0.898434935 0.931187006 0.903472512
1 0.91014 0.905501
0.774185433 0.922169313 0.896126361
0.774185618 0.922169392 0.896126381
0.774185926 0.922169525 0.896126416
0.774186468 0.922169758 0.896126477
0.774187368 0.922170146 0.896126579
0.77418924 0.922170952 0.896126791
0.774193352 0.922172723 0.896127255
0.908890116 0.931907872 0.904050003
1 0.91014 0.905501
0.521263721 0.911621285 0.883815666
0.534262116 0.913614065 0.884714865
0.555661695 0.916894828 0.886195241
0.592403225 0.922527665 0.888736941
0.650999548 0.931511067 0.892790515
0.745772866 0.946167342 0.899450806
0.840854005 0.961386207 0.906544083
0.929485822 0.975659447 0.913193256
1 0.991233259 0.919719642
